; generated by PrusaSlicer 2.6.0+win64 on 2023-06-22 at 21:35:26 UTC
; Postprocessed by [ArcWelder](https://github.com/FormerLurker/ArcWelderLib)
; Copyright(C) 2021 - Brad Hochgesang
; Version: 1.2.0, Branch: HEAD, BuildDate: 2021-11-21T20:25:43Z
; resolution=0.05mm
; path_tolerance=5.0%
; max_radius=9999.00mm
; default_xyz_precision=3
; default_e_precision=5
; extrusion_rate_variance_percent=5.0%








; 

; external perimeters extrusion width = 0.60mm
; perimeters extrusion width = 0.60mm
; infill extrusion width = 0.60mm
; solid infill extrusion width = 0.60mm
; top infill extrusion width = 0.38mm
; first layer extrusion width = 0.60mm

M73 P0 R48


; Pre-Processed for Cancel-Object support by preprocess_cancellation v0.2.0
; 1 known objects
EXCLUDE_OBJECT_DEFINE NAME=Body6_stl_id_0_copy_0 CENTER=117.506,117.705 POLYGON=[[106.691,103.023],[106.691,130.814],[130.306,130.814],[130.306,103.023]]
;TYPE:Custom
G90 ; use absolute coordinates
M83 ; extruder relative mode
M104 S205 ; set temporary nozzle temp to prevent oozing during homing
M140 S65 ; set final bed temp
G4 S30 ; allow partial nozzle warmup
G28 ; home all axis
BED_MESH_CALIBRATE
G1 Z50 F240
G1 X2.0 Y10 F3000
M104 S210 ; set final nozzle temp
M190 S65 ; wait for bed temp to stabilize
M109 S210 ; wait for nozzle temp to stabilize
M73 P0 R47
G1 Z0.28 F240
G92 E0
G1 X2.0 Y140 E10 F1500 ; prime the nozzle
G1 X2.3 Y140 F5000
G92 E0
M73 P1 R47
G1 X2.3 Y10 E10 F1200 ; prime the nozzle
G21 ; set units to millimeters
G90 ; use absolute coordinates
M82 ; use absolute distances for extrusion
G92 E0
; Filament gcode
M107
;LAYER_CHANGE
;Z:0.2
;HEIGHT:0.2
;BEFORE_LAYER_CHANGE
;0.2
M117 Layer 1/295 : klipper-PLA-0.6

G1 Z.2 F9000
SET_PRINT_STATS_INFO CURRENT_LAYER=1
;AFTER_LAYER_CHANGE
;0.2
G1 E-1.5 F3000
G92 E0
G1 X104.218 Y102.67 F9000
G1 E1.5 F3000
;TYPE:Skirt/Brim
;WIDTH:0.6
G1 F1200
G1 X105.53 Y101.724 E1.57492
G1 X111.509 Y98.373 E1.89241
G1 X113.748 Y97.574 E2.00253
G1 X116.125 Y97.556 E2.11264
G1 X118.375 Y98.323 E2.22275
G1 X120.247 Y99.789 E2.33289
G1 X121.193 Y101.101 E2.40781
G1 X133.416 Y122.909 E3.56584
G1 X134.215 Y125.148 E3.67596
G1 X134.232 Y127.525 E3.78607
G1 X133.465 Y129.776 E3.89623
G1 X132 Y131.647 E4.0063
G1 X130.688 Y132.594 E4.08125
G1 X124.709 Y135.944 E4.39872
G1 X122.47 Y136.744 E4.50886
G1 X120.093 Y136.761 E4.61897
G1 X117.843 Y135.994 E4.72908
G1 X115.971 Y134.528 E4.83922
G1 X115.025 Y133.216 E4.91414
G1 X102.803 Y111.408 E6.07214
G1 X102.003 Y109.169 E6.18228
G1 X101.986 Y106.792 E6.29239
G1 X102.753 Y104.542 E6.4025
G1 X104.163 Y102.741 E6.50845
G1 X104.695 Y103.288 F9000
G1 F1200
G1 X105.803 Y102.21 E6.58006
G1 X111.782 Y98.859 E6.89755
G1 X113.936 Y98.107 E7.00323
G1 X116.217 Y98.138 E7.1089
G1 X118.349 Y98.95 E7.21458
G1 X120.707 Y101.373 E7.37119
G1 X132.93 Y123.182 E8.52926
G1 X133.682 Y125.336 E8.63494
G1 X133.65 Y127.617 E8.74061
G1 X132.839 Y129.75 E8.84631
G1 X130.415 Y132.108 E9.00296
G1 X124.437 Y135.458 E9.32038
G1 X122.283 Y136.21 E9.42606
G1 X120.001 Y136.179 E9.53178
G1 X117.869 Y135.368 E9.63744
G1 X115.511 Y132.944 E9.79409
G1 X103.288 Y111.135 E10.95216
G1 X102.536 Y108.981 E11.05784
G1 X102.568 Y106.7 E11.16351
G1 X103.379 Y104.568 E11.26917
G1 X104.63 Y103.35 E11.35005
; printing object Body6.stl id:0 copy 0
EXCLUDE_OBJECT_START NAME=Body6_stl_id_0_copy_0
G1 E9.85005 F3000
G92 E0
G1 X121.987 Y127.055 F9000
G1 E1.5 F3000
;TYPE:Perimeter
;WIDTH:0.599999
G1 F1200
G1 X111.692 Y108.686 E2.4754
G1 X114.231 Y107.262 E2.61024
G1 X124.526 Y125.632 E3.58568
G1 X122.065 Y127.011 E3.71635
G1 X121.773 Y127.813 F9000
G1 F1200
G1 X110.933 Y108.472 E4.74337
G1 X114.445 Y106.504 E4.92985
G1 X125.285 Y125.845 E5.95687
G1 X121.852 Y127.769 E6.13916
G1 X121.56 Y128.572 F9000
G1 F1200
G1 X110.175 Y108.258 E7.21784
G1 X114.659 Y105.746 E7.45592
G1 X126.043 Y126.059 E8.53453
G1 X121.638 Y128.528 E8.76844
G1 X121.346 Y129.33 F9000
;TYPE:External perimeter
G1 F1200
G1 X109.417 Y108.045 E9.89867
G1 X114.872 Y104.987 E10.18835
M73 P2 R47
G1 X126.801 Y126.273 E11.31862
G1 X121.424 Y129.286 E11.60413
G1 X121.097 Y128.784 F9000
G1 E10.10413 F3000
G92 E0
G1 X113.405 Y107.917 F9000
G1 E1.5 F3000
;TYPE:Solid infill
;WIDTH:0.626348
G1 F1200
G1 X115.03 Y109.541 E1.61145
G1 X116.082 Y111.418 E1.71583
G1 X113.061 Y108.397 E1.92309
G1 X112.532 Y108.694 E1.95252
G1 X117.134 Y113.295 E2.26821
G1 X118.186 Y115.173 E2.37264
G1 X112.773 Y109.76 E2.74401
G1 X113.825 Y111.637 E2.84839
G1 X119.238 Y117.05 E3.21976
G1 X120.29 Y118.927 E3.32414
G1 X114.877 Y113.514 E3.69551
G1 X115.929 Y115.391 E3.79989
G1 X121.342 Y120.804 E4.17126
G1 X122.394 Y122.681 E4.27564
G1 X116.981 Y117.268 E4.64701
G1 X118.033 Y119.145 E4.75139
G1 X123.446 Y124.558 E5.12276
G1 X123.958 Y125.471 E5.17354
G1 X123.686 Y125.624 E5.18868
G1 X119.085 Y121.022 E5.50437
G1 X120.137 Y122.899 E5.60875
G1 X123.157 Y125.92 E5.81598
G1 X122.629 Y126.216 E5.84534
G1 X120.535 Y124.123 E5.98897
; stop printing object Body6.stl id:0 copy 0
EXCLUDE_OBJECT_END NAME=Body6_stl_id_0_copy_0
;LAYER_CHANGE
;Z:0.4
;HEIGHT:0.2
;BEFORE_LAYER_CHANGE
;0.4
M117 Layer 2/295 : klipper-PLA-0.6

G1 Z.4 F9000
SET_PRINT_STATS_INFO CURRENT_LAYER=2
;AFTER_LAYER_CHANGE
;0.4
M104 S208 ; set temperature
M140 S60 ; set bed temperature
; printing object Body6.stl id:0 copy 0
EXCLUDE_OBJECT_START NAME=Body6_stl_id_0_copy_0
G1 E4.48897 F3000
G92 E0
G1 X123.292 Y126.324 F9000
G1 E1.5 F3000
;TYPE:Perimeter
;WIDTH:0.599999
G1 F2400
G1 X121.431 Y127.366 E1.5988
G1 X111.136 Y108.997 E2.5742
G1 X114.857 Y106.911 E2.7718
G1 X125.152 Y125.281 E3.74724
G1 X123.37 Y126.28 E3.84187
G1 X123.564 Y126.81 F9000
G1 F2400
G1 X121.217 Y128.125 E3.96649
G1 X110.378 Y108.783 E4.99353
G1 X115.071 Y106.153 E5.24272
G1 X125.911 Y125.494 E6.26974
G1 X123.643 Y126.766 E6.39019
G1 X123.836 Y127.296 F9000
G1 F2400
G1 X121.004 Y128.883 E6.54057
G1 X109.619 Y108.57 E7.61921
G1 X115.285 Y105.395 E7.92006
G1 X126.669 Y125.708 E8.99867
G1 X123.915 Y127.252 E9.14492
G1 X124.109 Y127.782 F9000
;TYPE:External perimeter
G1 F2400
G1 X120.823 Y129.623 E9.31939
;TYPE:Overhang perimeter
;WIDTH:0.584808
;HEIGHT:0.584808
G1 X120.79 Y129.641 E9.32359
G1 X108.861 Y108.356 E12.04841
G1 X108.893 Y108.338 E12.05251
;TYPE:External perimeter
;WIDTH:0.599999
;HEIGHT:0.2
G1 X115.396 Y104.694 E12.39781
;TYPE:Overhang perimeter
;WIDTH:0.584808
;HEIGHT:0.584808
G1 X115.498 Y104.636 E12.41091
M73 P2 R46
G1 X127.427 Y125.922 E15.13582
G1 X127.325 Y125.979 E15.14887
;TYPE:External perimeter
;WIDTH:0.599999
;HEIGHT:0.2
G1 X124.187 Y127.738 E15.31551
G1 E13.81551 F3000
G92 E0
G1 X118.5 Y121.5 F9000
G1 X115.5 Y117
G1 X114.697 Y107.48
G1 E1.5 F3000
;TYPE:Solid infill
G1 F2400
G1 X111.705 Y109.157 E1.65888
G1 X121.591 Y126.798 E2.5956
G1 X124.584 Y125.121 E2.75452
G1 X114.833 Y107.723 E3.67836
G1 X114.484 Y108.238 E3.70718
G1 X112.463 Y109.371 E3.8145
G1 X121.805 Y126.039 E4.69958
G1 X123.825 Y124.907 E4.80684
G1 X114.62 Y108.481 E5.67904
G1 X114.27 Y108.997 E5.70792
G1 X113.221 Y109.585 E5.76362
G1 X122.018 Y125.281 E6.59708
G1 X123.067 Y124.693 E6.65278
G1 X114.406 Y109.24 E7.47334
G1 X114.04 Y109.815 E7.50491
;WIDTH:0.687922
G1 X122.249 Y124.463 E8.40547
; stop printing object Body6.stl id:0 copy 0
EXCLUDE_OBJECT_END NAME=Body6_stl_id_0_copy_0
M106 S255
;LAYER_CHANGE
;Z:0.6
;HEIGHT:0.2
;BEFORE_LAYER_CHANGE
;0.6
M117 Layer 3/295 : klipper-PLA-0.6

G1 Z.6 F9000
SET_PRINT_STATS_INFO CURRENT_LAYER=3
;AFTER_LAYER_CHANGE
;0.6
; printing object Body6.stl id:0 copy 0
EXCLUDE_OBJECT_START NAME=Body6_stl_id_0_copy_0
G1 E6.90547 F3000
G92 E0
G1 X123.318 Y126.309 F9000
G1 E1.5 F3000
;TYPE:Perimeter
;WIDTH:0.599999
G1 F2400
G1 X121.063 Y127.573 E1.61975
G1 X110.768 Y109.203 E2.59519
G1 X115.278 Y106.676 E2.83466
G1 X125.573 Y125.045 E3.81006
G1 X123.397 Y126.265 E3.92562
G1 X123.591 Y126.795 F9000
G1 F2400
G1 X120.85 Y128.331 E4.07116
G1 X110.01 Y108.99 E5.09818
G1 X115.492 Y105.917 E5.38929
G1 X126.331 Y125.259 E6.41633
G1 X123.669 Y126.751 E6.55768
G1 X123.863 Y127.281 F9000
G1 F2400
G1 X120.636 Y129.089 E6.72902
G1 X109.252 Y108.776 E7.80763
G1 X115.705 Y105.159 E8.15029
G1 X127.09 Y125.472 E9.22893
G1 X123.941 Y127.237 E9.39615
G1 X124.135 Y127.767 F9000
;TYPE:External perimeter
G1 F2400
G1 X120.422 Y129.848 E9.59331
G1 X108.493 Y108.562 E10.72358
G1 X115.919 Y104.401 E11.11788
G1 X127.848 Y125.686 E12.24811
G1 X124.214 Y127.723 E12.44108
G1 X123.537 Y127.725 F9000
G1 E10.94108 F3000
G92 E0
G1 X120.524 Y125.862 F9000
G1 E1.5 F3000
;TYPE:Solid infill
;WIDTH:0.55292
G1 F2400
G2 X120.585 Y125.878 I0.016 J0.062 E1.51353
;WIDTH:0.599999
G1 X120.839 Y126.317 E1.53702
G1 X121.417 Y126.895 E1.57488
G1 X121.147 Y127.154 E1.59221
;WIDTH:0.55292
G2 X121.209 Y127.170 I0.017 J0.061 E1.60573
;WIDTH:0.599999
G1 X121.922 Y126.612 E1.64767
G1 X119.834 Y124.525 E1.78442
G1 E.28442 F3000
G92 E0
G1 X118.83 Y122.732 F9000
G1 E1.5 F3000
G1 F2400
G1 X122.427 Y126.33 E1.73567
G1 X122.931 Y126.047 E1.76244
M73 P3 R46
G1 X117.825 Y120.94 E2.09696
G1 X117.572 Y120.501 E2.12043
;WIDTH:0.55292
G3 X117.510 Y120.485 I-0.045 J0.045 E2.13393
G1 E.63393 F3000
G92 E0
G1 X116.506 Y118.692 F9000
G1 E1.5 F3000
G1 F2400
G2 X116.567 Y118.709 I0.016 J0.062 E1.51353
;WIDTH:0.599999
G1 X116.821 Y119.148 E1.53702
G1 X123.436 Y125.764 E1.97039
G1 X123.941 Y125.481 E1.9972
G1 X115.816 Y117.356 E2.52945
G1 E1.02945 F3000
G92 E0
G1 X114.497 Y115.108 F9000
G1 E1.5 F3000
;WIDTH:0.55292
G1 F2400
G2 X114.558 Y115.124 I0.016 J0.062 E1.51353
;WIDTH:0.599999
G1 X114.812 Y115.563 E1.53702
G1 X124.446 Y125.198 E2.16816
G1 X124.951 Y124.915 E2.19497
G1 X113.807 Y113.771 E2.92499
G1 E1.42499 F3000
G92 E0
G1 X112.488 Y111.523 F9000
G1 E1.5 F3000
;WIDTH:0.55292
G1 F2400
G2 X112.549 Y111.540 I0.016 J0.062 E1.51353
;WIDTH:0.599999
G1 X112.803 Y111.979 E1.53702
G1 X124.106 Y123.282 E2.27746
G1 X124.388 Y123.614 E2.29764
;WIDTH:0.55292
G2 X124.450 Y123.631 I0.016 J0.062 E2.31119
G1 E.81119 F3000
G92 E0
G1 X123.445 Y121.839 F9000
G1 E1.5 F3000
G1 F2400
G3 X123.383 Y121.822 I-0.046 J0.044 E1.51352
;WIDTH:0.599999
G1 X123.102 Y121.49 E1.53367
G1 X111.798 Y110.186 E2.27417
G1 X111.238 Y109.279 E2.32355
;WIDTH:0.55292
G2 X111.299 Y109.295 I0.016 J0.062 E2.33708
;WIDTH:0.599999
G1 X111.61 Y109.21 E2.35201
G1 X122.441 Y120.046 E3.06169
;WIDTH:0.55292
G3 X122.379 Y120.030 I-0.045 J0.046 E3.07521
G1 E1.57521 F3000
G92 E0
G1 X121.436 Y118.254 F9000
G1 E1.5 F3000
G1 F2400
G3 X121.375 Y118.238 I-0.045 J0.045 E1.51358
;WIDTH:0.599999
G1 X121.093 Y117.905 E1.53379
G1 X112.115 Y108.927 E2.12192
G1 X112.62 Y108.644 E2.14873
G1 X120.088 Y116.113 E2.63798
G1 X120.37 Y116.445 E2.65816
;WIDTH:0.55292
G2 X120.432 Y116.462 I0.016 J0.062 E2.67167
G1 E1.17167 F3000
G92 E0
G1 X119.427 Y114.669 F9000
G1 E1.5 F3000
G1 F2400
G3 X119.366 Y114.653 I-0.045 J0.046 E1.51361
;WIDTH:0.599999
G1 X119.084 Y114.321 E1.53379
G1 X113.125 Y108.362 E1.92415
G1 X113.63 Y108.079 E1.95096
G1 X118.079 Y112.528 E2.24241
G1 X118.361 Y112.861 E2.26262
;WIDTH:0.55292
G2 X118.423 Y112.877 I0.017 J0.061 E2.27614
G1 E.77614 F3000
G92 E0
G1 X117.418 Y111.085 F9000
G1 E1.5 F3000
G1 F2400
G3 X117.357 Y111.068 I-0.045 J0.045 E1.51357
;WIDTH:0.599999
G1 X117.075 Y110.736 E1.53375
G1 X114.134 Y107.796 E1.72638
G1 X114.639 Y107.513 E1.75319
G1 X116.07 Y108.944 E1.84693
G1 X116.352 Y109.276 E1.86711
;WIDTH:0.55292
G2 X116.414 Y109.292 I0.017 J0.061 E1.88063
; stop printing object Body6.stl id:0 copy 0
EXCLUDE_OBJECT_END NAME=Body6_stl_id_0_copy_0
;LAYER_CHANGE
;Z:0.8
;HEIGHT:0.2
;BEFORE_LAYER_CHANGE
;0.8
M117 Layer 4/295 : klipper-PLA-0.6

G1 Z.8 F9000
SET_PRINT_STATS_INFO CURRENT_LAYER=4
;AFTER_LAYER_CHANGE
;0.8
; printing object Body6.stl id:0 copy 0
EXCLUDE_OBJECT_START NAME=Body6_stl_id_0_copy_0
G1 E.38063 F3000
G92 E0
G1 X117 Y111 F9000
G1 X120 Y115.5
G1 X121.5 Y118.5
G1 X123.339 Y126.297
G1 E1.5 F3000
;TYPE:Perimeter
;WIDTH:0.599999
G1 F2400
G1 X120.782 Y127.73 E1.63578
G1 X110.487 Y109.361 E2.61118
G1 X115.6 Y106.495 E2.88269
G1 X125.895 Y124.864 E3.85809
G1 X123.417 Y126.253 E3.98968
G1 X123.611 Y126.783 F9000
G1 F2400
G1 X120.569 Y128.488 E4.15121
G1 X109.729 Y109.147 E5.17823
G1 X115.814 Y105.737 E5.50134
G1 X126.654 Y125.078 E6.52836
G1 X123.69 Y126.739 E6.68574
G1 X123.883 Y127.269 F9000
G1 F2400
G1 X120.355 Y129.247 E6.87309
G1 X108.971 Y108.933 E7.95174
G1 X116.028 Y104.978 E8.32647
G1 X127.412 Y125.292 E9.40512
G1 X123.962 Y127.225 E9.5883
G1 X124.156 Y127.755 F9000
;TYPE:External perimeter
G1 F2400
G1 X120.141 Y130.005 E9.80149
G1 X108.212 Y108.72 E10.93172
G1 X116.241 Y104.22 E11.35806
G1 X128.17 Y125.505 E12.48829
G1 X124.234 Y127.711 E12.69729
G1 X123.558 Y127.71 F9000
G1 E11.19729 F3000
G92 E0
G1 X115.5 Y118.5 F9000
G1 X112.5 Y114
G1 X112.198 Y108.821
G1 E1.5 F3000
;TYPE:Solid infill
;WIDTH:0.55292
G1 F2400
G2 X112.182 Y108.883 I-0.061 J0.017 E1.51350
;WIDTH:0.599999
G1 X111.743 Y109.136 E1.53697
G1 X111.164 Y109.714 E1.57487
G1 X110.906 Y109.445 E1.59214
;WIDTH:0.55292
G2 X110.889 Y109.506 I-0.062 J0.016 E1.60567
;WIDTH:0.599999
G1 X111.447 Y110.219 E1.64761
G1 X113.535 Y108.132 E1.78436
G1 E.28436 F3000
G92 E0
G1 X115.327 Y107.127 F9000
G1 E1.5 F3000
G1 F2400
G1 X111.73 Y110.724 E1.73563
G1 X112.013 Y111.229 E1.76244
G1 X115.705 Y107.537 E2.0043
G1 X115.988 Y108.042 E2.03111
G1 X112.296 Y111.734 E2.27297
G1 X112.579 Y112.239 E2.29978
G1 X116.271 Y108.547 E2.54164
G1 X116.554 Y109.052 E2.56845
G1 X112.862 Y112.744 E2.81031
G1 X113.145 Y113.248 E2.83708
G1 X116.837 Y109.556 E3.07894
G1 X117.12 Y110.061 E3.10575
G1 X113.428 Y113.753 E3.34761
G1 X113.711 Y114.258 E3.37442
G1 X117.403 Y110.566 E3.61628
G1 X117.686 Y111.071 E3.64309
G1 X113.994 Y114.763 E3.88495
G1 X114.277 Y115.268 E3.91176
G1 X117.969 Y111.576 E4.15362
G1 X118.252 Y112.081 E4.18043
G1 X114.56 Y115.773 E4.42229
G1 X114.843 Y116.278 E4.4491
G1 X118.535 Y112.586 E4.69096
G1 X118.818 Y113.091 E4.71777
G1 X115.126 Y116.783 E4.95963
G1 X115.409 Y117.287 E4.9864
G1 X119.101 Y113.595 E5.22826
G1 X119.384 Y114.1 E5.25507
G1 X115.692 Y117.792 E5.49693
G1 X115.975 Y118.297 E5.52374
G1 X119.667 Y114.605 E5.7656
G1 X119.95 Y115.11 E5.79241
G1 X116.258 Y118.802 E6.03427
G1 X116.541 Y119.307 E6.06108
G1 X120.233 Y115.615 E6.30294
G1 X120.516 Y116.12 E6.32975
G1 X116.823 Y119.812 E6.57164
G1 X117.106 Y120.317 E6.59845
G1 X120.798 Y116.625 E6.84031
G1 X121.081 Y117.13 E6.86712
G1 X117.389 Y120.822 E7.10898
G1 X117.672 Y121.326 E7.13575
G1 X121.364 Y117.634 E7.37761
G1 X121.647 Y118.139 E7.40442
G1 X117.955 Y121.831 E7.64628
G1 X118.238 Y122.336 E7.67309
G1 X121.93 Y118.644 E7.91495
G1 X122.213 Y119.149 E7.94176
G1 X118.521 Y122.841 E8.18362
G1 X118.804 Y123.346 E8.21043
G1 X122.496 Y119.654 E8.45229
G1 X122.779 Y120.159 E8.4791
G1 X119.087 Y123.851 E8.72096
G1 X119.37 Y124.356 E8.74777
G1 X123.062 Y120.664 E8.98963
G1 X123.345 Y121.169 E9.01644
G1 X119.653 Y124.861 E9.2583
G1 X119.936 Y125.366 E9.28511
G1 X123.628 Y121.673 E9.527
G1 X123.911 Y122.178 E9.55381
G1 X120.219 Y125.87 E9.79567
G1 X120.502 Y126.375 E9.82248
G1 X124.194 Y122.683 E10.06434
G1 X124.477 Y123.188 E10.09115
G1 X120.785 Y126.88 E10.33301
G1 X120.981 Y127.226 E10.35143
;WIDTH:0.55292
G2 X120.965 Y127.287 I-0.062 J0.016 E10.36496
;WIDTH:0.599999
G1 X121.736 Y126.716 E10.4094
G1 X124.76 Y123.693 E10.60746
G1 X125.043 Y124.198 E10.63427
G1 X123.529 Y125.712 E10.73345
G1 X123.196 Y125.994 E10.75366
;WIDTH:0.55292
G2 X123.180 Y126.055 I-0.062 J0.016 E10.76719
G1 E9.26719 F3000
G92 E0
G1 X125.375 Y124.753 F9000
G1 E1.5 F3000
;WIDTH:0.601522
G1 F2400
G3 X125.393 Y124.686 I-0.049 J-0.049 E1.51624
; stop printing object Body6.stl id:0 copy 0
EXCLUDE_OBJECT_END NAME=Body6_stl_id_0_copy_0
;LAYER_CHANGE
;Z:1
;HEIGHT:0.2
;BEFORE_LAYER_CHANGE
;1
M117 Layer 5/295 : klipper-PLA-0.6

G1 Z1 F9000
SET_PRINT_STATS_INFO CURRENT_LAYER=5
;AFTER_LAYER_CHANGE
;1
; printing object Body6.stl id:0 copy 0
EXCLUDE_OBJECT_START NAME=Body6_stl_id_0_copy_0
G1 E.01624 F3000
G92 E0
G1 X123.358 Y126.287 F9000
G1 E1.5 F3000
;TYPE:Perimeter
;WIDTH:0.599999
G1 F2400
G1 X120.549 Y127.861 E1.64915
G1 X110.254 Y109.492 E2.62455
G1 X115.872 Y106.343 E2.92288
G1 X126.167 Y124.712 E3.89828
