; generated by PrusaSlicer 2.6.0+win64 on 2023-06-22 at 22:22:53 UTC
; Postprocessed by [ArcWelder](https://github.com/FormerLurker/ArcWelderLib)
; Copyright(C) 2021 - Brad Hochgesang
; Version: 1.2.0, Branch: HEAD, BuildDate: 2021-11-21T20:25:43Z
; resolution=0.05mm
; path_tolerance=5.0%
; max_radius=9999.00mm
; default_xyz_precision=3
; default_e_precision=5
; extrusion_rate_variance_percent=5.0%








; 

; external perimeters extrusion width = 0.66mm
; perimeters extrusion width = 0.66mm
; infill extrusion width = 0.66mm
; solid infill extrusion width = 0.66mm
; top infill extrusion width = 0.38mm
; support material extrusion width = 0.60mm
; first layer extrusion width = 0.66mm

M73 P0 R16


; Pre-Processed for Cancel-Object support by preprocess_cancellation v0.2.0
; 1 known objects
EXCLUDE_OBJECT_DEFINE NAME=Body7_stl_id_0_copy_0 CENTER=118.091,120.274 POLYGON=[[106.879,106.479],[106.879,128.711],[128.314,128.711],[128.314,106.479]]
;TYPE:Custom
G90 ; use absolute coordinates
M83 ; extruder relative mode
M104 S205 ; set temporary nozzle temp to prevent oozing during homing
M140 S65 ; set final bed temp
G4 S30 ; allow partial nozzle warmup
G28 ; home all axis
BED_MESH_CALIBRATE
G1 Z50 F240
G1 X2.0 Y10 F3000
M104 S210 ; set final nozzle temp
M190 S65 ; wait for bed temp to stabilize
M109 S210 ; wait for nozzle temp to stabilize
M73 P1 R16
G1 Z0.28 F240
G92 E0
G1 X2.0 Y140 E10 F1500 ; prime the nozzle
M73 P2 R16
G1 X2.3 Y140 F5000
G92 E0
M73 P3 R15
G1 X2.3 Y10 E10 F1200 ; prime the nozzle
G21 ; set units to millimeters
G90 ; use absolute coordinates
M82 ; use absolute distances for extrusion
G92 E0
; Filament gcode
M107
;LAYER_CHANGE
;Z:0.2
;HEIGHT:0.2
;BEFORE_LAYER_CHANGE
;0.2
M117 Layer 1/90 : klipper-PLA-0.6

G1 Z.2 F7800
SET_PRINT_STATS_INFO CURRENT_LAYER=1
;AFTER_LAYER_CHANGE
;0.2
G1 E-1.5 F3000
G92 E0
G1 X103.757 Y103.377 F7800
G1 E1.5 F3000
;TYPE:Skirt/Brim
;WIDTH:0.66
G1 F1200
G1 X106.205 Y100.919 E1.68156
G1 X108.158 Y99.529 E1.80702
G1 X110.458 Y98.852 E1.9325
G1 X112.853 Y98.965 E2.05799
G1 X115.885 Y100.422 E2.23405
G1 X131.388 Y113.039 E3.28017
G1 X132.529 Y114.171 E3.36429
M73 P4 R15
G1 X133.559 Y115.483 E3.45159
G1 X134.387 Y116.859 E3.53564
G1 X135.065 Y118.383 E3.62294
G1 X135.666 Y120.562 E3.74124
G3 X135.889 Y122.872 I-12.806 J2.402 E3.86282
G1 X135.715 Y125.126 E3.98114
G3 X135.038 Y127.654 I-13.075 J-2.147 E4.11828
G1 X133.357 Y130.292 E4.28199
G1 X130.617 Y133.017 E4.48424
G3 X124.148 Y136.137 I-8.310 J-8.964 E4.86557
G1 X122.438 Y136.276 E4.95536
G3 X119.806 Y136.019 I-0.137 J-12.203 E5.09397
G1 X118.269 Y135.593 E5.17744
G1 X116.693 Y134.915 E5.26723
G3 X113.652 Y132.695 I5.688 J-10.984 E5.46498
G1 X102.369 Y121.397 E6.30065
G3 X99.929 Y117.485 I8.957 J-8.304 E6.54331
G1 X99.426 Y115.845 E6.63309
G1 X99.197 Y114.541 E6.70238
G1 X99.111 Y112.948 E6.78587
G3 X99.426 Y110.322 I12.169 J0.128 E6.92450
G1 X99.929 Y108.682 E7.01428
G1 X100.472 Y107.474 E7.0836
G1 X101.294 Y106.107 E7.16708
G1 X102.369 Y104.77 E7.25687
G1 X103.694 Y103.44 E7.35513
G1 X104.127 Y103.873 F7800
G1 F1200
G1 X106.642 Y101.356 E7.54135
G1 X108.519 Y100.04 E7.66133
G1 X110.732 Y99.444 E7.78128
G1 X113.016 Y99.638 E7.90125
G1 X115.495 Y100.901 E8.04686
G1 X130.976 Y113.498 E9.09143
G3 X134.484 Y118.591 I-8.329 J9.491 E9.41820
G1 X135.061 Y120.682 E9.53173
G1 X135.272 Y122.871 E9.64683
G1 X135.105 Y125.033 E9.76032
G3 X134.458 Y127.442 I-12.459 J-2.055 E9.89103
G1 X132.92 Y129.856 E10.04083
G1 X130.193 Y132.569 E10.24215
G3 X128.407 Y133.927 I-7.867 J-8.493 E10.35971
G1 X126.477 Y134.884 E10.47246
G1 X124.932 Y135.358 E10.55704
G3 X122.438 Y135.659 I-2.631 J-11.317 E10.68871
G1 X120.913 Y135.576 E10.76864
G1 X119.326 Y135.272 E10.85321
G3 X115.673 Y133.582 I2.992 J-11.261 E11.06481
G1 X114.089 Y132.258 E11.17286
G1 X102.817 Y120.973 E12.00764
G3 X101.460 Y119.188 I8.529 J-7.892 E12.12512
G1 X100.502 Y117.257 E12.23794
G1 X100.028 Y115.713 E12.32247
G1 X99.81 Y114.474 E12.38831
G3 X99.810 Y111.693 I11.637 J-1.391 E12.53411
G1 X100.028 Y110.455 E12.5999
G1 X100.502 Y108.91 E12.68448
G1 X101.017 Y107.763 E12.75028
G1 X101.805 Y106.453 E12.83029
G1 X103 Y105.001 E12.92871
M73 P5 R15
G1 X104.063 Y103.937 E13.00743
; printing object Body7.stl id:0 copy 0
EXCLUDE_OBJECT_START NAME=Body7_stl_id_0_copy_0
G1 E11.50743 F3000
G92 E0
G1 X122.867 Y120.468 F7800
G1 E1.5 F3000
;TYPE:Support material
G1 F1200
G3 X122.362 Y120.477 I-0.208 J2.515 E2.30206
G1 X122.775 Y120.464 E2.32369
G1 X124.356 Y124.45 F7800
G1 F1200
G1 X124.356 Y121.993 E2.45228
G2 X123.671 Y121.297 I-1.684 J0.973 E2.50390
G1 X123.671 Y124.668 E2.68033
G3 X122.985 Y124.923 I-1.011 J-1.668 E2.71880
G1 X122.985 Y121.044 E2.92181
G2 X122.299 Y121.048 I-0.332 J1.864 E2.95786
G1 X122.299 Y124.917 E3.16035
G3 X121.614 Y124.652 I0.341 J-1.899 E3.19896
G1 X121.614 Y121.315 E3.37361
G2 X120.928 Y122.044 I1.031 J1.658 E3.42655
G1 X120.928 Y124.416 E3.55069
G1 E2.05069 F3000
G92 E0
G1 X118.797 Y124.573 F7800
G1 X118.211 Y124.81
G1 E1.5 F3000
;TYPE:Perimeter
;WIDTH:0.659999
G1 F1200
G1 X116.618 Y123.218 E1.61787
;WIDTH:0.707431
G1 X116.357 Y122.923 E1.64007
;WIDTH:0.754862
G1 X116.095 Y122.628 E1.66389
;WIDTH:0.802293
G2 X115.585 Y122.095 I-3.433 J2.774 E1.71144
;WIDTH:0.787301
G1 X108.997 Y115.507 E2.29964
;WIDTH:0.789502
G3 X108.440 Y114.788 I2.559 J-2.558 E2.35734
;WIDTH:0.773055
G1 X108.195 Y114.305 E2.39088
;WIDTH:0.753448
G1 X108.023 Y113.777 E2.42434
;WIDTH:0.72317
G1 X107.937 Y113.262 E2.45446
;WIDTH:0.687291
G1 X107.923 Y112.721 E2.48404
;WIDTH:0.643139
G1 X107.972 Y112.398 E2.50067
;WIDTH:0.611249
G1 X108.02 Y112.074 E2.51646
;WIDTH:0.628106
G1 X108.082 Y111.974 E2.5223
;WIDTH:0.676854
G1 X108.144 Y111.874 E2.52863
;WIDTH:0.725602
G1 X108.207 Y111.773 E2.53552
;WIDTH:0.76732
G1 X108.257 Y111.717 E2.54013
;WIDTH:0.809038
G1 X108.308 Y111.661 E2.54505
;WIDTH:0.850755
G1 X108.358 Y111.604 E2.55024
;WIDTH:0.892473
G1 X108.409 Y111.548 E2.5557
;WIDTH:0.93419
G1 X108.459 Y111.492 E2.56137
G1 X108.47 Y111.575 E2.5677
;WIDTH:0.889836
G1 X108.481 Y111.659 E2.57379
;WIDTH:0.845482
G1 X108.492 Y111.743 E2.57956
;WIDTH:0.801128
G1 X108.503 Y111.826 E2.58494
;WIDTH:0.756774
G1 X108.514 Y111.91 E2.59007
;WIDTH:0.71242
G1 X108.525 Y111.994 E2.59488
;WIDTH:0.668066
G1 X108.536 Y112.077 E2.59932
;WIDTH:0.623712
G1 X108.547 Y112.161 E2.60349
;WIDTH:0.611249
G1 X108.532 Y112.437 E2.61681
;WIDTH:0.643139
G1 X108.517 Y112.712 E2.63083
;WIDTH:0.687291
G1 X108.577 Y113.209 E2.65819
;WIDTH:0.72317
G1 X108.671 Y113.585 E2.68055
;WIDTH:0.753448
G1 X108.858 Y114.049 E2.7107
;WIDTH:0.783851
G1 X109.123 Y114.494 E2.74325
;WIDTH:0.787301
G1 X109.524 Y114.981 E2.78308
G1 X116.112 Y121.569 E3.37128
;WIDTH:0.802293
G2 X116.476 Y121.812 I0.499 J-0.353 E3.39992
;WIDTH:0.752298
G1 X116.632 Y121.87 E3.40993
;WIDTH:0.702302
G1 X117.17 Y121.974 E3.44057
;WIDTH:0.659999
G2 X118.025 Y121.728 I0.097 J-1.271 E3.48821
G1 X117.903 Y122.256 E3.51657
G2 X118.182 Y124.725 I4.656 J0.724 E3.64803
G1 E2.14803 F3000
G92 E0
G1 X117.186 Y122.611 F7800
G1 E1.5 F3000
;WIDTH:0.884478
G1 F1200
G2 X117.239 Y122.702 I-0.052 J0.091 E1.53746
G1 E.03746 F3000
G92 E0
G1 X117.49 Y121.954 F7800
G1 X121.975 Y117.955
G1 X127.067 Y120.475
G1 X126.913 Y125.196
G1 X122.853 Y128.08
G1 X122.678 Y128.099
G1 X122.584 Y127.236
G1 E1.5 F3000
;WIDTH:0.82722
G1 F1200
G1 X121.833 Y127.18 E1.55009
;WIDTH:0.8318
G3 X120.394 Y126.599 I0.680 J-3.758 E1.65446
;WIDTH:0.823485
G1 X119.989 Y126.296 E1.68795
;WIDTH:0.798503
G1 X119.618 Y125.96 E1.72003
;WIDTH:0.830207
G1 X119.066 Y125.31 E1.77697
G1 X118.988 Y125.11 E1.7913
;WIDTH:0.787655
G1 X118.909 Y124.911 E1.80482
;WIDTH:0.745103
G1 X118.83 Y124.711 E1.81763
;WIDTH:0.702551
G1 X118.752 Y124.511 E1.82964
;WIDTH:0.659999
G3 X118.518 Y122.307 I3.890 J-1.527 E1.94690
;WIDTH:0.704665
G1 X118.605 Y121.896 E1.97048
;WIDTH:0.749331
G1 X118.692 Y121.484 E1.99571
;WIDTH:0.785491
G3 X119.032 Y120.762 I2.553 J0.761 E2.04610
;WIDTH:0.782903
G1 X119.54 Y120.093 E2.09882
;WIDTH:0.783725
G3 X120.229 Y119.494 I3.420 J3.238 E2.15625
;WIDTH:0.78269
G1 X120.91 Y119.108 E2.20536
;WIDTH:0.783154
G3 X121.783 Y118.823 I1.849 J4.185 E2.26308
;WIDTH:0.782898
G3 X123.147 Y118.759 I0.892 J4.452 E2.34902
;WIDTH:0.785565
G3 X124.350 Y119.089 I-0.684 J4.852 E2.42775
;WIDTH:0.784694
G1 X124.801 Y119.31 E2.45935
;WIDTH:0.783254
G1 X125.42 Y119.755 E2.50722
;WIDTH:0.786278
G3 X126.178 Y120.599 I-3.483 J3.890 E2.57885
;WIDTH:0.778659
G1 X126.502 Y121.168 E2.61971
;WIDTH:0.786304
G3 X126.829 Y122.163 I-5.257 J2.279 E2.68581
;WIDTH:0.784342
G3 X126.906 Y123.080 I-4.811 J0.866 E2.74373
;WIDTH:0.783127
G1 X126.855 Y123.663 E2.78047
;WIDTH:0.778628
G1 X126.677 Y124.341 E2.82421
;WIDTH:0.778251
G1 X126.55 Y124.557 E2.83984
;WIDTH:0.730389
G1 X126.424 Y124.772 E2.85437
;WIDTH:0.682527
G1 X126.298 Y124.988 E2.86794
;WIDTH:0.634665
G1 X126.171 Y125.203 E2.88047
;WIDTH:0.586803
G1 X125.903 Y125.522 E2.89969
;WIDTH:0.558326
G1 X125.636 Y125.841 E2.91787
;WIDTH:0.561878
G1 X125.017 Y126.39 E2.95429
;WIDTH:0.608787
G1 X124.682 Y126.603 E2.97334
;WIDTH:0.655695
G1 X124.346 Y126.816 E2.99402
;WIDTH:0.695905
G1 X123.936 Y126.97 E3.01828
;WIDTH:0.736114
G1 X123.525 Y127.124 E3.04408
;WIDTH:0.765157
G1 X123.105 Y127.184 E3.07007
;WIDTH:0.794199
G1 X122.685 Y127.243 E3.09709
;WIDTH:0.82722
G1 X122.674 Y127.243 E3.09782
G1 X122.178 Y127.992 F7800
G1 F1200
G1 X121.745 Y127.959 E3.12671
;WIDTH:0.844486
G3 X120.432 Y127.530 I0.537 J-3.866 E3.22098
;WIDTH:0.829452
G1 X119.956 Y127.243 E3.25806
;WIDTH:0.823485
G1 X119.473 Y126.847 E3.29941
;WIDTH:0.798503
G1 X118.922 Y126.306 E3.34889
;WIDTH:0.830207
G2 X118.360 Y125.741 I-1.853 J1.281 E3.40223
;WIDTH:0.789604
G1 X118.245 Y125.655 E3.41132
;WIDTH:0.749001
G1 X117.998 Y125.439 E3.43097
;WIDTH:0.7045
G1 X117.751 Y125.223 E3.44938
;WIDTH:0.659999
G1 X108.495 Y115.968 E4.13443
G3 X108.327 Y110.378 I2.895 J-2.885 E4.45654
G1 X111.344 Y107.353 E4.68014
G1 X112.125 Y108.134 E4.73795
G1 X109.965 Y110.293 E4.89779
G2 X109.965 Y114.460 I2.140 J2.084 E5.13927
G1 X116.593 Y121.087 E5.6298
G1 X116.883 Y121.284 E5.64815
M73 P6 R15
G2 X117.516 Y121.319 I0.365 J-0.861 E5.68184
;WIDTH:0.704665
G1 X117.742 Y121.2 E5.69618
;WIDTH:0.749331
G1 X117.969 Y121.082 E5.71151
;WIDTH:0.785491
G2 X118.380 Y120.414 I-1.496 J-1.381 E5.76110
;WIDTH:0.784761
G3 X118.981 Y119.608 I4.402 J2.656 E5.82443
;WIDTH:0.783725
G3 X120.044 Y118.739 I3.660 J3.393 E5.91089
;WIDTH:0.78269
G1 X120.559 Y118.458 E5.9477
;WIDTH:0.783154
G3 X121.905 Y118.057 I2.040 J4.387 E6.03609
;WIDTH:0.782898
G3 X122.831 Y118.006 I0.683 J3.970 E6.09439
;WIDTH:0.772292
G1 X123.465 Y118.067 E6.13379
;WIDTH:0.785565
G3 X124.634 Y118.405 I-0.731 J4.720 E6.21059
;WIDTH:0.784694
G1 X125.088 Y118.625 E6.24233
;WIDTH:0.784517
G3 X126.163 Y119.447 I-2.329 J4.160 E6.32765
;WIDTH:0.777524
G1 X126.674 Y120.025 E6.37572
;WIDTH:0.786731
G3 X127.219 Y120.956 I-4.496 J3.257 E6.44386
;WIDTH:0.786304
G3 X127.576 Y122.149 I-5.277 J2.229 E6.52249
;WIDTH:0.784342
G3 X127.644 Y123.103 I-4.995 J0.835 E6.58270
;WIDTH:0.784581
G3 X127.516 Y124.110 I-4.852 J-0.105 E6.64664
;WIDTH:0.781899
G1 X127.354 Y124.64 E6.68137
;WIDTH:0.778251
G1 X127.193 Y124.833 E6.69704
;WIDTH:0.732495
G1 X127.032 Y125.025 E6.71169
;WIDTH:0.686738
G1 X126.838 Y125.248 E6.72783
;WIDTH:0.64561
G1 X126.643 Y125.471 E6.74297
;WIDTH:0.604482
G1 X126.449 Y125.694 E6.75705
;WIDTH:0.563353
G1 X125.84 Y126.324 E6.79573
;WIDTH:0.557228
G1 X125.517 Y126.626 E6.81502
;WIDTH:0.584818
G1 X125.194 Y126.929 E6.83537
;WIDTH:0.620257
G1 X124.937 Y127.127 E6.85126
;WIDTH:0.655695
G1 X124.681 Y127.326 E6.86811
;WIDTH:0.694752
G1 X124.279 Y127.558 E6.89377
;WIDTH:0.738714
G1 X123.738 Y127.784 E6.92837
;WIDTH:0.775168
G1 X123.255 Y127.92 E6.95953
;WIDTH:0.809783
G1 X122.451 Y128.012 E7.01216
;WIDTH:0.82722
G1 X122.267 Y127.998 E7.02443
G1 X122.124 Y128.705 F7800
;TYPE:External perimeter
;WIDTH:0.659999
G1 F1200
G3 X118.998 Y127.343 I0.239 J-4.816 E7.20679
G1 X108.08 Y116.425 E8.01489
G3 X107.867 Y109.965 I3.294 J-3.342 E8.38808
G1 X111.343 Y106.48 E8.64569
G1 X112.998 Y108.134 E8.76815
G1 X110.402 Y110.73 E8.96029
G2 X110.402 Y114.023 I1.666 J1.647 E9.15112
G1 X117.029 Y120.651 E9.64165
G2 X117.519 Y120.579 I0.218 J-0.218 E9.67121
G3 X127.950 Y125.001 I5.134 J2.404 E10.58066
G1 X125.422 Y127.519 E10.7674
G3 X122.214 Y128.710 I-3.139 J-3.540 E10.95061
G1 X121.845 Y128.174 F7800
G1 E9.45061 F3000
G92 E0
G1 X122.389 Y127.149 F7800
G2 X122.684 Y127.157 I0.220 J-2.683
G1 X122.674 Y126.557
G1 E1.5 F3000
G1 F1200
G3 X126.191 Y123.479 I-0.023 J-3.575 E2.40752
G1 X125.962 Y124.353 E2.45481
G3 X122.763 Y126.549 I-3.276 J-1.344 E2.66944
G1 X122.376 Y127.078 F7800
G1 E1.16944 F3000
G92 E0
G1 X122.773 Y127.156 F7800
G3 X119.423 Y125.626 I-0.121 J-4.167
G1 X109.817 Y114.268
G3 X109.968 Y110.321 I2.231 J-1.891
G1 X112.155 Y108.134
G1 X111.75 Y107.729
G1 X111.344 Y108.134
G1 E1.5 F3000
;TYPE:Perimeter
;WIDTH:0.529594
G1 F1200
G1 X109.575 Y109.906 E1.60335
;WIDTH:0.562437
G1 X109.347 Y110.16 E1.61839
;WIDTH:0.59876
G1 X109.12 Y110.414 E1.63445
;WIDTH:0.643042
G1 X109.018 Y110.547 E1.64298
;WIDTH:0.687323
G1 X108.916 Y110.681 E1.65218
;WIDTH:0.731604
G1 X108.814 Y110.814 E1.66197
;WIDTH:0.78103
G1 X108.729 Y110.976 E1.67342
;WIDTH:0.830455
G1 X108.643 Y111.137 E1.68561
;WIDTH:0.879881
G1 X108.557 Y111.299 E1.69863
;WIDTH:0.929306
G1 X108.471 Y111.46 E1.71235
;WIDTH:0.934874
G1 X108.459 Y111.49 E1.71479
; stop printing object Body7.stl id:0 copy 0
EXCLUDE_OBJECT_END NAME=Body7_stl_id_0_copy_0
;LAYER_CHANGE
;Z:0.4
;HEIGHT:0.2
;BEFORE_LAYER_CHANGE
;0.4
M117 Layer 2/90 : klipper-PLA-0.6

G1 Z.4 F7800
SET_PRINT_STATS_INFO CURRENT_LAYER=2
;AFTER_LAYER_CHANGE
;0.4
M104 S208 ; set temperature
M140 S60 ; set bed temperature
; printing object Body7.stl id:0 copy 0
EXCLUDE_OBJECT_START NAME=Body7_stl_id_0_copy_0
G1 E.21479 F3000
G92 E0
G1 X109.235 Y111.687 F7800
G2 X109.986 Y114.414 I2.806 J0.694
G1 X117.483 Y121.911
G1 X119.104 Y120.841
G1 X122.395 Y123.731
G1 E1.5 F3000
;TYPE:Support material
;WIDTH:0.6
G1 F2100
G3 X122.949 Y121.828 I0.477 J-0.893 E1.63043
G1 X123.046 Y121.236 E1.65877
G3 X122.276 Y121.335 I-0.185 J1.608 E2.10210
G3 X122.964 Y121.222 I0.600 J1.504 E2.13524
G1 X123.427 Y120.69 F7800
G1 F2100
G3 X122.516 Y120.646 I-0.560 J2.151 E2.75104
G3 X123.345 Y120.677 I0.344 J1.901 E2.79046
G1 E1.29046 F3000
G92 E0
G1 X118.821 Y124.564 F7800
G1 X118.211 Y124.81
G1 E1.5 F3000
;TYPE:Perimeter
;WIDTH:0.659999
G1 F2100
G1 X116.618 Y123.218 E1.61787
;WIDTH:0.707431
G1 X116.357 Y122.923 E1.64007
;WIDTH:0.754862
G1 X116.095 Y122.628 E1.66389
;WIDTH:0.802293
G2 X115.585 Y122.095 I-3.433 J2.774 E1.71144
;WIDTH:0.787301
G1 X108.87 Y115.368 E2.31152
;WIDTH:0.784116
G1 X108.531 Y114.939 E2.34589
;WIDTH:0.783936
M73 P7 R15
G1 X108.273 Y114.487 E2.3786
;WIDTH:0.757685
G1 X108.099 Y114.06 E2.40655
;WIDTH:0.74935
G1 X108.02 Y113.71 E2.42805
;WIDTH:0.723036
G1 X107.942 Y113.359 E2.44879
;WIDTH:0.696722
G1 X107.923 Y112.78 E2.48091
;WIDTH:0.65156
G1 X107.953 Y112.514 E2.49473
;WIDTH:0.623081
G1 X107.982 Y112.248 E2.5079
;WIDTH:0.594602
G3 X108.330 Y111.371 I4.025 J1.089 E2.55212
;WIDTH:0.595772
G1 X108.666 Y110.89 E2.57963
;WIDTH:0.614648
G1 X109.06 Y110.485 E2.60703
G1 X108.943 Y110.693 E2.6186
;WIDTH:0.606503
G1 X108.717 Y111.219 E2.64596
;WIDTH:0.594602
G1 X108.564 Y111.856 E2.67661
;WIDTH:0.640432
G1 X108.518 Y112.712 E2.72005
;WIDTH:0.687364
G1 X108.577 Y113.209 E2.74741
;WIDTH:0.72683
G1 X108.669 Y113.586 E2.76992
;WIDTH:0.756617
G1 X108.856 Y114.05 E2.8002
;WIDTH:0.783936
G1 X109.124 Y114.496 E2.8329
;WIDTH:0.787301
G1 X109.525 Y114.982 E2.87268
G1 X116.112 Y121.569 E3.46079
;WIDTH:0.802293
G2 X116.476 Y121.812 I0.499 J-0.353 E3.48943
;WIDTH:0.752298
G1 X116.632 Y121.87 E3.49944
;WIDTH:0.702302
G1 X117.17 Y121.974 E3.53008
;WIDTH:0.659999
G2 X118.025 Y121.728 I0.097 J-1.271 E3.57772
G1 X117.903 Y122.256 E3.60608
G2 X118.182 Y124.725 I4.655 J0.724 E3.73755
G1 E2.23755 F3000
G92 E0
G1 X117.239 Y122.702 F7800
G1 E1.5 F3000
;WIDTH:0.88448
G1 F2100
G3 X117.186 Y122.611 I-0.105 J0.000 E1.53746
G1 E.03746 F3000
G92 E0
G1 X117.483 Y121.911 F7800
