; generated by PrusaSlicer 2.6.0+win64 on 2023-06-22 at 20:50:54 UTC
; Postprocessed by [ArcWelder](https://github.com/FormerLurker/ArcWelderLib)
; Copyright(C) 2021 - Brad Hochgesang
; Version: 1.2.0, Branch: HEAD, BuildDate: 2021-11-21T20:25:43Z
; resolution=0.05mm
; path_tolerance=5.0%
; max_radius=9999.00mm
; default_xyz_precision=3
; default_e_precision=5
; extrusion_rate_variance_percent=5.0%








; 

; external perimeters extrusion width = 0.60mm
; perimeters extrusion width = 0.60mm
; infill extrusion width = 0.60mm
; solid infill extrusion width = 0.60mm
; top infill extrusion width = 0.38mm
; first layer extrusion width = 0.60mm

M73 P0 R39


; Pre-Processed for Cancel-Object support by preprocess_cancellation v0.2.0
; 1 known objects
EXCLUDE_OBJECT_DEFINE NAME=Body2_stl_id_0_copy_0 CENTER=117.450,117.919 POLYGON=[[111.3,105.801],[111.3,129.202],[123.695,129.202],[123.695,105.801]]
;TYPE:Custom
G90 ; use absolute coordinates
M83 ; extruder relative mode
M104 S205 ; set temporary nozzle temp to prevent oozing during homing
M140 S65 ; set final bed temp
G4 S30 ; allow partial nozzle warmup
G28 ; home all axis
BED_MESH_CALIBRATE
G1 Z50 F240
G1 X2.0 Y10 F3000
M104 S210 ; set final nozzle temp
M190 S65 ; wait for bed temp to stabilize
M109 S210 ; wait for nozzle temp to stabilize
M73 P0 R38
G1 Z0.28 F240
G92 E0
G1 X2.0 Y140 E10 F1500 ; prime the nozzle
M73 P1 R38
G1 X2.3 Y140 F5000
G92 E0
G1 X2.3 Y10 E10 F1200 ; prime the nozzle
G21 ; set units to millimeters
G90 ; use absolute coordinates
M82 ; use absolute distances for extrusion
G92 E0
; Filament gcode
M107
;LAYER_CHANGE
;Z:0.2
;HEIGHT:0.2
;BEFORE_LAYER_CHANGE
;0.2
M117 Layer 1/355 : klipper-PLA-0.6

G1 Z.2 F9000
SET_PRINT_STATS_INFO CURRENT_LAYER=1
;AFTER_LAYER_CHANGE
;0.2
G1 E-1.5 F3000
G92 E0
G1 X105.54 Y100.741 F9000
G1 E1.5 F3000
;TYPE:Skirt/Brim
;WIDTH:0.6
G1 F1200
G3 X112.303 Y96.687 I11.976 J12.310 E1.86840
G1 X114.3 Y96.18 E1.96384
G3 X117.512 Y95.882 I3.143 J16.418 E2.11344
G1 X119.468 Y95.992 E2.20419
G1 X121.749 Y96.413 E2.31163
G1 X123.881 Y97.111 E2.41555
G1 X125.649 Y97.94 E2.506
G1 X127.4 Y99.026 E2.60144
G1 X129.141 Y100.439 E2.7053
G1 X130.497 Y101.845 E2.79578
G1 X131.846 Y103.637 E2.89968
G1 X132.867 Y105.426 E2.99509
G1 X133.542 Y106.979 E3.07353
G1 X134.15 Y108.947 E3.16894
G1 X134.445 Y110.43 E3.23898
G1 X134.64 Y112.84 E3.35098
G1 X134.643 Y122.061 E3.77811
G3 X131.750 Y131.549 I-17.207 J-0.062 E4.24404
G1 X130.502 Y133.189 E4.3395
G3 X117.232 Y139.156 I-13.000 J-11.171 E5.03528
G1 X115.283 Y139.014 E5.1258
G1 X113.259 Y138.626 E5.22126
G1 X111.126 Y137.929 E5.3252
G1 X109.358 Y137.1 E5.41565
G1 X107.605 Y136.014 E5.51117
G1 X105.863 Y134.601 E5.61507
G1 X104.506 Y133.194 E5.70562
G1 X103.157 Y131.402 E5.80952
G1 X102.136 Y129.612 E5.90498
G3 X100.991 Y126.620 I15.120 J-7.501 E6.05354
G1 X100.557 Y124.605 E6.14902
G1 X100.362 Y122.194 E6.26107
G1 X100.361 Y112.973 E6.6882
G3 X103.258 Y103.484 I17.188 J0.061 E7.15423
G1 X104.506 Y101.844 E7.24969
G1 X105.479 Y100.807 E7.31556
G1 X105.884 Y101.188 F9000
G1 F1200
G3 X112.464 Y97.220 I11.623 J11.835 E7.67463
G1 X114.401 Y96.728 E7.7672
G3 X117.512 Y96.439 I3.048 J15.917 E7.91210
G1 X119.407 Y96.545 E8.00002
G1 X121.608 Y96.952 E8.1037
G1 X123.682 Y97.631 E8.20479
G1 X125.376 Y98.426 E8.29147
G1 X127.076 Y99.479 E8.3841
G1 X128.77 Y100.854 E8.48516
G1 X130.069 Y102.201 E8.57184
G1 X131.381 Y103.944 E8.67289
G1 X132.371 Y105.681 E8.7655
G1 X133.022 Y107.178 E8.84112
G1 X133.611 Y109.088 E8.93371
G1 X133.894 Y110.511 E9.00092
G1 X134.083 Y112.85 E9.10962
G1 X134.086 Y122.061 E9.53629
G1 X134.013 Y123.555 E9.60558
M73 P2 R38
G3 X131.285 Y131.241 I-16.528 J-1.539 E9.98711
G1 X130.074 Y132.832 E10.07973
G3 X117.232 Y138.599 I-12.570 J-10.810 E10.75294
G1 X115.364 Y138.463 E10.8397
G1 X113.4 Y138.087 E10.93233
G1 X111.325 Y137.408 E11.03346
G1 X109.631 Y136.614 E11.12012
G1 X107.929 Y135.561 E11.21283
G1 X106.235 Y134.186 E11.31389
G1 X104.935 Y132.838 E11.40064
G1 X103.622 Y131.094 E11.50176
G1 X102.631 Y129.357 E11.59439
G3 X101.530 Y126.479 I14.593 J-7.232 E11.73729
G1 X101.108 Y124.524 E11.82993
G1 X100.919 Y122.184 E11.93867
G1 X100.918 Y112.973 E12.36534
G3 X103.722 Y103.791 I16.591 J0.048 E12.81629
G1 X104.934 Y102.2 E12.90894
G1 X105.823 Y101.253 E12.96911
G1 E11.46911 F3000
G92 E0
G1 X111.042 Y106.462 F9000
G1 E1.5 F3000
G1 F1200
G3 X126.705 Y112.959 I6.459 J6.557 E2.49831
G1 X126.707 Y122.055 E2.91965
G3 X108.297 Y122.076 I-9.205 J-0.037 E4.25445
G1 X108.297 Y112.98 E4.67579
G3 X110.980 Y106.527 I9.193 J0.038 E5.00779
G1 X111.385 Y106.91 F9000
G1 F1200
G3 X126.148 Y112.964 I6.118 J6.107 E5.94897
G1 X126.15 Y122.05 E6.36985
G3 X108.855 Y122.071 I-8.648 J-0.031 E7.62407
G1 X108.854 Y112.986 E8.0449
G3 X111.323 Y106.975 I8.618 J0.027 E8.35348
G1 X111.727 Y107.359 F9000
G1 F1200
G3 X125.591 Y112.970 I5.778 J5.657 E9.23764
G1 X125.593 Y122.044 E9.65796
G3 X109.412 Y122.066 I-8.091 J-0.026 E10.83161
G1 X109.411 Y112.992 E11.25193
G3 X111.665 Y107.424 I8.048 J0.018 E11.53704
G1 X112.069 Y107.807 F9000
G1 F1200
G3 X125.033 Y112.975 I5.436 J5.208 E12.36417
G1 X125.036 Y122.038 E12.78398
G3 X109.969 Y122.061 I-7.534 J-0.019 E13.87710
G1 X109.968 Y112.997 E14.29696
G3 X112.007 Y107.873 I7.493 J0.014 E14.55851
G1 X112.41 Y108.256 F9000
G1 F1200
G3 X124.476 Y112.981 I5.094 J4.760 E15.32866
G1 X124.479 Y122.033 E15.74796
G3 X110.526 Y122.055 I-6.977 J-0.014 E16.76052
G1 X110.525 Y113.003 E17.17982
G3 X112.348 Y108.322 I6.948 J0.011 E17.41784
G1 X112.751 Y108.706 F9000
G1 F1200
G3 X123.919 Y112.986 I4.752 J4.311 E18.13098
G1 X123.921 Y122.028 E18.54982
G3 X113.405 Y126.960 I-6.421 J-0.015 E19.22208
M73 P3 R38
G3 X111.083 Y122.050 I4.096 J-4.941 E19.48181
G1 X111.083 Y113.008 E19.90065
G1 X111.102 Y112.519 E19.92332
M73 P3 R37
G3 X112.689 Y108.772 I6.404 J0.503 E20.11509
G1 X113.119 Y109.127 F9000
G1 F1200
G3 X123.362 Y112.992 I4.383 J3.890 E20.76949
G1 X123.364 Y122.022 E21.18777
G3 X111.640 Y122.044 I-5.862 J-0.003 E22.03931
G1 X111.64 Y113.014 E22.45759
G3 X113.061 Y109.196 I5.843 J0.001 E22.65033
G1 X113.49 Y109.552 F9000
G1 F1200
G3 X122.805 Y113.008 I4.013 J3.465 E23.24646
G1 X122.807 Y122.017 E23.66377
G3 X112.197 Y122.028 I-5.305 J0.002 E24.43522
G1 X112.197 Y113.019 E24.85253
G3 X113.433 Y109.621 I5.274 J-0.005 E25.02345
G1 E23.52345 F3000
G92 E0
G1 X117.242 Y112.758 F9000
G1 E1.5 F3000
G1 F1200
G3 X117.881 Y113.146 I0.250 J0.309 E1.54582
G1 X117.882 Y121.89 E1.95085
G3 X117.124 Y121.890 I-0.379 J0.103 E2.01588
G1 X117.123 Y113.146 E2.42091
G3 X117.195 Y112.835 I0.387 J-0.074 E2.43594
G1 X116.696 Y112.576 F9000
G1 F1200
G3 X118.438 Y113.122 I0.815 J0.451 E2.55395
G1 X118.439 Y121.914 E2.96121
G3 X116.567 Y121.914 I-0.936 J0.091 E3.10569
G1 X116.566 Y113.122 E3.51295
G3 X116.654 Y112.656 I1.036 J-0.046 E3.53506
G1 X116.16 Y112.399 F9000
G1 F1200
G3 X118.995 Y113.098 I1.351 J0.621 E3.72516
G1 X118.996 Y121.938 E4.13464
G3 X116.010 Y121.938 I-1.493 J0.073 E4.35820
G1 X116.009 Y113.098 E4.76768
G3 X116.118 Y112.479 I1.610 J-0.036 E4.79693
G1 X115.616 Y112.237 F9000
G1 F1200
G3 X119.552 Y113.073 I1.891 J0.779 E5.05980
G1 X119.553 Y121.963 E5.4716
G3 X115.453 Y121.963 I-2.050 J0.051 E5.77417
G1 X115.452 Y113.074 E6.18592
G3 X115.580 Y112.320 I2.135 J-0.025 E6.22149
G1 X115.043 Y112.171 F9000
G1 F1200
G3 X120.109 Y113.049 I2.463 J0.845 E6.56166
G1 X120.11 Y121.987 E6.97568
G3 X114.896 Y121.987 I-2.607 J0.029 E7.35732
G1 X114.895 Y113.049 E7.77134
G3 X115.019 Y112.258 I2.217 J-0.058 E7.80857
G1 X114.483 Y112.084 F9000
G1 F1200
G3 X120.667 Y113.037 I3.022 J0.934 E8.22570
G1 X120.667 Y121.999 E8.64083
G3 X114.339 Y122.000 I-3.164 J0.018 E9.10274
G1 X114.338 Y113.037 E9.51792
G3 X114.455 Y112.169 I3.111 J-0.023 E9.55861
G1 X113.925 Y111.997 F9000
G1 F1200
G3 X121.224 Y113.024 I3.578 J1.022 E10.05230
G1 X121.224 Y122.012 E10.46864
G3 X113.782 Y122.012 I-3.721 J0.007 E11.01051
G1 X113.781 Y113.025 E11.4268
G3 X113.902 Y112.084 I3.577 J-0.018 E11.47085
; printing object Body2.stl id:0 copy 0
EXCLUDE_OBJECT_START NAME=Body2_stl_id_0_copy_0
G1 E9.97085 F3000
G92 E0
G1 X115.501 Y126.312 F9000
G1 E1.5 F3000
;TYPE:External perimeter
;WIDTH:0.53632
G1 F1200
G1 X115.201 Y126.176 E1.51351
;WIDTH:0.531743
G1 X114.571 Y125.757 E1.54426
;WIDTH:0.542784
G3 X113.729 Y124.910 I2.787 J-3.612 E1.59400
;WIDTH:0.541861
G1 X113.346 Y124.331 E1.6228
;WIDTH:0.538416
G1 X113.031 Y123.633 E1.65435
;WIDTH:0.533274
G1 X112.82 Y122.816 E1.68875
;WIDTH:0.535363
G1 X112.743 Y122.014 E1.72174
G1 X112.743 Y113.037 E2.08932
;WIDTH:0.534914
G1 X112.747 Y112.956 E2.09264
;WIDTH:0.533595
G1 X112.838 Y112.118 E2.12703
;WIDTH:0.541634
G1 X112.955 Y111.632 E2.14776
;WIDTH:0.54204
G3 X113.547 Y110.380 I4.601 J1.409 E2.20539
;WIDTH:0.539934
G1 X113.971 Y109.831 E2.23406
;WIDTH:0.536617
G1 X114.473 Y109.351 E2.26257
;WIDTH:0.540578
G3 X115.340 Y108.782 I3.569 J4.493 E2.30553
;WIDTH:0.53615
G1 X116.089 Y108.481 E2.33864
;WIDTH:0.53961
G3 X116.919 Y108.311 I1.083 J3.177 E2.37370
;WIDTH:0.53082
G3 X118.194 Y108.319 I0.611 J4.296 E2.42556
;WIDTH:0.540342
G1 X118.721 Y108.424 E2.44779
;WIDTH:0.541383
G3 X119.993 Y108.970 I-1.238 J4.638 E2.50531
;WIDTH:0.539921
G1 X120.557 Y109.374 E2.53398
;WIDTH:0.535961
G1 X121.118 Y109.936 E2.56653
;WIDTH:0.530957
G1 X121.56 Y110.55 E2.59723
;WIDTH:0.541132
G3 X122.058 Y111.666 I-3.843 J2.384 E2.64797
;WIDTH:0.540668
G1 X122.208 Y112.343 E2.67667
;WIDTH:0.537706
G1 X122.26 Y113.036 E2.70526
;WIDTH:0.534361
G1 X122.259 Y122.058 E3.07393
;WIDTH:0.540556
G3 X122.052 Y123.405 I-5.023 J-0.082 E3.13045
;WIDTH:0.536831
G1 X121.762 Y124.128 E3.16244
;WIDTH:0.532114
G1 X121.368 Y124.78 E3.19343
;WIDTH:0.541886
G3 X120.530 Y125.683 I-3.766 J-2.655 E3.24466
;WIDTH:0.541653
G1 X119.965 Y126.086 E3.27344
;WIDTH:0.538546
G1 X119.171 Y126.469 E3.30977
;WIDTH:0.538358
G1 X118.508 Y126.661 E3.33821
;WIDTH:0.541762
G1 X118.005 Y126.746 E3.35937
;WIDTH:0.542464
G3 X116.622 Y126.691 I-0.500 J-4.831 E3.41701
;WIDTH:0.540649
G1 X115.95 Y126.515 E3.44576
;WIDTH:0.53632
G1 X115.583 Y126.349 E3.46229
G1 E1.96229 F3000
G92 E0
G1 X118.017 Y126.24 F9000
G1 E1.5 F3000
;WIDTH:0.541762
G1 F1200
G1 X117.963 Y126.249 E1.50227
;WIDTH:0.542464
G3 X116.740 Y126.207 I-0.463 J-4.347 E1.55323
;WIDTH:0.540649
G1 X116.206 Y126.081 E1.57594
;WIDTH:0.537047
G1 X115.538 Y125.803 E1.60567
;WIDTH:0.541181
G1 X115.018 Y125.476 E1.63112
;WIDTH:0.542784
G3 X114.138 Y124.626 I2.661 J-3.635 E1.68209
;WIDTH:0.541861
G1 X113.847 Y124.216 E1.70295
;WIDTH:0.535065
G1 X113.516 Y123.538 E1.73382
;WIDTH:0.539987
G1 X113.342 Y122.933 E1.75984
;WIDTH:0.542727
G3 X113.235 Y122.009 I7.005 J-1.279 E1.79851
;WIDTH:0.535363
G1 X113.235 Y113.037 E2.16588
;WIDTH:0.5387
G1 X113.289 Y112.384 E2.19289
;WIDTH:0.541634
G1 X113.428 Y111.787 E2.21831
;WIDTH:0.54204
G3 X113.944 Y110.678 I4.292 J1.322 E2.26919
;WIDTH:0.539934
G1 X114.276 Y110.229 E2.29227
;WIDTH:0.536617
G3 X115.461 Y109.273 I3.275 J2.847 E2.35502
;WIDTH:0.535388
G1 X116.142 Y108.976 E2.38544
;WIDTH:0.53961
G3 X117.530 Y108.760 I1.400 J4.430 E2.44362
;WIDTH:0.53727
G1 X118.063 Y108.79 E2.46556
;WIDTH:0.540342
G1 X118.586 Y108.902 E2.48768
;WIDTH:0.541383
G3 X119.712 Y109.380 I-1.163 J4.304 E2.53850
;WIDTH:0.539921
G1 X120.143 Y109.67 E2.55997
;WIDTH:0.534563
G1 X120.691 Y110.186 E2.59074
;WIDTH:0.539096
G1 X121.059 Y110.677 E2.61606
;WIDTH:0.541132
G3 X121.575 Y111.786 I-3.776 J2.431 E2.66685
;WIDTH:0.540668
G1 X121.702 Y112.278 E2.68788
;WIDTH:0.532598
G1 X121.767 Y112.995 E2.71719
;WIDTH:0.533908
G1 X121.769 Y113.036 E2.71887
;WIDTH:0.534361
G1 X121.77 Y121.999 E3.08513
;WIDTH:0.540556
G3 X121.619 Y123.131 I-5.427 J-0.148 E3.13245
;WIDTH:0.534729
G1 X121.359 Y123.844 E3.16349
;WIDTH:0.539684
G1 X121.048 Y124.377 E3.18898
;WIDTH:0.541886
G3 X120.229 Y125.286 I-3.666 J-2.480 E3.23987
;WIDTH:0.541653
G1 X119.739 Y125.645 E3.26506
;WIDTH:0.538546
G1 X119.198 Y125.928 E3.29022
;WIDTH:0.538744
G1 X118.57 Y126.144 E3.3176
;WIDTH:0.541762
G1 X118.106 Y126.224 E3.33713
; stop printing object Body2.stl id:0 copy 0
EXCLUDE_OBJECT_END NAME=Body2_stl_id_0_copy_0
;LAYER_CHANGE
;Z:0.4
;HEIGHT:0.2
;BEFORE_LAYER_CHANGE
;0.4
M117 Layer 2/355 : klipper-PLA-0.6

G1 Z.4 F9000
SET_PRINT_STATS_INFO CURRENT_LAYER=2
;AFTER_LAYER_CHANGE
;0.4
M104 S208 ; set temperature
M140 S60 ; set bed temperature
; printing object Body2.stl id:0 copy 0
EXCLUDE_OBJECT_START NAME=Body2_stl_id_0_copy_0
G1 E1.83713 F3000
G92 E0
G1 X115.381 Y126.559 F9000
G1 E1.5 F3000
;WIDTH:0.722232
G1 F2400
G1 X115.049 Y126.4 E1.52079
;WIDTH:0.716844
G1 X114.406 Y125.981 E1.5638
;WIDTH:0.725602
M73 P4 R37
G3 X113.508 Y125.072 I3.139 J-3.999 E1.63647
;WIDTH:0.724377
G1 X113.105 Y124.459 E1.67804
;WIDTH:0.721772
G1 X112.767 Y123.707 E1.72458
;WIDTH:0.715707
G1 X112.548 Y122.845 E1.77433
;WIDTH:0.71829
G1 X112.468 Y122.012 E1.82132
G1 X112.468 Y113.044 E2.32494
;WIDTH:0.718065
G1 X112.474 Y112.933 E2.33118
;WIDTH:0.721527
G1 X112.529 Y112.262 E2.36917
;WIDTH:0.723642
G3 X112.824 Y111.170 I5.617 J0.932 E2.43327
;WIDTH:0.717156
G1 X113.228 Y110.377 E2.48316
;WIDTH:0.71321
G1 X113.682 Y109.755 E2.52608
;WIDTH:0.72503
G3 X114.596 Y108.914 I3.695 J3.098 E2.59666
;WIDTH:0.723353
G1 X115.224 Y108.533 E2.63822
;WIDTH:0.719062
G1 X116.025 Y108.214 E2.68669
;WIDTH:0.722723
G3 X116.902 Y108.037 I1.156 J3.466 E2.73735
;WIDTH:0.713161
G3 X118.251 Y108.050 I0.631 J4.529 E2.81273
;WIDTH:0.713051
G1 X119.001 Y108.224 E2.85563
;WIDTH:0.724725
G3 X120.142 Y108.739 I-1.365 J4.546 E2.92675
;WIDTH:0.723457
G1 X120.598 Y109.056 E2.95818
;WIDTH:0.724626
G3 X121.496 Y109.965 I-3.139 J3.999 E3.03075
;WIDTH:0.724329
G1 X121.9 Y110.578 E3.07235
;WIDTH:0.720069
G1 X122.237 Y111.329 E3.1187
;WIDTH:0.721781
G1 X122.416 Y111.948 E3.15507
;WIDTH:0.722849
G3 X122.536 Y113.039 I-5.992 J1.211 E3.21718
;WIDTH:0.717753
G1 X122.537 Y121.985 E3.71916
G1 X122.501 Y122.439 E3.74472
;WIDTH:0.723305
G3 X122.314 Y123.487 I-4.516 J-0.265 E3.80505
;WIDTH:0.719739
G1 X122.004 Y124.257 E3.85176
;WIDTH:0.715492
G1 X121.551 Y124.994 E3.90014
;WIDTH:0.724889
G3 X120.700 Y125.898 I-3.880 J-2.800 E3.97068
;WIDTH:0.724609
G1 X120.102 Y126.324 E4.0123
;WIDTH:0.721715
G1 X119.401 Y126.675 E4.05655
;WIDTH:0.716576
G1 X118.549 Y126.932 E4.1064
;WIDTH:0.724554
G1 X118.029 Y127.019 E4.13628
;WIDTH:0.725247
G3 X116.566 Y126.958 I-0.524 J-5.004 E4.21957
;WIDTH:0.722904
G1 X115.683 Y126.704 E4.27152
;WIDTH:0.722232
G1 X115.463 Y126.598 E4.28531
G1 X117.347 Y126.362 F9000
;WIDTH:0.725247
G1 F2400
G1 X116.734 Y126.3 E4.32027
;WIDTH:0.722904
G1 X116.187 Y126.167 E4.3521
;WIDTH:0.719838
G3 X114.813 Y125.446 I1.279 J-4.106 E4.43980
;WIDTH:0.717048
G1 X114.243 Y124.906 E4.48381
;WIDTH:0.713585
G1 X113.788 Y124.291 E4.52647
;WIDTH:0.717486
G1 X113.435 Y123.579 E4.57105
;WIDTH:0.72254
G1 X113.252 Y122.948 E4.60818
;WIDTH:0.725484
G3 X113.144 Y122.006 I7.152 J-1.297 E4.66202
;WIDTH:0.71829
G1 X113.143 Y113.044 E5.1653
;WIDTH:0.721527
G1 X113.222 Y112.211 E5.21251
;WIDTH:0.716174
G1 X113.412 Y111.516 E5.25284
;WIDTH:0.720532
G1 X113.715 Y110.869 E5.29309
;WIDTH:0.724092
G1 X114.066 Y110.353 E5.32844
;WIDTH:0.72503
G3 X114.961 Y109.489 I3.572 J2.805 E5.39916
;WIDTH:0.723353
G1 X115.411 Y109.197 E5.42951
;WIDTH:0.718307
G1 X116.119 Y108.886 E5.47294
;WIDTH:0.722723
G3 X117.524 Y108.668 I1.424 J4.540 E5.55353
;WIDTH:0.720423
G1 X118.07 Y108.698 E5.58434
;WIDTH:0.723615
G1 X118.612 Y108.814 E5.61571
;WIDTH:0.724725
G3 X119.760 Y109.302 I-1.200 J4.418 E5.68660
;WIDTH:0.723457
G1 X120.178 Y109.581 E5.71504
;WIDTH:0.717211
G1 X120.751 Y110.119 E5.75911
;WIDTH:0.712798
G1 X121.225 Y110.758 E5.80343
;WIDTH:0.716656
G1 X121.571 Y111.459 E5.84722
;WIDTH:0.721781
G3 X121.859 Y112.987 I-4.454 J1.631 E5.93528
;WIDTH:0.717529
G1 X121.861 Y113.039 E5.9382
;WIDTH:0.717753
G1 X121.862 Y121.985 E6.44018
;WIDTH:0.723305
G3 X121.681 Y123.248 I-5.811 J-0.188 E6.51246
;WIDTH:0.719739
G1 X121.447 Y123.869 E6.54981
;WIDTH:0.72276
G1 X121.122 Y124.432 E6.58656
;WIDTH:0.724889
G3 X120.289 Y125.355 I-3.719 J-2.519 E6.65723
;WIDTH:0.724609
G1 X119.878 Y125.67 E6.68658
;WIDTH:0.715971
G1 X119.243 Y126.012 E6.72694
;WIDTH:0.721245
