; generated by PrusaSlicer 2.6.0+win64 on 2023-07-01 at 16:35:27 UTC
; Postprocessed by [ArcWelder](https://github.com/FormerLurker/ArcWelderLib)
; Copyright(C) 2021 - Brad Hochgesang
; Version: 1.2.0, Branch: HEAD, BuildDate: 2021-11-21T20:25:43Z
; resolution=0.05mm
; path_tolerance=5.0%
; max_radius=9999.00mm
; default_xyz_precision=3
; default_e_precision=5
; extrusion_rate_variance_percent=5.0%








; 

; external perimeters extrusion width = 0.60mm
; perimeters extrusion width = 0.60mm
; infill extrusion width = 0.60mm
; solid infill extrusion width = 0.60mm
; top infill extrusion width = 0.40mm
; first layer extrusion width = 0.60mm

M73 P0 R32


; Pre-Processed for Cancel-Object support by preprocess_cancellation v0.2.0
; 1 known objects
EXCLUDE_OBJECT_DEFINE NAME=Body_by_Alex_F_stl_id_0_copy_0 CENTER=117.485,116.492 POLYGON=[[101.768,103.568],[101.768,131.427],[133.232,131.427],[133.232,103.568]]
;TYPE:Custom
G90 ; use absolute coordinates
M83 ; extruder relative mode
M104 S205 ; set temporary nozzle temp to prevent oozing during homing
M140 S65 ; set final bed temp
G4 S30 ; allow partial nozzle warmup
G28 ; home all axis
BED_MESH_CALIBRATE
G1 Z50 F240
G1 X2.0 Y10 F3000
M104 S210 ; set final nozzle temp
M190 S65 ; wait for bed temp to stabilize
M109 S210 ; wait for nozzle temp to stabilize
G1 Z0.28 F240
G92 E0
G1 X2.0 Y140 E10 F1500 ; prime the nozzle
M73 P1 R32
G1 X2.3 Y140 F5000
G92 E0
G1 X2.3 Y10 E10 F1200 ; prime the nozzle
G21 ; set units to millimeters
G90 ; use absolute coordinates
M82 ; use absolute distances for extrusion
G92 E0
; Filament gcode
M107
;LAYER_CHANGE
;Z:0.2
;HEIGHT:0.2
;BEFORE_LAYER_CHANGE
;0.2
M117 Layer 1/202 : PLA - KLIPPER

G1 Z.2 F9000
SET_PRINT_STATS_INFO CURRENT_LAYER=1
;AFTER_LAYER_CHANGE
;0.2
G1 E-1.5 F3300
G92 E0
G1 X97.906 Y99.281 F9000
G1 E1.5 F3300
;TYPE:Skirt/Brim
;WIDTH:0.6
G1 F1200
G1 X98.673 Y98.616 E1.54702
G1 X100.009 Y97.706 E1.6219
G1 X102.025 Y96.786 E1.72455
G1 X102.999 Y96.5 E1.77157
G1 X104.592 Y96.227 E1.84644
G1 X105.706 Y96.166 E1.89812
G1 X129.801 Y96.184 E3.01423
G1 X131.413 Y96.372 E3.08941
M73 P2 R32
G1 X132.975 Y96.786 E3.16426
G1 X134.991 Y97.706 E3.26691
G1 X136.327 Y98.616 E3.34179
G1 X137.519 Y99.706 E3.41661
G1 X138.184 Y100.473 E3.46363
G1 X139.094 Y101.809 E3.53851
G1 X139.804 Y103.261 E3.61338
G1 X140.3 Y104.799 E3.68824
G1 X140.573 Y106.392 E3.76311
G1 X140.634 Y107.506 E3.81479
G1 X140.616 Y128.001 E4.76415
G1 X140.428 Y129.613 E4.83933
G1 X140.014 Y131.175 E4.91418
G1 X139.382 Y132.662 E4.98902
G1 X138.184 Y134.527 E5.0917
G1 X137.519 Y135.294 E5.13872
G1 X136.327 Y136.384 E5.21354
G1 X134.462 Y137.582 E5.31622
G1 X133.539 Y138.004 E5.36323
G1 X132.001 Y138.5 E5.43809
G1 X129.801 Y138.816 E5.54104
G1 X105.706 Y138.834 E6.65715
G1 X104.592 Y138.773 E6.70883
M73 P2 R31
G1 X102.999 Y138.5 E6.7837
G1 X101.461 Y138.004 E6.85856
G1 X100.009 Y137.294 E6.93343
G1 X98.673 Y136.384 E7.00831
G1 X97.481 Y135.294 E7.08313
G1 X96.816 Y134.527 E7.13015
G1 X95.618 Y132.662 E7.23283
G1 X95.196 Y131.739 E7.27984
G1 X94.7 Y130.201 E7.3547
G1 X94.384 Y128.001 E7.45765
G1 X94.366 Y107.506 E8.40701
G1 X94.427 Y106.392 E8.45869
G1 X94.7 Y104.799 E8.53356
G1 X95.196 Y103.261 E8.60842
G1 X95.906 Y101.809 E8.68329
G1 X96.816 Y100.473 E8.75817
G1 X97.846 Y99.347 E8.82886
G1 X98.256 Y99.723 F9000
G1 F1200
G1 X99.007 Y99.062 E8.8752
G1 X100.276 Y98.195 E8.94639
G1 X102.22 Y97.308 E9.04537
G1 X103.117 Y97.044 E9.08868
G1 X104.632 Y96.783 E9.15989
G1 X105.706 Y96.723 E9.20972
G1 X129.761 Y96.74 E10.32398
G1 X131.294 Y96.916 E10.39546
G1 X132.78 Y97.308 E10.46665
G1 X134.724 Y98.195 E10.56563
G1 X135.993 Y99.062 E10.63682
G1 X137.125 Y100.1 E10.70796
G1 X137.738 Y100.807 E10.7513
G1 X138.605 Y102.076 E10.82249
G1 X139.282 Y103.456 E10.89369
G1 X139.884 Y105.506 E10.99266
G1 X140.077 Y107.506 E11.08573
G1 X140.077 Y127.494 E12.0116
G1 X140.017 Y128.568 E12.06143
G1 X139.756 Y130.083 E12.13264
G1 X139.282 Y131.544 E12.20379
G1 X138.605 Y132.924 E12.27499
G1 X137.738 Y134.193 E12.34618
G1 X137.125 Y134.9 E12.38952
G1 X135.993 Y135.938 E12.46066
G1 X134.195 Y137.093 E12.55965
G1 X133.344 Y137.482 E12.60299
G1 X131.883 Y137.956 E12.67414
G1 X129.761 Y138.26 E12.77344
G1 X105.706 Y138.277 E13.8877
G1 X104.632 Y138.217 E13.93753
G1 X103.117 Y137.956 E14.00874
G1 X101.656 Y137.482 E14.07989
G1 X100.276 Y136.805 E14.15109
G1 X99.007 Y135.938 E14.22228
G1 X97.875 Y134.9 E14.29342
G1 X97.262 Y134.193 E14.33676
G1 X96.107 Y132.395 E14.43575
G1 X95.718 Y131.544 E14.47909
G1 X95.244 Y130.083 E14.55024
G1 X94.94 Y127.961 E14.64954
G1 X94.923 Y107.506 E15.59704
G1 X94.983 Y106.432 E15.64687
G1 X95.244 Y104.917 E15.71808
G1 X95.718 Y103.456 E15.78923
G1 X96.395 Y102.076 E15.86043
G1 X97.262 Y100.807 E15.93162
G1 X98.195 Y99.789 E15.99558
; printing object Body by Alex.F.stl id:0 copy 0
EXCLUDE_OBJECT_START NAME=Body_by_Alex_F_stl_id_0_copy_0
G1 E14.49558 F3300
G92 E0
G1 X129.22 Y129.649 F9000
G1 E1.5 F3300
;TYPE:Perimeter
;WIDTH:0.599999
G1 F1200
G1 X105.698 Y129.643 E2.58957
G3 X103.551 Y127.420 I0.008 J-2.156 E2.74860
G1 X103.551 Y107.663 E3.66377
G3 X103.897 Y106.341 I2.767 J0.018 E3.72785
G3 X105.780 Y105.351 I1.827 J1.188 E3.83045
G1 X115.925 Y105.351 E4.30038
G2 X113.630 Y115.244 I1.490 J5.558 E4.87672
G1 X110.28 Y115.249 E5.0319
G2 X107.075 Y118.833 I0.021 J3.244 E5.28249
G2 X107.437 Y120.045 I3.525 J-0.393 E5.34129
G1 X107.75 Y120.503 E5.36699
M73 P3 R31
G2 X110.280 Y125.751 I2.551 J2.004 E5.70195
G1 X124.72 Y125.751 E6.37083
G2 X127.253 Y120.500 I-0.035 J-3.253 E6.70573
G2 X124.720 Y115.249 I-2.554 J-2.004 E7.04083
G1 X121.15 Y115.249 E7.2062
G2 X118.916 Y105.355 I-3.749 J-4.353 E7.78146
G1 X129.302 Y105.357 E8.26255
G3 X131.449 Y107.663 I-0.061 J2.209 E8.42541
G1 X131.443 Y127.502 E9.34438
G3 X129.309 Y129.639 I-2.135 J0.002 E9.49926
G1 X129.239 Y130.206 F9000
G1 F1200
G1 X106.277 Y130.206 E10.56289
G3 X104.409 Y129.865 I-0.299 J-3.647 E10.65196
G3 X102.994 Y127.439 I1.289 J-2.377 E10.78841
G1 X102.994 Y107.663 E11.70446
G3 X105.761 Y104.794 I2.720 J-0.145 E11.91082
G1 X115.468 Y104.794 E12.36046
;WIDTH:0.645225
G1 X115.649 Y104.817 E12.3696
;WIDTH:0.69045
G1 X115.831 Y104.839 E12.37947
;WIDTH:0.735676
G1 X116.012 Y104.862 E12.38998
;WIDTH:0.780901
G1 X116.193 Y104.885 E12.40118
;WIDTH:0.826126
G1 X116.374 Y104.907 E12.41305
G1 X117.307 Y104.884 E12.47383
;WIDTH:0.811173
G1 X118.242 Y104.9 E12.53357
G1 X118.377 Y104.879 E12.5423
;WIDTH:0.768939
G1 X118.512 Y104.858 E12.55055
;WIDTH:0.726704
G1 X118.646 Y104.836 E12.55827
;WIDTH:0.684469
G1 X118.781 Y104.815 E12.56556
;WIDTH:0.642234
G1 X118.916 Y104.794 E12.57237
;WIDTH:0.599999
G1 X129.137 Y104.794 E13.04582
G3 X132.006 Y107.663 I0.127 J2.742 E13.25694
G1 X132.006 Y126.923 E14.14909
G3 X131.665 Y128.791 I-3.647 J0.299 E14.23816
G3 X129.329 Y130.196 I-2.345 J-1.254 E14.37042
G1 X129.259 Y130.763 F9000
G1 F1200
G1 X105.741 Y130.763 E15.4598
G3 X102.437 Y127.459 I-0.013 J-3.291 E15.70019
G1 X102.437 Y107.541 E16.62282
G3 X105.741 Y104.237 I3.291 J-0.013 E16.86322
G1 X129.259 Y104.237 E17.9526
G3 X132.563 Y107.663 I0.011 J3.296 E18.19863
G1 X132.563 Y127.459 E19.11561
G3 X129.349 Y130.756 I-3.281 J0.017 E19.35182
G1 X129.279 Y131.32 F9000
;TYPE:External perimeter
G1 F1200
G1 X105.721 Y131.32 E20.44306
G3 X101.880 Y127.479 I-0.018 J-3.823 E20.72262
G1 X101.88 Y107.521 E21.6471
G3 X105.721 Y103.680 I3.823 J-0.018 E21.92666
G1 X129.279 Y103.68 E23.0179
G3 X133.120 Y107.663 I0.016 J3.828 E23.30403
G1 X133.12 Y127.479 E24.22193
G1 X133.08 Y128.043 E24.24812
M73 P4 R31
G3 X129.369 Y131.314 I-3.771 J-0.538 E24.49731
G1 X128.955 Y130.815 F9000
G1 E22.99731 F3300
G92 E0
G1 X110.166 Y125.182 F9000
G1 E1.5 F3300
;TYPE:Perimeter
G1 F1200
G3 X108.500 Y120.500 I0.125 J-2.682 E1.79341
G3 X110.280 Y115.806 I1.803 J-2.001 E2.09216
G1 X115.709 Y115.806 E2.34364
G3 X115.440 Y106.092 I1.689 J-4.907 E2.92549
;WIDTH:0.64953
G1 X115.693 Y105.986 E2.93933
;WIDTH:0.69906
G1 X115.947 Y105.88 E2.95435
;WIDTH:0.74859
G1 X116.2 Y105.774 E2.97045
;WIDTH:0.787358
G1 X116.312 Y105.73 E2.9779
;WIDTH:0.826126
G1 X116.424 Y105.687 E2.98571
G1 X117.05 Y105.628 E3.02666
;WIDTH:0.791024
G1 X117.905 Y105.638 E3.07985
;WIDTH:0.811173
G3 X118.289 Y105.708 I0.068 J0.713 E3.10500
;WIDTH:0.768939
G1 X118.417 Y105.757 E3.11327
;WIDTH:0.726704
G1 X118.544 Y105.806 E3.12101
;WIDTH:0.684469
G1 X118.671 Y105.855 E3.12827
;WIDTH:0.642234
G1 X118.799 Y105.904 E3.1351
;WIDTH:0.599999
G3 X119.071 Y115.806 I-1.392 J4.993 E3.74518
G1 X124.72 Y115.806 E4.00685
G3 X126.500 Y120.500 I-0.022 J2.693 E4.30574
G3 X124.720 Y125.194 I-1.810 J1.998 E4.60451
G1 X110.255 Y125.191 E5.27455
G1 X110.196 Y124.623 F9000
G1 F1200
G3 X109.566 Y120.500 I0.094 J-2.124 E5.54479
G3 X109.853 Y116.412 I0.731 J-2.003 E5.79917
G1 X110.569 Y116.363 E5.83241
G1 X115.723 Y116.363 E6.07115
;WIDTH:0.63904
G1 X115.908 Y116.343 E6.08037
;WIDTH:0.67808
G1 X116.093 Y116.324 E6.09019
;WIDTH:0.71712
G1 X116.278 Y116.304 E6.10062
;WIDTH:0.747381
G1 X116.379 Y116.289 E6.1066
;WIDTH:0.777641
G3 X117.084 Y116.293 I0.341 J1.967 E6.14976
;WIDTH:0.747886
G3 X118.164 Y116.314 I0.433 J5.506 E6.21314
;WIDTH:0.698591
G1 X118.433 Y116.338 E6.22786
;WIDTH:0.649295
G1 X118.701 Y116.363 E6.24143
;WIDTH:0.599999
G1 X124.72 Y116.363 E6.52024
G3 X125.434 Y120.500 I-0.018 J2.133 E6.79459
G3 X124.720 Y124.637 I-0.733 J2.004 E7.06885
G1 X110.285 Y124.637 E7.7375
G1 X110.28 Y124.08 F9000
;TYPE:External perimeter
G1 F1200
G3 X108.997 Y121.635 I0.009 J-1.564 E7.89392
G3 X109.541 Y121.113 I1.149 J0.653 E7.92921
;WIDTH:0.629531
G1 X109.732 Y121.024 E7.93949
;WIDTH:0.659063
G1 X109.922 Y120.935 E7.95024
;WIDTH:0.700262
G1 X110.101 Y120.892 E7.9603
;WIDTH:0.74146
G1 X110.28 Y120.849 E7.97099
G1 X124.72 Y120.849 E8.80972
G1 X124.899 Y120.89 E8.82039
;WIDTH:0.704741
G1 X125.078 Y120.93 E8.83048
;WIDTH:0.668022
G1 X125.3 Y121.04 E8.84336
;WIDTH:0.634011
G1 X125.522 Y121.15 E8.85554
;WIDTH:0.599999
G3 X124.720 Y124.080 I-0.822 J1.350 E9.04397
G1 X110.37 Y124.08 E9.70868
G1 X110.031 Y124.429 F9000
G1 E8.20868 F3300
G92 E0
G1 X110.37 Y124.516 F9000
G3 X108.276 Y122.500 I-0.083 J-2.009
G1 X108.276 Y118.5
G3 X110.233 Y116.484 I2.009 J-0.008
G1 X117.202 Y116.484
G1 X117.202 Y115.596
G1 E1.5 F3300
;TYPE:Perimeter
;WIDTH:0.777641
G1 F1200
G1 X116.526 Y115.542 E1.54143
G1 X116.363 Y115.475 E1.5522
;WIDTH:0.733231
G1 X116.201 Y115.409 E1.56224
;WIDTH:0.68882
G1 X116.038 Y115.342 E1.5717
;WIDTH:0.64441
G1 X115.876 Y115.275 E1.58047
;WIDTH:0.599999
G3 X118.741 Y115.336 I1.526 J-4.376 E2.79303
;WIDTH:0.649637
G1 X118.503 Y115.413 E2.80565
;WIDTH:0.699275
G1 X118.265 Y115.491 E2.81932
;WIDTH:0.748912
G1 X118.027 Y115.568 E2.834
G1 X117.292 Y115.601 E2.87719
G1 X117.241 Y114.976 F9000
;TYPE:External perimeter
;WIDTH:0.599999
G1 F1200
G3 X117.903 Y114.948 I0.159 J-4.076 E4.03236
G1 X117.331 Y114.973 E4.05888
G1 X116.921 Y115.484 F9000
G1 E2.55888 F3300
G92 E0
G1 X117.348 Y115.41 F9000
G1 X125.224 Y116.544
G3 X126.132 Y119.932 I-0.526 J1.957
G3 X124.720 Y120.291 I-1.322 J-2.243
G1 X124.72 Y120.151
G1 E1.5 F3300
;WIDTH:0.74146
G1 F1200
G1 X110.28 Y120.151 E2.33873
G1 X110.101 Y120.108 E2.34942
;WIDTH:0.700262
G1 X109.922 Y120.065 E2.35948
;WIDTH:0.659063
G1 X109.7 Y119.958 E2.37211
;WIDTH:0.629531
G1 X109.478 Y119.85 E2.38415
;WIDTH:0.599999
G3 X109.926 Y116.964 I0.822 J-1.350 E2.55590
G1 X110.569 Y116.92 E2.58575
G1 X124.31 Y116.92 E3.22225
G1 X125.061 Y116.963 E3.25709
G3 X125.459 Y119.887 I-0.360 J1.538 E3.43301
;WIDTH:0.634011
G1 X125.268 Y119.978 E3.44341
;WIDTH:0.668022
G1 X125.078 Y120.069 E3.45436
;WIDTH:0.704741
G1 X124.899 Y120.11 E3.46447
;WIDTH:0.74146
G1 X124.808 Y120.131 E3.46989
G1 E1.96989 F3300
G92 E0
G1 X124.823 Y120.284 F9000
G2 X126.132 Y119.932 I0.028 J-2.506
G2 X126.656 Y119.024 I-1.456 J-1.445
G1 X129.827 Y105.598
G1 E1.5 F3300
;TYPE:Solid infill
;WIDTH:0.604636
G1 F1200
G1 X130.613 Y106.384 E1.55192
G3 X131.031 Y107.597 I-1.379 J1.154 E1.61314
G1 X129.203 Y105.769 E1.73389
G1 X128.409 Y105.769 E1.77098
G1 X131.031 Y108.391 E1.94417
G1 X131.031 Y109.185 E1.98126
G1 X127.615 Y105.769 E2.2069
G1 X126.82 Y105.769 E2.24403
G1 X131.031 Y109.98 E2.52218
G1 X131.031 Y110.774 E2.55927
G1 X126.026 Y105.769 E2.88987
G1 X125.231 Y105.769 E2.927
G1 X131.031 Y111.569 E3.31011
G1 X131.031 Y112.363 E3.3472
G1 X124.437 Y105.769 E3.78276
G1 X123.643 Y105.769 E3.81985
M73 P5 R31
G1 X131.031 Y113.157 E4.30785
G1 X131.031 Y113.952 E4.34498
G1 X122.848 Y105.769 E4.8855
G1 X122.054 Y105.769 E4.92259
G1 X131.031 Y114.746 E5.51555
G1 X131.031 Y115.54 E5.55264
G1 X121.26 Y105.769 E6.19805
G1 X120.883 Y105.769 E6.21566
G1 X120.87 Y105.808 E6.21758
G3 X122.980 Y108.284 I-3.427 J5.058 E6.37131
G1 X131.031 Y116.335 E6.90311
G1 X131.031 Y117.129 E6.9402
G1 X123.394 Y109.493 E7.44462
G3 X123.532 Y110.425 I-3.566 J1.004 E7.48871
G1 X131.031 Y117.924 E7.98405
G1 X131.031 Y118.718 E8.02114
G1 X123.544 Y111.231 E8.51568
G1 X123.51 Y111.716 E8.53839
M73 P5 R30
G1 X123.471 Y111.952 E8.54956
G1 X131.031 Y119.512 E9.04892
G1 X131.031 Y120.307 E9.08605
G1 X128.21 Y117.485 E9.27242
G2 X125.697 Y114.973 I-3.480 J0.969 E9.44587
G1 X123.318 Y112.594 E9.60301
G3 X123.112 Y113.183 I-2.133 J-0.416 E9.63223
G1 X124.764 Y114.834 E9.74132
G1 X123.969 Y114.833 E9.77845
G1 X122.871 Y113.735 E9.85098
G1 X122.575 Y114.234 E9.87808
G1 X123.173 Y114.832 E9.91758
G1 X122.378 Y114.832 E9.95471
G1 X122.07 Y114.524 E9.97505
G1 E8.47505 F3300
G92 E0
G1 X128.095 Y118.165 F9000
G1 E1.5 F3300
G1 F1200
G1 X131.031 Y121.101 E1.69393
G1 X131.031 Y121.896 E1.73106
G1 X128.303 Y119.167 E1.91129
G1 X128.128 Y119.787 E1.94138
G1 X131.031 Y122.69 E2.13313
G1 X131.031 Y123.484 E2.17022
G1 X127.878 Y120.331 E2.37849
G1 X127.769 Y120.5 E2.38788
G3 X128.199 Y121.447 I-2.109 J1.529 E2.43672
G1 X131.031 Y124.279 E2.62378
G1 X131.031 Y125.073 E2.66087
G1 X128.363 Y122.405 E2.8371
G3 X128.306 Y123.142 I-3.422 J0.106 E2.87168
G1 X131.031 Y125.867 E3.05168
G1 X131.031 Y126.662 E3.08881
G1 X128.137 Y123.768 E3.27997
G3 X127.876 Y124.301 I-2.523 J-0.905 E3.30773
G1 X131.028 Y127.453 E3.51593
G3 X130.903 Y128.123 I-1.572 J0.053 E3.54796
G1 X127.561 Y124.781 E3.76871
G1 X127.186 Y125.2 E3.79497
G1 X130.608 Y128.622 E4.02101
G3 X130.174 Y128.982 I-1.212 J-1.020 E4.04745
G1 X126.735 Y125.543 E4.27461
G1 X126.227 Y125.83 E4.30186
G1 X129.593 Y129.196 E4.5242
G3 X128.834 Y129.231 I-0.573 J-4.190 E4.55973
G1 X125.639 Y126.036 E4.77077
G3 X124.953 Y126.145 I-0.639 J-1.811 E4.80332
G1 X128.039 Y129.231 E5.00716
G1 X127.245 Y129.231 E5.04425
G1 X124.183 Y126.169 E5.24651
G1 X123.389 Y126.169 E5.2836
G1 X126.451 Y129.231 E5.48586
G1 X125.656 Y129.231 E5.52299
G1 X122.594 Y126.169 E5.72525
G1 X121.8 Y126.169 E5.76234
G1 X124.862 Y129.231 E5.9646
G1 X124.067 Y129.231 E6.00173
G1 X121.005 Y126.169 E6.20399
G1 X120.211 Y126.169 E6.24108
G1 X123.273 Y129.231 E6.44334
G1 X122.479 Y129.231 E6.48043
G1 X119.417 Y126.169 E6.68269
G1 X118.622 Y126.169 E6.71982
G1 X121.684 Y129.231 E6.92208
G1 X120.89 Y129.231 E6.95917
G1 X117.828 Y126.169 E7.16143
G1 X117.034 Y126.169 E7.19852
G1 X120.095 Y129.231 E7.40074
G1 X119.301 Y129.231 E7.43783
G1 X116.239 Y126.169 E7.64009
G1 X115.445 Y126.169 E7.67718
G1 X118.507 Y129.231 E7.87944
G1 X117.712 Y129.231 E7.91657
G1 X114.65 Y126.169 E8.11883
G1 X113.856 Y126.169 E8.15592
G1 X116.918 Y129.231 E8.35818
G1 X116.124 Y129.231 E8.39527
G1 X113.062 Y126.169 E8.59753
G1 X112.267 Y126.169 E8.63466
G1 X115.329 Y129.231 E8.83692
G1 X114.535 Y129.231 E8.87401
G1 X111.473 Y126.169 E9.07627
G1 X110.678 Y126.169 E9.1134
G1 X113.74 Y129.231 E9.31566
G1 X112.946 Y129.231 E9.35275
G1 X109.531 Y125.816 E9.57832
G1 E8.07832 F3300
G92 E0
G3 X108.344 Y123.024 I147.519 J-64.365 F9000
G1 X108.276 Y122.5
G1 X108.276 Y118.5
G3 X108.547 Y117.488 I2.026 J0.000
G1 X113.776 Y106.229
G1 E1.5 F3300
G1 F1200
G1 X113.316 Y105.769 E1.53038
G1 X112.521 Y105.769 E1.56751
G1 X113.174 Y106.421 E1.61061
G1 X112.78 Y106.822 E1.63687
G1 X111.727 Y105.769 E1.70642
G1 X110.933 Y105.769 E1.74351
G1 X112.429 Y107.266 E1.84236
G1 X112.108 Y107.739 E1.86906
G1 X110.138 Y105.769 E1.99919
G1 X109.344 Y105.769 E2.03628
