; generated by PrusaSlicer 2.6.0+win64 on 2023-07-01 at 17:19:07 UTC
; Postprocessed by [ArcWelder](https://github.com/FormerLurker/ArcWelderLib)
; Copyright(C) 2021 - Brad Hochgesang
; Version: 1.2.0, Branch: HEAD, BuildDate: 2021-11-21T20:25:43Z
; resolution=0.05mm
; path_tolerance=5.0%
; max_radius=9999.00mm
; default_xyz_precision=3
; default_e_precision=5
; extrusion_rate_variance_percent=5.0%








; 

; external perimeters extrusion width = 0.60mm
; perimeters extrusion width = 0.60mm
; infill extrusion width = 0.60mm
; solid infill extrusion width = 0.60mm
; top infill extrusion width = 0.40mm
; first layer extrusion width = 0.60mm

M73 P0 R60


; Pre-Processed for Cancel-Object support by preprocess_cancellation v0.2.0
; 1 known objects
EXCLUDE_OBJECT_DEFINE NAME=Body_by_Alex_F_stl_id_0_copy_0 CENTER=117.307,116.915 POLYGON=[[101.586,103.386],[101.586,131.614],[133.414,131.614],[133.414,103.386]]
;TYPE:Custom
G90 ; use absolute coordinates
M83 ; extruder relative mode
M104 S205 ; set temporary nozzle temp to prevent oozing during homing
M140 S65 ; set final bed temp
G4 S30 ; allow partial nozzle warmup
G28 ; home all axis
BED_MESH_CALIBRATE
G1 Z50 F240
G1 X2.0 Y10 F3000
M104 S210 ; set final nozzle temp
M190 S65 ; wait for bed temp to stabilize
M109 S210 ; wait for nozzle temp to stabilize
G1 Z0.28 F240
G92 E0
G1 X2.0 Y140 E10 F1500 ; prime the nozzle
M73 P0 R59
G1 X2.3 Y140 F5000
G92 E0
G1 X2.3 Y10 E10 F1200 ; prime the nozzle
G21 ; set units to millimeters
G90 ; use absolute coordinates
M82 ; use absolute distances for extrusion
G92 E0
; Filament gcode
M107
;LAYER_CHANGE
;Z:0.2
;HEIGHT:0.2
;BEFORE_LAYER_CHANGE
;0.2
M117 Layer 1/302 : PLA - KLIPPER

G1 Z.2 F9000
SET_PRINT_STATS_INFO CURRENT_LAYER=1
;AFTER_LAYER_CHANGE
;0.2
M73 P1 R59
G1 E-1.5 F3300
G92 E0
G1 X97.788 Y99.144 F9000
G1 E1.5 F3300
;TYPE:Skirt/Brim
;WIDTH:0.6
G1 F1200
G1 X98.555 Y98.48 E1.54699
G1 X99.912 Y97.555 E1.62306
G1 X101.974 Y96.613 E1.72807
G1 X102.948 Y96.327 E1.77509
G1 X104.566 Y96.049 E1.85114
G1 X105.695 Y95.986 E1.90352
G1 X129.808 Y96.004 E3.02047
G1 X131.438 Y96.193 E3.09648
G1 X133.026 Y96.613 E3.17257
G1 X135.088 Y97.555 E3.27758
G1 X136.445 Y98.48 E3.35365
G1 X137.656 Y99.588 E3.42968
G1 X138.697 Y100.858 E3.50575
G1 X139.546 Y102.263 E3.58179
G1 X139.968 Y103.186 E3.6288
G1 X140.473 Y104.748 E3.70484
G1 X140.751 Y106.366 E3.78089
G1 X140.814 Y107.5 E3.8335
G1 X140.814 Y127.5 E4.75993
G1 X140.751 Y128.634 E4.81254
G1 X140.473 Y130.252 E4.88859
G1 X139.968 Y131.814 E4.96463
G1 X139.245 Y133.288 E5.04068
G1 X138.32 Y134.645 E5.11675
G1 X137.656 Y135.412 E5.16374
G1 X136.445 Y136.52 E5.23977
G1 X134.537 Y137.746 E5.34482
G1 X133.614 Y138.168 E5.39183
G1 X132.052 Y138.673 E5.46787
G1 X129.808 Y138.996 E5.57289
G1 X105.7 Y139.014 E6.68961
G1 X104.566 Y138.951 E6.74222
G1 X102.948 Y138.673 E6.81827
G1 X101.386 Y138.168 E6.89431
G1 X99.912 Y137.445 E6.97036
G1 X98.555 Y136.52 E7.04643
G1 X97.788 Y135.856 E7.09342
G1 X96.68 Y134.645 E7.16945
G1 X95.454 Y132.737 E7.2745
G1 X95.032 Y131.814 E7.32151
G1 X94.527 Y130.252 E7.39755
G1 X94.204 Y128.013 E7.50234
G1 X94.186 Y107.5 E8.45253
G1 X94.249 Y106.366 E8.50514
G1 X94.527 Y104.748 E8.58119
G1 X95.032 Y103.186 E8.65723
G1 X95.755 Y101.712 E8.73328
G1 X96.68 Y100.355 E8.80935
G1 X97.727 Y99.211 E8.88118
G1 X98.137 Y99.587 F9000
G1 F1200
G1 X98.889 Y98.925 E8.92759
G1 X100.179 Y98.043 E8.99998
G1 X102.169 Y97.135 E9.1013
G1 X103.067 Y96.871 E9.14466
G1 X104.606 Y96.604 E9.21701
G1 X105.695 Y96.543 E9.26753
G1 X129.768 Y96.56 E10.38262
G1 X131.32 Y96.738 E10.45498
G1 X132.831 Y97.135 E10.52735
G1 X134.821 Y98.043 E10.62867
G1 X136.111 Y98.925 E10.70106
G1 X137.262 Y99.982 E10.77345
G1 X137.875 Y100.689 E10.81679
G1 X138.757 Y101.979 E10.88918
G1 X139.446 Y103.381 E10.96154
G1 X140.062 Y105.48 E11.06287
G1 X140.257 Y107.5 E11.15687
G1 X140.257 Y127.5 E12.0833
G1 X140.196 Y128.594 E12.13405
G1 X139.929 Y130.133 E12.2064
G1 X139.446 Y131.619 E12.27878
G1 X138.757 Y133.021 E12.35114
G1 X137.875 Y134.311 E12.42353
G1 X137.262 Y135.018 E12.46687
G1 X136.111 Y136.075 E12.53926
G1 X134.27 Y137.257 E12.6406
G1 X133.419 Y137.646 E12.68394
G1 X131.933 Y138.129 E12.75632
G1 X129.768 Y138.44 E12.85764
G1 X105.7 Y138.457 E13.9725
G1 X104.606 Y138.396 E14.02325
G1 X103.067 Y138.129 E14.0956
G1 X101.581 Y137.646 E14.16798
G1 X100.179 Y136.957 E14.24034
G1 X98.889 Y136.075 E14.31273
G1 X98.182 Y135.462 E14.35607
G1 X97.125 Y134.311 E14.42846
G1 X95.943 Y132.47 E14.5298
G1 X95.554 Y131.619 E14.57314
G1 X95.071 Y130.133 E14.64552
G1 X94.76 Y127.973 E14.74661
G1 X94.743 Y107.5 E15.69495
G1 X94.804 Y106.406 E15.7457
G1 X95.071 Y104.867 E15.81805
G1 X95.554 Y103.381 E15.89043
G1 X96.243 Y101.979 E15.96279
G1 X97.125 Y100.689 E16.03518
G1 X98.076 Y99.653 E16.10032
; printing object Body by Alex.F.stl id:0 copy 0
EXCLUDE_OBJECT_START NAME=Body_by_Alex_F_stl_id_0_copy_0
G1 E14.60032 F3300
G92 E0
G1 X105.73 Y129.823 F9000
G1 E1.5 F3300
;TYPE:Perimeter
;WIDTH:0.599999
G1 F1200
G1 X105.045 Y129.729 E1.53203
G3 X103.371 Y127.426 I0.669 J-2.246 E1.67333
G1 X103.371 Y107.663 E2.58878
G3 X103.745 Y106.244 I2.986 J0.028 E2.65759
G3 X105.774 Y105.171 I1.974 J1.277 E2.76829
G1 X115.487 Y105.171 E3.21821
;WIDTH:0.644285
G1 X115.622 Y105.193 E3.22505
;WIDTH:0.68857
G1 X115.757 Y105.216 E3.2324
;WIDTH:0.732855
G1 X115.893 Y105.238 E3.2403
;WIDTH:0.77714
G1 X116.028 Y105.26 E3.24865
;WIDTH:0.821425
G1 X116.164 Y105.282 E3.25757
;WIDTH:0.86571
G1 X116.299 Y105.304 E3.26693
G1 X116.228 Y105.338 E3.27232
;WIDTH:0.830887
G1 X116.158 Y105.373 E3.27745
;WIDTH:0.796063
G1 X116.087 Y105.407 E3.28238
;WIDTH:0.761239
G1 X115.882 Y105.495 E3.2957
;WIDTH:0.720929
G1 X115.678 Y105.582 E3.3082
;WIDTH:0.680619
G1 X115.473 Y105.669 E3.32001
;WIDTH:0.640309
G1 X115.268 Y105.757 E3.33109
;WIDTH:0.599999
G2 X114.174 Y115.429 I2.146 J5.141 E3.87973
G1 X110.103 Y115.438 E4.0683
G2 X107.781 Y116.752 I0.204 J3.069 E4.19604
G1 X107.414 Y117.463 E4.2331
G2 X107.959 Y120.481 I2.892 J1.036 E4.38173
G1 X107.925 Y120.566 E4.38597
G2 X108.552 Y125.019 I2.359 J1.938 E4.61974
G1 X109.263 Y125.386 E4.6568
G2 X110.292 Y125.571 I1.088 J-3.096 E4.70538
G1 X124.708 Y125.571 E5.37315
G2 X127.219 Y124.248 I-0.021 J-3.084 E5.50959
G1 X127.586 Y123.537 E5.54665
G2 X127.041 Y120.481 I-2.988 J-1.044 E5.69674
G2 X127.717 Y117.955 I-2.345 J-1.981 E5.82180
G1 X127.473 Y117.193 E5.85886
G1 X127.041 Y116.519 E5.89594
G2 X124.708 Y115.429 I-2.359 J2.006 E6.01884
G1 X120.636 Y115.429 E6.20746
G2 X118.853 Y105.528 I-3.235 J-4.528 E6.78884
;WIDTH:0.645647
G1 X118.734 Y105.48 E6.79527
;WIDTH:0.691295
G1 X118.616 Y105.431 E6.80216
;WIDTH:0.736943
G1 X118.497 Y105.382 E6.80959
;WIDTH:0.782591
G1 X118.379 Y105.334 E6.81742
;WIDTH:0.828238
G1 X118.26 Y105.285 E6.82582
G1 X118.386 Y105.263 E6.83417
;WIDTH:0.782591
G1 X118.512 Y105.24 E6.84205
;WIDTH:0.736943
G1 X118.638 Y105.217 E6.84944
;WIDTH:0.691295
G1 X118.764 Y105.194 E6.85635
;WIDTH:0.645647
G1 X118.891 Y105.171 E6.86282
;WIDTH:0.599999
G1 X129.137 Y105.171 E7.33743
G3 X130.556 Y105.545 I-0.028 J2.986 E7.40624
G3 X131.629 Y107.663 I-1.371 J2.025 E7.52104
G1 X131.622 Y127.515 E8.44061
G3 X129.226 Y129.829 I-2.332 J-0.017 E8.61187
G1 X105.82 Y129.824 E9.69607
G1 X105.74 Y130.373 F9000
G1 F1200
G3 X102.814 Y127.446 I-0.031 J-2.895 E9.90945
G1 X102.814 Y107.663 E10.82582
G3 X105.754 Y104.614 I2.944 J-0.103 E11.04492
G1 X129.137 Y104.614 E12.12805
G3 X132.186 Y107.663 I0.130 J2.919 E12.35229
G1 X132.186 Y126.922 E13.24439
G3 X131.823 Y128.878 I-3.843 J0.298 E13.33769
G3 X129.246 Y130.386 I-2.531 J-1.369 E13.48270
G1 X105.83 Y130.375 E14.56736
G1 X105.734 Y130.943 F9000
G1 F1200
G3 X102.257 Y127.466 I-0.008 J-3.469 E14.82018
G1 X102.257 Y107.534 E15.74346
G3 X105.734 Y104.057 I3.469 J-0.008 E15.99628
G1 X129.266 Y104.057 E17.08631
G3 X132.743 Y107.663 I0.006 J3.473 E17.34509
G1 X132.743 Y127.466 E18.26239
G1 X132.705 Y127.99 E18.28673
M73 P2 R59
G3 X129.266 Y130.943 I-3.456 J-0.546 E18.51521
G1 X105.824 Y130.943 E19.60107
G1 X105.714 Y131.5 F9000
;TYPE:External perimeter
G1 F1200
G3 X101.700 Y127.486 I-0.011 J-4.003 E19.89311
G1 X101.7 Y107.514 E20.81824
G3 X105.714 Y103.500 I4.003 J-0.011 E21.11028
G1 X129.286 Y103.5 E22.20217
G3 X133.300 Y107.663 I0.009 J4.008 E22.50109
G1 X133.3 Y127.486 E23.41932
G3 X129.286 Y131.500 I-4.003 J0.011 E23.71136
G1 X105.804 Y131.5 E24.79908
G1 X105.446 Y130.98 F9000
G1 E23.29908 F3300
G92 E0
G1 X110.179 Y125.002 F9000
G1 E1.5 F3300
;TYPE:Perimeter
G1 F1200
G3 X108.791 Y120.500 I0.114 J-2.500 E1.78385
G3 X108.094 Y119.706 I1.472 J-1.995 E1.83307
G1 X107.844 Y119.031 E1.86641
G3 X110.110 Y115.998 I2.455 J-0.528 E2.06472
G1 X115.725 Y115.986 E2.32481
;WIDTH:0.647501
G1 X115.992 Y115.962 E2.33829
;WIDTH:0.695003
G1 X116.26 Y115.938 E2.35288
;WIDTH:0.725649
G1 X116.377 Y115.923 E2.35958
;WIDTH:0.756294
G1 X116.494 Y115.908 E2.36658
G1 X116.314 Y115.84 E2.37799
;WIDTH:0.717221
G1 X116.134 Y115.773 E2.38876
;WIDTH:0.678147
G1 X115.954 Y115.706 E2.3989
;WIDTH:0.639073
G1 X115.774 Y115.638 E2.40844
;WIDTH:0.599999
G3 X118.894 Y115.682 I1.627 J-4.739 E3.71824
;WIDTH:0.637266
G1 X118.635 Y115.76 E3.73161
;WIDTH:0.674533
G1 X118.376 Y115.838 E3.74582
;WIDTH:0.711799
G1 X118.117 Y115.916 E3.76086
;WIDTH:0.719058
G1 X118.081 Y115.926 E3.76296
G1 X118.285 Y115.946 E3.77448
;WIDTH:0.679372
G1 X118.488 Y115.966 E3.78528
;WIDTH:0.639686
G1 X118.691 Y115.986 E3.7954
;WIDTH:0.599999
G1 X124.708 Y115.986 E4.07412
G3 X126.209 Y120.500 I-0.009 J2.510 E4.36342
G3 X126.109 Y124.577 I-1.505 J2.003 E4.58381
M73 P2 R58
G3 X124.708 Y125.014 I-1.491 J-2.316 E4.65257
G1 X110.269 Y125.012 E5.3214
G1 X110.207 Y124.443 F9000
G1 F1200
G3 X109.230 Y120.865 I0.086 J-1.946 E5.54833
;WIDTH:0.609054
G1 X109.688 Y120.64 E5.57235
;WIDTH:0.655029
G1 X109.932 Y120.57 E5.58527
;WIDTH:0.701004
G1 X110.176 Y120.5 E5.59916
G1 X109.932 Y120.43 E5.61305
;WIDTH:0.655029
G1 X109.688 Y120.36 E5.62597
;WIDTH:0.609054
G1 X109.23 Y120.135 E5.64999
;WIDTH:0.599999
G3 X109.900 Y116.587 I1.071 J-1.635 E5.86263
G1 X110.534 Y116.543 E5.89207
G1 X124.708 Y116.543 E6.54863
G3 X125.581 Y120.244 I-0.010 J1.956 E6.78962
;WIDTH:0.642223
G1 X125.102 Y120.434 E6.8153
;WIDTH:0.686565
G1 X124.823 Y120.507 E6.83073
G1 X125.067 Y120.575 E6.84429
;WIDTH:0.644438
G1 X125.311 Y120.643 E6.85696
;WIDTH:0.60231
G1 X125.77 Y120.865 E6.88068
;WIDTH:0.599999
G3 X124.708 Y124.457 I-1.073 J1.636 E7.11159
G1 X110.295 Y124.457 E7.77922
G1 X110.292 Y123.9 F9000
;TYPE:External perimeter
G1 F1200
G3 X110.292 Y121.100 I0.009 J-1.400 E7.98138
G1 X124.708 Y121.1 E8.64915
G3 X124.708 Y123.900 I-0.009 J1.400 E8.85144
G1 X110.382 Y123.9 E9.51504
G1 X110.063 Y124.22 F9000
G1 E8.01504 F3300
G92 E0
G1 X110.382 Y124.336 F9000
G3 X108.457 Y122.500 I-0.090 J-1.833
G1 X108.457 Y118.5
G3 X110.245 Y116.664 I1.833 J-0.004
G1 X116.153 Y116.664
G1 X117.205 Y115.233
G1 X117.205 Y115.345
G1 E1.5 F3300
;TYPE:Perimeter
G1 F1200
G3 X118.693 Y115.162 I0.209 J-4.443 E2.72530
G3 X117.295 Y115.353 I-1.284 J-4.183 E2.79087
G1 X117.266 Y114.796 F9000
;TYPE:External perimeter
G1 F1200
G3 X117.886 Y114.769 I0.141 J-3.897 E3.89559
G1 X117.356 Y114.792 E3.92016
G1 X116.948 Y115.305 F9000
G1 X118.081 Y115.926
;TYPE:Perimeter
;WIDTH:0.719058
G1 F1200
G1 X117.304 Y115.948 E3.96386
;WIDTH:0.716027
G1 X116.899 Y115.928 E3.98656
;WIDTH:0.756294
G1 X116.494 Y115.908 E4.01061
G1 E2.51061 F3300
G92 E0
G1 X116.494 Y116.664 F9000
G1 X110.245 Y116.664
G2 X109.828 Y120.261 I0.040 J1.827
G2 X110.292 Y120.291 I0.442 J-3.233
G1 X110.292 Y119.9
G1 E1.5 F3300
;TYPE:External perimeter
;WIDTH:0.599999
G1 F1200
G3 X109.973 Y117.140 I0.008 J-1.399 E1.68730
G1 X110.534 Y117.1 E1.71335
G1 X124.708 Y117.1 E2.36991
G3 X124.708 Y119.900 I-0.009 J1.400 E2.57220
G1 X110.382 Y119.9 E3.2358
G1 X110.063 Y120.22 F9000
G1 E1.7358 F3300
G92 E0
G1 X124.785 Y120.5 F9000
G1 E1.5 F3300
;TYPE:Perimeter
;WIDTH:0.692552
G1 F1200
G1 X124.708 Y120.5 E1.50416
;WIDTH:0.685842
G1 X110.292 Y120.5 E2.27483
;WIDTH:0.701004
G1 X110.176 Y120.5 E2.28118
G1 E.78118 F3300
G92 E0
G1 X110.188 Y120.288 F9000
G3 X108.704 Y117.579 I0.049 J-1.788
G1 X113.728 Y108.59
G3 X116.299 Y105.304 I64.754 J48.016
G1 E1.5 F3300
;WIDTH:0.86571
G1 F1200
G1 X116.647 Y105.282 E1.52386
;WIDTH:0.821025
G1 X116.995 Y105.259 E1.54642
;WIDTH:0.78459
G1 X117.91 Y105.264 E1.60285
;WIDTH:0.828238
G1 X118.26 Y105.285 E1.62575
G1 E.12575 F3300
G92 E0
G1 X129.923 Y105.437 F9000
G1 E1.5 F3300
;TYPE:Solid infill
;WIDTH:0.601434
G1 F1200
G1 X130.743 Y106.257 E1.55386
G3 X131.205 Y107.510 I-1.451 J1.247 E1.61715
G1 X129.29 Y105.595 E1.74292
G1 X128.495 Y105.589 E1.77984
G1 X131.211 Y108.305 E1.95822
G1 X131.211 Y109.095 E1.99491
G1 X127.705 Y105.589 E2.22517
G1 X126.915 Y105.589 E2.26186
G1 X131.211 Y109.885 E2.54401
G1 X131.211 Y110.675 E2.5807
G1 X126.125 Y105.589 E2.91473
G1 X125.335 Y105.589 E2.95142
G1 X131.211 Y111.465 E3.33734
G1 X131.211 Y112.254 E3.37398
G1 X124.546 Y105.589 E3.81172
G1 X123.756 Y105.589 E3.84841
G1 X131.211 Y113.044 E4.33803
G1 X131.211 Y113.834 E4.37472
G1 X122.966 Y105.589 E4.91623
G1 X122.176 Y105.589 E4.95292
G1 X131.211 Y114.624 E5.54631
G1 X131.211 Y115.414 E5.583
G1 X121.386 Y105.589 E6.22828
G1 X120.596 Y105.589 E6.26497
G1 X131.211 Y116.204 E6.96213
G1 X131.211 Y116.994 E6.99882
G1 X122.994 Y108.777 E7.53849
G3 X123.293 Y109.866 I-5.348 J2.054 E7.59099
G1 X131.211 Y117.783 E8.11099
G1 X131.211 Y118.573 E8.14768
G1 X123.38 Y110.743 E8.66196
G3 X123.344 Y111.496 I-3.942 J0.189 E8.69701
G1 X131.211 Y119.363 E9.21369
G1 X131.211 Y120.153 E9.25038
G1 X123.234 Y112.176 E9.77429
G1 X123.075 Y112.807 E9.80451
G1 X125.346 Y115.078 E9.95366
G2 X124.493 Y115.015 I-0.674 J3.326 E9.99346
G1 X122.843 Y113.364 E10.10186
G3 X122.581 Y113.893 I-2.826 J-1.070 E10.12930
G1 X123.702 Y115.014 E10.20292
G1 X122.911 Y115.013 E10.23965
G1 X122.272 Y114.374 E10.28162
G3 X121.918 Y114.809 I-2.289 J-1.502 E10.30770
G1 X122.371 Y115.263 E10.33748
G1 E8.83748 F3300
G92 E0
G1 X127.765 Y117.497 F9000
G1 E1.5 F3300
G1 F1200
G1 X131.211 Y120.943 E1.72632
G1 X131.211 Y121.733 E1.76301
G1 X128.172 Y118.693 E1.96264
G3 X128.060 Y119.372 I-2.135 J-0.003 E1.99470
G1 X131.211 Y122.523 E2.20165
G1 X131.211 Y123.312 E2.23829
M73 P3 R58
G1 X127.861 Y119.963 E2.45827
G3 X127.570 Y120.462 I-1.764 J-0.694 E2.48518
G1 X131.211 Y124.102 E2.72428
G1 X131.211 Y124.892 E2.76097
G1 X128.101 Y121.782 E2.96523
G3 X128.180 Y122.651 I-2.226 J0.640 E3.00590
G1 X131.211 Y125.682 E3.20497
G1 X131.211 Y126.472 E3.24166
G1 X128.077 Y123.338 E3.44749
G3 X127.876 Y123.927 I-2.734 J-0.604 E3.47643
G1 X131.211 Y127.262 E3.69546
G3 X131.140 Y127.980 I-2.245 J0.140 E3.72906
G1 X127.592 Y124.433 E3.96205
G3 X127.244 Y124.874 I-2.061 J-1.269 E3.98818
G1 X130.901 Y128.531 E4.22836
G3 X130.531 Y128.951 I-1.560 J-1.001 E4.25443
G1 X126.83 Y125.25 E4.4975
G3 X126.347 Y125.557 I-1.280 J-1.481 E4.52413
G1 X130.041 Y129.251 E4.76674
G3 X129.398 Y129.398 I-0.679 J-1.491 E4.79755
G1 X125.8 Y125.8 E5.03386
G3 X125.153 Y125.943 I-0.724 J-1.740 E5.06475
G1 X128.621 Y129.411 E5.29252
G1 X127.831 Y129.411 E5.32921
G1 X124.409 Y125.989 E5.55396
G1 X123.619 Y125.989 E5.59065
G1 X127.041 Y129.411 E5.8154
G1 X126.251 Y129.411 E5.85209
G1 X122.83 Y125.989 E6.0768
G1 X122.04 Y125.989 E6.11349
G1 X125.462 Y129.411 E6.33824
G1 X124.672 Y129.411 E6.37493
G1 X121.25 Y125.989 E6.59968
G1 X120.46 Y125.989 E6.63637
G1 X123.882 Y129.411 E6.86112
G1 X123.092 Y129.411 E6.89781
G1 X119.67 Y125.989 E7.12256
G1 X118.88 Y125.989 E7.15925
G1 X122.302 Y129.411 E7.384
G1 X121.512 Y129.411 E7.42069
G1 X118.09 Y125.989 E7.64544
G1 X117.301 Y125.989 E7.68208
G1 X120.722 Y129.411 E7.90679
G1 X119.933 Y129.411 E7.94343
G1 X116.511 Y125.989 E8.16818
G1 X115.721 Y125.989 E8.20487
G1 X119.143 Y129.411 E8.42962
G1 X118.353 Y129.411 E8.46631
G1 X114.931 Y125.989 E8.69106
G1 X114.141 Y125.989 E8.72775
G1 X117.563 Y129.411 E8.9525
G1 X116.773 Y129.411 E8.98919
G1 X113.351 Y125.989 E9.21394
G1 X112.561 Y125.989 E9.25063
G1 X115.983 Y129.411 E9.47538
G1 X115.193 Y129.411 E9.51207
G1 X111.772 Y125.989 E9.73678
G1 X110.982 Y125.989 E9.77347
