; generated by PrusaSlicer 2.6.0+win64 on 2023-06-22 at 22:45:28 UTC
; Postprocessed by [ArcWelder](https://github.com/FormerLurker/ArcWelderLib)
; Copyright(C) 2021 - Brad Hochgesang
; Version: 1.2.0, Branch: HEAD, BuildDate: 2021-11-21T20:25:43Z
; resolution=0.05mm
; path_tolerance=5.0%
; max_radius=9999.00mm
; default_xyz_precision=3
; default_e_precision=5
; extrusion_rate_variance_percent=5.0%








; 

; external perimeters extrusion width = 0.66mm
; perimeters extrusion width = 0.66mm
; infill extrusion width = 0.66mm
; solid infill extrusion width = 0.66mm
; top infill extrusion width = 0.38mm
; support material extrusion width = 0.60mm
; first layer extrusion width = 0.66mm

M73 P0 R17


; Pre-Processed for Cancel-Object support by preprocess_cancellation v0.2.0
; 1 known objects
EXCLUDE_OBJECT_DEFINE NAME=Body8_stl_id_0_copy_0 CENTER=118.121,115.578 POLYGON=[[107.233,105.416],[107.233,129.521],[127.953,129.521],[127.953,105.416]]
;TYPE:Custom
G90 ; use absolute coordinates
M83 ; extruder relative mode
M104 S205 ; set temporary nozzle temp to prevent oozing during homing
M140 S65 ; set final bed temp
G4 S30 ; allow partial nozzle warmup
G28 ; home all axis
BED_MESH_CALIBRATE
G1 Z50 F240
G1 X2.0 Y10 F3000
M104 S210 ; set final nozzle temp
M190 S65 ; wait for bed temp to stabilize
M109 S210 ; wait for nozzle temp to stabilize
M73 P1 R17
G1 Z0.28 F240
G92 E0
G1 X2.0 Y140 E10 F1500 ; prime the nozzle
M73 P2 R17
G1 X2.3 Y140 F5000
G92 E0
G1 X2.3 Y10 E10 F1200 ; prime the nozzle
G21 ; set units to millimeters
G90 ; use absolute coordinates
M82 ; use absolute distances for extrusion
G92 E0
; Filament gcode
M107
;LAYER_CHANGE
;Z:0.2
;HEIGHT:0.2
;BEFORE_LAYER_CHANGE
;0.2
M117 Layer 1/90 : klipper-PLA-0.6

G1 Z.2 F7800
SET_PRINT_STATS_INFO CURRENT_LAYER=1
;AFTER_LAYER_CHANGE
;0.2
M73 P3 R17
G1 E-1.5 F3000
G92 E0
G1 X108.566 Y108.463 F7800
G1 E1.5 F3000
;TYPE:Skirt/Brim
;WIDTH:0.66
G1 F1200
G1 X117.188 Y99.834 E2.13842
G1 X119.14 Y98.443 E2.26387
M73 P3 R16
G1 X121.44 Y97.766 E2.38935
G1 X123.835 Y97.879 E2.51484
G1 X126.062 Y98.768 E2.64034
G1 X127.418 Y99.834 E2.73061
G1 X133.357 Y105.772 E3.17015
G1 X135.039 Y108.413 E3.33402
G3 X135.722 Y110.983 I-12.250 J4.631 E3.47338
G1 X135.888 Y113.274 E3.5936
G3 X135.644 Y115.621 I-13.220 J-0.188 E3.71722
G1 X135.009 Y117.828 E3.83741
G1 X134.469 Y119.046 E3.90714
G1 X133.61 Y120.507 E3.99584
G1 X132.808 Y121.57 E4.06553
G1 X131.685 Y122.756 E4.15101
G1 X115.915 Y135.657 E5.21735
G1 X113.832 Y136.844 E5.34283
G1 X111.476 Y137.284 E5.46827
G1 X109.105 Y136.93 E5.59374
G1 X106.228 Y135.166 E5.77036
M73 P4 R16
G1 X102.108 Y131.002 E6.07693
G1 X101.294 Y129.957 E6.14626
G1 X100.472 Y128.59 E6.22974
G3 X102.369 Y114.666 I10.873 J-5.610 E7.01284
G1 X108.503 Y108.527 E7.46703
G1 X108.939 Y108.963 F7800
G1 F1200
G1 X117.624 Y100.27 E8.11015
G1 X119.501 Y98.954 E8.23013
G1 X121.714 Y98.358 E8.35008
G1 X123.998 Y98.553 E8.47005
G1 X126.079 Y99.515 E8.59004
G1 X126.982 Y100.27 E8.65164
G1 X132.92 Y106.208 E9.09114
G1 X134.459 Y108.624 E9.24106
G3 X135.112 Y111.074 I-11.813 J4.461 E9.37393
G1 X135.271 Y113.272 E9.48927
G1 X135.039 Y115.495 E9.60625
G1 X134.43 Y117.614 E9.72164
G1 X133.761 Y119.069 E9.80545
G3 X131.259 Y122.309 I-11.092 J-5.979 E10.02055
G1 X115.525 Y135.179 E11.08441
G1 X113.525 Y136.298 E11.20435
G1 X111.263 Y136.668 E11.32431
G1 X109.01 Y136.244 E11.44429
G1 X106.664 Y134.73 E11.59042
G1 X103.128 Y131.195 E11.8521
G1 X101.805 Y129.61 E11.96015
G1 X100.858 Y127.98 E12.05881
G3 X100.028 Y125.609 I10.528 J-5.016 E12.19048
G1 X99.737 Y123.474 E12.30325
G3 X100.503 Y118.807 I11.616 J-0.490 E12.55240
G1 X101.46 Y116.876 E12.66519
G3 X102.817 Y115.091 I9.886 J6.107 E12.78267
G1 X108.876 Y109.026 E13.23135
; printing object Body8.stl id:0 copy 0
EXCLUDE_OBJECT_START NAME=Body8_stl_id_0_copy_0
G1 E11.73135 F3000
G92 E0
G1 X118.006 Y114.294 F7800
G1 E1.5 F3000
;TYPE:Perimeter
;WIDTH:0.659999
G1 F1200
G1 X117.795 Y114.188 E1.51236
G1 X117.164 Y114.09 E1.54578
G1 X116.636 Y114.214 E1.57417
;WIDTH:0.70243
G1 X116.461 Y114.308 E1.58528
;WIDTH:0.744861
G1 X116.286 Y114.402 E1.59711
;WIDTH:0.787291
G1 X116.111 Y114.496 E1.60965
;WIDTH:0.791006
G1 X109.546 Y121.068 E2.19903
G1 X109.149 Y121.527 E2.23753
;WIDTH:0.780388
G1 X108.871 Y121.979 E2.27072
;WIDTH:0.763073
G1 X108.748 Y122.304 E2.29194
;WIDTH:0.737149
G1 X108.624 Y122.628 E2.31237
;WIDTH:0.711224
G1 X108.573 Y122.936 E2.33007
;WIDTH:0.680831
G1 X108.522 Y123.244 E2.34696
;WIDTH:0.650438
G1 X108.528 Y123.502 E2.36026
;WIDTH:0.624075
G1 X108.534 Y123.76 E2.37298
;WIDTH:0.641807
G1 X108.521 Y123.85 E2.3776
;WIDTH:0.685902
G1 X108.508 Y123.94 E2.38256
;WIDTH:0.729997
G1 X108.495 Y124.031 E2.38792
;WIDTH:0.774093
G1 X108.482 Y124.121 E2.39356
;WIDTH:0.818188
G1 X108.469 Y124.211 E2.39954
;WIDTH:0.862284
G1 X108.456 Y124.301 E2.40586
;WIDTH:0.906379
G1 X108.443 Y124.392 E2.41259
;WIDTH:0.950474
G1 X108.43 Y124.482 E2.41959
G1 X108.379 Y124.424 E2.42553
;WIDTH:0.906422
G1 X108.328 Y124.366 E2.43119
;WIDTH:0.86237
G1 X108.277 Y124.308 E2.43656
;WIDTH:0.818317
G1 X108.226 Y124.25 E2.44164
;WIDTH:0.774265
G1 X108.175 Y124.191 E2.44648
;WIDTH:0.730212
G1 X108.111 Y124.067 E2.45461
;WIDTH:0.686045
G1 X108.047 Y123.942 E2.46227
;WIDTH:0.641878
G1 X107.984 Y123.817 E2.46938
;WIDTH:0.646924
G1 X107.921 Y123.283 E2.49693
;WIDTH:0.68126
G1 X107.934 Y122.839 E2.52098
;WIDTH:0.723671
G1 X108.008 Y122.317 E2.55142
;WIDTH:0.763264
G1 X108.247 Y121.623 E2.59626
;WIDTH:0.781398
G1 X108.608 Y121.012 E2.64071
;WIDTH:0.791006
G1 X109.006 Y120.55 E2.6794
G1 X115.584 Y113.97 E3.26972
;WIDTH:0.787291
G1 X115.749 Y113.775 E3.28585
;WIDTH:0.744861
G1 X115.912 Y113.582 E3.30089
;WIDTH:0.70243
G1 X116.076 Y113.388 E3.3151
;WIDTH:0.659999
G1 X118.211 Y111.253 E3.47312
G1 X118.128 Y111.464 E3.48499
G1 X117.894 Y112.419 E3.53645
G1 X117.859 Y113.402 E3.58793
G1 X117.991 Y114.205 E3.63052
G1 X117.177 Y113.275 F7800
;WIDTH:0.87768
G1 F1200
G2 X117.229 Y113.366 I-0.052 J0.090 E3.66738
G1 E2.16738 F3000
G92 E0
G1 X121.136 Y108.439 F7800
G1 E1.5 F3000
;WIDTH:0.816228
G1 F1200
G1 X122.303 Y107.271 E1.60829
G1 X123.268 Y108.236 E1.6978
G2 X121.222 Y108.415 I-0.625 J4.643 E1.83347
G1 E.33347 F3000
G92 E0
G1 X120.684 Y107.877 F7800
G1 X107.601 Y124.59
G1 X111.035 Y128.434
M73 P5 R16
G1 X111.328 Y128.727
G1 X111.343 Y128.712
G1 E1.5 F3000
;WIDTH:0.659999
G1 F1200
G1 X108.488 Y125.853 E1.71146
G3 X108.504 Y120.087 I2.886 J-2.875 E2.04641
G1 X117.836 Y110.755 E2.73712
;WIDTH:0.69931
G1 X118.019 Y110.6 E2.75047
;WIDTH:0.738621
G1 X118.202 Y110.445 E2.76462
;WIDTH:0.777932
G1 X118.385 Y110.29 E2.77957
;WIDTH:0.81718
G2 X119.798 Y108.878 I-199.232 J-200.786 E2.91091
;WIDTH:0.779414
G1 X119.886 Y108.763 E2.91996
;WIDTH:0.741648
G1 X120.107 Y108.514 E2.93969
;WIDTH:0.700824
G1 X120.327 Y108.264 E2.95827
;WIDTH:0.659999
G1 X122.303 Y106.288 E3.10452
G1 X124.683 Y108.668 E3.28068
G1 X125.019 Y108.971 E3.30436
;WIDTH:0.613324
G1 X125.355 Y109.274 E3.32625
;WIDTH:0.566649
G1 X125.97 Y109.864 E3.36411
;WIDTH:0.556414
G1 X126.39 Y110.302 E3.39054
;WIDTH:0.594207
G1 X126.606 Y110.545 E3.40574
;WIDTH:0.632
G1 X126.823 Y110.788 E3.42202
;WIDTH:0.674377
G1 X126.965 Y110.961 E3.43401
;WIDTH:0.716754
G1 X127.108 Y111.133 E3.44679
;WIDTH:0.75913
G1 X127.251 Y111.306 E3.46042
;WIDTH:0.772293
G1 X127.383 Y111.507 E3.4753
;WIDTH:0.786331
G3 X127.610 Y112.481 I-4.355 J1.528 E3.53845
;WIDTH:0.779531
G1 X127.624 Y112.721 E3.55347
;WIDTH:0.785559
G3 X127.597 Y113.765 I-4.409 J0.408 E3.61936
;WIDTH:0.779624
G1 X127.45 Y114.472 E3.66448
;WIDTH:0.786111
G3 X126.353 Y116.434 I-5.127 J-1.579 E3.80720
;WIDTH:0.786832
G3 X125.531 Y117.153 I-3.734 J-3.440 E3.87621
;WIDTH:0.781813
G1 X124.994 Y117.488 E3.91587
;WIDTH:0.784918
G3 X124.055 Y117.871 I-2.383 J-4.499 E3.97977
;WIDTH:0.784531
G3 X123.069 Y118.053 I-1.421 J-4.939 E4.04292
;WIDTH:0.783737
G1 X122.556 Y118.067 E4.07516
;WIDTH:0.783275
G1 X121.828 Y118.002 E4.12105
;WIDTH:0.786957
G3 X120.850 Y117.735 I1.000 J-5.588 E4.18509
;WIDTH:0.781515
G1 X120.392 Y117.528 E4.21657
;WIDTH:0.784915
G3 X119.545 Y116.982 I2.414 J-4.675 E4.28006
;WIDTH:0.783733
G3 X118.666 Y116.079 I3.524 J-4.310 E4.35936
;WIDTH:0.787063
G3 X118.116 Y115.161 I5.010 J-3.625 E4.42696
;WIDTH:0.782543
G1 X117.992 Y115.058 E4.43707
;WIDTH:0.741695
G1 X117.869 Y114.954 E4.44662
;WIDTH:0.700847
G1 X117.745 Y114.85 E4.45565
;WIDTH:0.659999
G2 X116.593 Y114.976 I-0.497 J0.781 E4.52081
G1 X110.029 Y121.551 E5.00705
G2 X109.966 Y125.770 I2.066 J2.141 E5.25279
G1 X112.125 Y127.93 E5.41263
G1 X111.407 Y128.648 E5.46577
G1 X111.343 Y129.584 F7800
;TYPE:External perimeter
G1 F1200
G1 X108.05 Y126.291 E5.7095
G3 X108.050 Y119.669 I3.340 J-3.311 E6.09415
G1 X122.303 Y105.416 E7.14909
G1 X127.95 Y111.063 E7.56705
G3 X117.628 Y115.685 I-5.291 J2.020 E8.46437
G1 X117.413 Y115.371 E8.48429
G2 X117.029 Y115.413 I-0.166 J0.260 E8.50571
G1 X110.466 Y121.987 E8.99188
G2 X110.402 Y125.334 I1.573 J1.704 E9.18704
G1 X112.998 Y127.93 E9.37918
G1 X111.407 Y129.521 E9.49694
G1 X111.006 Y129.088 F7800
G1 E7.99694 F3000
G92 E0
G1 X111.744 Y128.341 F7800
G1 X109.653 Y125.366
G3 X109.967 Y121.633 I2.396 J-1.678
G1 X117.489 Y114.11
G1 X122.056 Y118.119
G2 X123.025 Y118.140 I0.587 J-4.729
G1 X122.978 Y117.316
G1 E1.5 F3000
;TYPE:Perimeter
;WIDTH:0.784531
G1 F1200
G1 X122.902 Y117.326 E1.50482
;WIDTH:0.779232
G1 X122.034 Y117.286 E1.55908
;WIDTH:0.786957
G3 X121.040 Y117.015 I1.076 J-5.905 E1.62416
;WIDTH:0.777593
G1 X120.564 Y116.785 E1.6571
;WIDTH:0.783023
G1 X119.989 Y116.39 E1.70089
;WIDTH:0.783733
G3 X119.331 Y115.729 I2.998 J-3.642 E1.75956
;WIDTH:0.778177
G1 X119.254 Y115.637 E1.76704
;WIDTH:0.778628
G1 X118.861 Y114.997 E1.8139
;WIDTH:0.786303
G3 X118.716 Y114.599 I0.832 J-0.529 E1.84077
;WIDTH:0.744202
G1 X118.661 Y114.382 E1.85408
;WIDTH:0.702101
G1 X118.606 Y114.165 E1.8666
;WIDTH:0.659999
G3 X118.722 Y111.630 I4.045 J-1.085 E2.00130
;WIDTH:0.697419
G1 X118.831 Y111.365 E2.01721
;WIDTH:0.734838
G1 X118.94 Y111.1 E2.03403
;WIDTH:0.772257
G1 X119.049 Y110.835 E2.05175
;WIDTH:0.817242
G1 X119.142 Y110.653 E2.06517
G3 X120.228 Y109.566 I4.523 J3.433 E2.16631
G1 X120.427 Y109.479 E2.18057
;WIDTH:0.777885
G1 X120.627 Y109.392 E2.19417
;WIDTH:0.73859
G1 X120.826 Y109.305 E2.20698
;WIDTH:0.699295
G1 X121.025 Y109.218 E2.21907
;WIDTH:0.659999
G3 X124.107 Y109.146 I1.632 J3.861 E2.38407
G1 X124.484 Y109.349 E2.40648
;WIDTH:0.627498
G1 X124.861 Y109.552 E2.42771
;WIDTH:0.594997
G1 X125.185 Y109.823 E2.44749
;WIDTH:0.563694
G1 X125.509 Y110.095 E2.46617
;WIDTH:0.545848
G1 X125.917 Y110.532 E2.49167
;WIDTH:0.574064
G1 X126.088 Y110.759 E2.50447
;WIDTH:0.602279
G1 X126.258 Y110.985 E2.51789
;WIDTH:0.641492
G1 X126.361 Y111.164 E2.52837
;WIDTH:0.680705
G1 X126.464 Y111.344 E2.53959
;WIDTH:0.719918
G1 X126.566 Y111.523 E2.55142
;WIDTH:0.75913
G1 X126.669 Y111.702 E2.56396
;WIDTH:0.786331
G3 X126.892 Y112.694 I-4.617 J1.559 E2.62816
;WIDTH:0.785559
G3 X126.876 Y113.615 I-6.340 J0.350 E2.68622
;WIDTH:0.779457
G1 X126.74 Y114.271 E2.72807
;WIDTH:0.781333
G1 X126.421 Y115.058 E2.78125
;WIDTH:0.786111
G3 X125.795 Y115.950 I-4.901 J-2.774 E2.85001
;WIDTH:0.779614
G1 X125.306 Y116.407 E2.89183
;WIDTH:0.781813
G1 X124.605 Y116.859 E2.9441
;WIDTH:0.783255
G1 X123.827 Y117.166 E2.99662
;WIDTH:0.784531
G3 X123.067 Y117.304 I-1.084 J-3.810 E3.04526
G1 X122.898 Y116.644 F7800
;TYPE:External perimeter
;WIDTH:0.659999
G1 F1200
G3 X119.439 Y114.646 I-0.237 J-3.583 E3.26683
M73 P6 R16
G3 X122.987 Y116.629 I3.207 J-1.572 E4.21515
G1 X122.631 Y117.181 F7800
G1 E2.71515 F3000
G92 E0
G1 X123.028 Y117.239 F7800
G1 X120.13 Y117.481
G1 X117.489 Y114.11
G1 X109.967 Y121.633
G2 X109.398 Y124.924 I2.080 J2.054
G1 X111.035 Y128.434
G1 X110.937 Y128.336
G1 X111.343 Y127.93
G1 E1.5 F3000
;TYPE:Perimeter
;WIDTH:0.531684
G1 F1200
G1 X109.575 Y126.161 E1.60368
;WIDTH:0.581538
G1 X109.309 Y125.861 E1.622
;WIDTH:0.631392
G1 X109.043 Y125.56 E1.64205
;WIDTH:0.674794
G1 X108.942 Y125.412 E1.65165
;WIDTH:0.718195
G1 X108.84 Y125.265 E1.6619
;WIDTH:0.761596
G1 X108.738 Y125.117 E1.67286
;WIDTH:0.802397
G1 X108.674 Y124.994 E1.68179
;WIDTH:0.843197
G1 X108.61 Y124.871 E1.6912
;WIDTH:0.883998
G1 X108.546 Y124.747 E1.70115
;WIDTH:0.924798
G1 X108.482 Y124.624 E1.71152
;WIDTH:0.950474
G1 X108.43 Y124.482 E1.72316
; stop printing object Body8.stl id:0 copy 0
EXCLUDE_OBJECT_END NAME=Body8_stl_id_0_copy_0
;LAYER_CHANGE
;Z:0.4
;HEIGHT:0.2
;BEFORE_LAYER_CHANGE
;0.4
M117 Layer 2/90 : klipper-PLA-0.6

G1 Z.4 F7800
SET_PRINT_STATS_INFO CURRENT_LAYER=2
;AFTER_LAYER_CHANGE
;0.4
M104 S208 ; set temperature
M140 S60 ; set bed temperature
; printing object Body8.stl id:0 copy 0
EXCLUDE_OBJECT_START NAME=Body8_stl_id_0_copy_0
G1 E.22316 F3000
G92 E0
G1 X109.194 Y124.313 F7800
G3 X109.967 Y121.633 I2.840 J-0.632
G1 X117.489 Y114.11
G1 X117.67 Y114.465
G1 X118.006 Y114.294
G1 E1.5 F3000
;WIDTH:0.659999
G1 F2100
G1 X117.795 Y114.189 E1.51233
G1 X117.164 Y114.09 E1.54576
G1 X116.636 Y114.214 E1.57415
;WIDTH:0.70243
G1 X116.461 Y114.308 E1.58526
;WIDTH:0.744861
G1 X116.286 Y114.402 E1.59709
;WIDTH:0.787291
G1 X116.111 Y114.496 E1.60963
;WIDTH:0.791005
G1 X109.546 Y121.068 E2.19901
G1 X109.149 Y121.527 E2.23751
;WIDTH:0.780358
G1 X108.872 Y121.979 E2.27067
;WIDTH:0.763152
G1 X108.748 Y122.303 E2.29186
;WIDTH:0.73725
G1 X108.624 Y122.628 E2.31234
;WIDTH:0.711347
G1 X108.577 Y122.951 E2.33084
;WIDTH:0.682935
G1 X108.53 Y123.274 E2.34856
;WIDTH:0.654523
G1 X108.494 Y123.822 E2.37705
;WIDTH:0.70403
G1 X108.483 Y123.931 E2.38319
;WIDTH:0.753536
G1 X108.472 Y124.04 E2.38979
;WIDTH:0.803043
G1 X108.461 Y124.149 E2.39685
;WIDTH:0.852549
G1 X108.45 Y124.257 E2.4043
;WIDTH:0.902056
G1 X108.439 Y124.366 E2.41228
;WIDTH:0.951562
G1 X108.428 Y124.475 E2.42072
G1 X108.373 Y124.406 E2.42752
;WIDTH:0.908414
G1 X108.317 Y124.337 E2.43404
;WIDTH:0.865266
G1 X108.261 Y124.267 E2.44029
;WIDTH:0.822117
G1 X108.206 Y124.198 E2.44612
;WIDTH:0.778969
G1 X108.15 Y124.129 E2.45167
;WIDTH:0.73582
G1 X108.082 Y123.979 E2.46135
;WIDTH:0.695172
G1 X108.014 Y123.83 E2.47041
;WIDTH:0.654523
G1 X107.925 Y123.283 E2.49916
;WIDTH:0.674996
G1 X107.931 Y122.921 E2.51857
;WIDTH:0.7234
G1 X108.006 Y122.321 E2.55347
;WIDTH:0.763306
G1 X108.246 Y121.623 E2.59857
;WIDTH:0.781387
G1 X108.608 Y121.012 E2.64305
;WIDTH:0.791005
G1 X109.006 Y120.55 E2.68174
G1 X115.584 Y113.97 E3.27206
;WIDTH:0.787292
G1 X115.749 Y113.775 E3.28819
;WIDTH:0.744861
G1 X115.912 Y113.582 E3.30323
;WIDTH:0.70243
G1 X116.076 Y113.388 E3.31744
;WIDTH:0.659999
G1 X118.204 Y111.26 E3.47494
G2 X117.991 Y114.205 I4.513 J1.807 E3.63187
G1 X117.229 Y113.366 F7800
;WIDTH:0.877656
G1 F2100
G3 X117.177 Y113.275 I-0.104 J-0.001 E3.66873
G1 E2.16873 F3000
G92 E0
G1 X121.123 Y108.452 F7800
G1 E1.5 F3000
;WIDTH:0.816229
G1 F2100
G1 X122.303 Y107.271 E1.6095
G1 X123.268 Y108.236 E1.69901
G2 X121.209 Y108.427 I-0.620 J4.508 E1.83571
G1 E.33571 F3000
G92 E0
G1 X121.397 Y109.099 F7800
G2 X122.991 Y117.241 I1.258 J3.981
G1 X122.996 Y117.313
G1 E1.5 F3000
;WIDTH:0.78469
G1 F2100
G1 X122.902 Y117.325 E1.50596
;WIDTH:0.786634
G3 X121.835 Y117.253 I-0.153 J-5.680 E1.57349
;WIDTH:0.778848
G1 X121.191 Y117.072 E1.61524
;WIDTH:0.786739
G3 X120.285 Y116.611 I2.166 J-5.378 E1.67943
;WIDTH:0.778306
G1 X119.836 Y116.268 E1.71467
;WIDTH:0.778476
G1 X119.33 Y115.73 E1.76075
;WIDTH:0.787064
G3 X118.785 Y114.849 I5.369 J-3.930 E1.82619
;WIDTH:0.782542
G1 X118.725 Y114.621 E1.84098
;WIDTH:0.741695
G1 X118.666 Y114.393 E1.85494
;WIDTH:0.700847
G1 X118.606 Y114.165 E1.8681
;WIDTH:0.659999
G3 X118.716 Y111.648 I4.040 J-1.084 E2.00181
;WIDTH:0.697198
G1 X118.783 Y111.452 E2.0133
;WIDTH:0.734397
G1 X118.85 Y111.255 E2.0255
;WIDTH:0.771596
G1 X118.917 Y111.059 E2.0383
;WIDTH:0.810979
G1 X118.944 Y110.974 E2.04411
;WIDTH:0.850362
G3 X119.176 Y110.623 I0.591 J0.138 E2.07322
;WIDTH:0.82173
G1 X119.381 Y110.358 E2.09535
;WIDTH:0.79501
G1 X120.002 Y109.748 E2.15088
;WIDTH:0.814339
G3 X120.312 Y109.547 I0.523 J0.468 E2.17527
;WIDTH:0.775754
G1 X120.465 Y109.476 E2.18575
;WIDTH:0.737169
G1 X120.618 Y109.406 E2.19566
;WIDTH:0.698584
G1 X120.771 Y109.335 E2.20504
