; generated by PrusaSlicer 2.6.0+win64 on 2023-07-02 at 12:55:42 UTC
; Postprocessed by [ArcWelder](https://github.com/FormerLurker/ArcWelderLib)
; Copyright(C) 2021 - Brad Hochgesang
; Version: 1.2.0, Branch: HEAD, BuildDate: 2021-11-21T20:25:43Z
; resolution=0.05mm
; path_tolerance=5.0%
; max_radius=9999.00mm
; default_xyz_precision=3
; default_e_precision=5
; extrusion_rate_variance_percent=5.0%








; 

; external perimeters extrusion width = 0.40mm
; perimeters extrusion width = 0.40mm
; infill extrusion width = 0.40mm
; solid infill extrusion width = 0.40mm
; top infill extrusion width = 0.40mm
; first layer extrusion width = 0.40mm

; external perimeters extrusion width = 0.40mm
; perimeters extrusion width = 0.40mm
; infill extrusion width = 0.40mm
; solid infill extrusion width = 0.40mm
; top infill extrusion width = 0.40mm
; first layer extrusion width = 0.40mm

M73 P0 R88


; Pre-Processed for Cancel-Object support by preprocess_cancellation v0.2.0
; 2 known objects
EXCLUDE_OBJECT_DEFINE NAME=Ergonomic_lockable_bit_screw_driver_for_small_hands_stl_id_0_copy_0 CENTER=107.219,117.517 POLYGON=[[99.33,109.16],[99.33,124.52],[115.35,124.52],[115.35,109.16]]
EXCLUDE_OBJECT_DEFINE NAME=Locknut_for_lockable_bit_screwdriver_stl_id_1_copy_0 CENTER=129.058,118.651 POLYGON=[[122.002,111.346],[122.002,125.702],[136.347,125.702],[136.347,111.346]]
;TYPE:Custom
G90 ; use absolute coordinates
M83 ; extruder relative mode
M104 S205 ; set temporary nozzle temp to prevent oozing during homing
M140 S65 ; set final bed temp
G4 S30 ; allow partial nozzle warmup
G28 ; home all axis
BED_MESH_CALIBRATE
G1 Z50 F240
G1 X2.0 Y10 F3000
M104 S210 ; set final nozzle temp
M190 S65 ; wait for bed temp to stabilize
M109 S210 ; wait for nozzle temp to stabilize
G1 Z0.28 F240
G92 E0
G1 X2.0 Y140 E10 F1500 ; prime the nozzle
G1 X2.3 Y140 F5000
G92 E0
G1 X2.3 Y10 E10 F1200 ; prime the nozzle
G21 ; set units to millimeters
G90 ; use absolute coordinates
M82 ; use absolute distances for extrusion
G92 E0
; Filament gcode
M107
;LAYER_CHANGE
;Z:0.2
;HEIGHT:0.2
;BEFORE_LAYER_CHANGE
;0.2
M117 Layer 1/470 : PLA - KLIPPER

G1 Z.2 F9000
SET_PRINT_STATS_INFO CURRENT_LAYER=1
;AFTER_LAYER_CHANGE
;0.2
G1 E-1.5 F3300
G92 E0
G1 X94.266 Y104.24 F9000
G1 E1.5 F3300
;TYPE:Skirt/Brim
;WIDTH:0.4
G1 F1200
G3 X96.508 Y102.401 I12.850 J13.380 E1.58616
G1 X98.829 Y101.028 E1.66623
G3 X104.500 Y99.279 I8.164 J16.403 E1.84317
G1 X107.129 Y99.106 E1.9214
G1 X129.801 Y99.539 E2.59468
G1 X131.852 Y99.718 E2.65581
G3 X134.693 Y100.348 I-2.685 J18.827 E2.74228
G1 X137.152 Y101.285 E2.82041
G1 X139.548 Y102.612 E2.90173
G3 X144.363 Y107.118 I-10.382 J15.920 E3.09846
G1 X145.521 Y108.852 E3.16037
G3 X147.571 Y113.801 I-16.261 J9.635 E3.31990
G1 X147.977 Y115.844 E3.38175
G3 X147.977 Y121.201 I-18.725 J2.679 E3.54127
G1 X147.571 Y123.244 E3.60312
G3 X144.615 Y129.581 I-18.352 J-4.702 E3.81186
G1 X143.312 Y131.205 E3.87368
G3 X140.576 Y133.712 I-14.050 J-12.587 E3.98400
G1 X138.844 Y134.87 E4.04586
G1 X137.018 Y135.82 E4.10697
G1 X135.077 Y136.575 E4.16881
G3 X131.453 Y137.379 I-5.878 J-17.925 E4.27916
G1 X129.228 Y137.516 E4.34535
G1 X127.667 Y137.456 E4.39173
G1 X105.56 Y135.837 E5.04987
G1 X103.745 Y135.602 E5.10421
G1 X101.408 Y135.019 E5.17573
G1 X99.059 Y134.085 E5.25079
G1 X96.982 Y132.918 E5.32153
G1 X94.836 Y131.286 E5.40158
G1 X92.95 Y129.355 E5.48172
G3 X88.695 Y119.158 I14.056 J-11.852 E5.81485
G1 X88.646 Y116.521 E5.89316
G3 X89.811 Y110.990 I18.326 J0.972 E6.06161
G1 X90.917 Y108.599 E6.13983
G3 X92.454 Y106.259 I16.348 J9.063 E6.22302
G1 X94.206 Y104.307 E6.3009
G1 X94.471 Y104.545 F9000
G1 F1200
G3 X96.713 Y102.694 I12.078 J12.346 E6.38730
G1 X98.983 Y101.35 E6.46563
G3 X104.553 Y99.632 I8.014 J16.095 E6.63942
G1 X107.124 Y99.463 E6.71592
G1 X129.794 Y99.896 E7.38914
G1 X131.798 Y100.071 E7.44887
G3 X134.593 Y100.691 I-2.592 J18.296 E7.53394
G1 X136.874 Y101.551 E7.60632
G1 X139.141 Y102.775 E7.68281
G1 X141.299 Y104.37 E7.76249
G1 X142.488 Y105.482 E7.81083
G1 X143.84 Y107.023 E7.8717
G3 X146.465 Y111.570 I-14.637 J11.481 E8.02805
G1 X147.124 Y113.512 E8.08894
G3 X147.809 Y118.715 I-17.924 J5.006 E8.24522
G1 X147.675 Y120.763 E8.30616
G3 X146.317 Y125.832 I-18.406 J-2.215 E8.46245
G1 X145.409 Y127.673 E8.5234
G3 X143.325 Y130.649 I-16.143 J-9.087 E8.63140
G1 X141.906 Y132.131 E8.69232
G1 X140.476 Y133.341 E8.74794
G1 X138.659 Y134.564 E8.81297
G1 X137.001 Y135.436 E8.86859
G1 X134.962 Y136.237 E8.93363
G3 X131.414 Y137.024 I-5.787 J-17.698 E9.04166
G1 X129.228 Y137.159 E9.10669
G1 X105.586 Y135.481 E9.81042
G1 X103.923 Y135.271 E9.86019
G1 X101.594 Y134.704 E9.93136
G1 X99.342 Y133.824 E10.00315
G1 X97.176 Y132.618 E10.07676
G1 X95.165 Y131.099 E10.15159
G3 X93.223 Y129.126 I11.919 J-13.674 E10.23385
G1 X91.629 Y126.914 E10.3148
G3 X90.371 Y124.453 I15.583 J-9.518 E10.39692
G1 X89.535 Y121.952 E10.47522
G1 X89.246 Y120.601 E10.51624
M73 P1 R88
G1 X89.051 Y119.126 E10.56042
G1 X89.003 Y116.539 E10.63724
G1 X89.337 Y113.916 E10.71575
G3 X90.091 Y111.260 I17.683 J3.585 E10.79779
G1 X91.195 Y108.834 E10.87693
G3 X92.738 Y106.476 I15.861 J8.695 E10.96066
G1 X94.411 Y104.612 E11.03503
G1 E9.53503 F3300
G92 E0
G1 X98.937 Y109.314 F9000
G1 E1.5 F3300
G1 F1200
G3 X117.945 Y113.951 I8.075 J8.178 E2.19481
G1 X118.743 Y112.388 E2.24692
G3 X117.595 Y122.005 I10.434 J6.123 E4.20780
G3 X111.368 Y128.146 I-10.585 J-4.506 E4.47408
M73 P1 R87
G3 X98.876 Y109.380 I-4.354 J-10.643 E5.41044
G1 X99.139 Y109.622 F9000
G1 F1200
G3 X117.793 Y114.717 I7.875 J7.862 E6.10609
G1 X118.052 Y114.736 E6.1138
G3 X117.832 Y121.566 I11.121 J3.777 E8.09818
G1 X117.764 Y121.263 E8.1074
G1 X117.498 Y121.245 E8.11532
G3 X99.078 Y109.688 I-10.489 J-3.740 E9.29802
G1 X99.34 Y109.93 F9000
G1 F1200
G3 X117.719 Y116.257 I7.677 J7.557 E10.01751
G1 X118.017 Y116.269 E10.02637
G3 X117.858 Y119.755 I11.159 J2.256 E12.04591
G1 X117.565 Y119.737 E12.05463
G3 X99.279 Y109.996 I-10.549 J-2.232 E13.24005
G1 E11.74005 F3300
G92 E0
G1 X118.498 Y115.753 F9000
G1 E1.5 F3300
G1 F1200
G3 X118.332 Y116.500 I10.677 J2.765 E3.53420
G1 X118.478 Y115.841 E3.55424
G1 X118.827 Y115.918 F9000
G1 F1200
G3 X118.511 Y118.073 I10.345 J2.618 E5.47985
G3 X118.807 Y116.006 I10.057 J0.385 E5.54194
G1 X119.156 Y116.083 F9000
G1 F1200
G3 X118.906 Y119.509 I10.018 J2.453 E7.36322
G3 X119.136 Y116.171 I9.868 J-0.997 E7.46301
G1 X119.485 Y116.249 F9000
G1 F1200
G3 X119.261 Y119.467 I9.687 J2.291 E9.22395
G3 X119.465 Y116.336 I9.476 J-0.955 E9.31750
G1 X119.814 Y116.414 F9000
G1 F1200
G3 X119.616 Y119.426 I9.357 J2.128 E11.01811
G3 X119.795 Y116.502 I9.297 J-0.898 E11.10543
G1 X120.143 Y116.579 F9000
G1 F1200
G3 X119.971 Y119.385 I9.030 J1.962 E12.74558
G3 X120.124 Y116.667 I8.919 J-0.861 E12.82671
G1 X120.472 Y116.744 F9000
G1 F1200
G3 X120.325 Y119.344 I8.700 J1.796 E14.40645
G3 X120.453 Y116.832 I8.666 J-0.818 E14.48138
G1 X120.801 Y116.909 F9000
G1 F1200
G3 X120.652 Y118.905 I8.372 J1.628 E16.01257
G3 X120.782 Y116.997 I8.361 J-0.389 E16.06946
G1 X121.131 Y117.074 F9000
G1 F1200
G3 X121.072 Y117.447 I8.040 J1.463 E17.58241
G1 X121.117 Y117.163 E17.59095
G1 X121.469 Y117.218 F9000
G1 F1200
G3 X121.366 Y118.181 I7.704 J1.311 E19.01974
G1 X121.455 Y117.307 E19.04582
G1 X121.808 Y117.362 F9000
G1 F1200
G3 X131.732 Y125.528 I7.367 J1.160 E19.97700
M73 P2 R87
G3 X121.794 Y117.451 I-2.559 J-7.003 E20.43416
G1 E18.93416 F3300
G92 E0
G1 X117.444 Y117.592 F9000
G1 E1.5 F3300
G1 F1200
G3 X117.403 Y116.577 I-10.429 J-0.087 E3.41474
G1 X117.44 Y117.502 E3.44223
G1 X117.084 Y117.517 F9000
G1 F1200
G3 X116.671 Y114.635 I-10.071 J-0.027 E5.23386
G3 X117.080 Y117.427 I-9.093 J2.758 E5.31791
G1 X116.724 Y117.442 F9000
G1 F1200
G3 X116.022 Y113.859 I-9.709 J0.042 E7.02060
G3 X116.721 Y117.352 I-8.804 J3.578 E7.12696
G1 X116.364 Y117.367 F9000
G1 F1200
G3 X107.903 Y108.184 I-9.355 J0.130 E8.46622
M73 P2 R86
G3 X116.361 Y117.277 I-0.880 J9.299 E8.86945
G1 X116.004 Y117.293 F9000
G1 F1200
G3 X114.492 Y112.489 I-8.994 J0.191 E10.39643
G3 X116.000 Y117.203 I-7.339 J4.946 E10.54532
G1 X115.644 Y117.218 F9000
G1 F1200
G3 X114.190 Y112.680 I-8.635 J0.265 E12.01392
G3 X115.640 Y117.129 I-7.040 J4.755 E12.15463
G1 X115.284 Y117.145 F9000
G1 F1200
G3 X113.889 Y112.872 I-8.276 J0.338 E13.56480
G3 X115.280 Y117.055 I-6.733 J4.562 E13.69731
G1 X114.924 Y117.071 F9000
G1 F1200
G3 X113.588 Y113.065 I-7.916 J0.414 E15.04913
G3 X114.920 Y116.981 I-6.467 J4.384 E15.17339
G1 X114.564 Y116.997 F9000
G1 F1200
G3 X113.679 Y113.905 I-7.555 J0.490 E16.48932
G3 X114.560 Y116.907 I-6.578 J3.561 E16.58286
G1 X114.204 Y116.923 F9000
G1 F1200
G3 X113.915 Y115.390 I-7.193 J0.562 E17.88202
G3 X114.198 Y116.834 I-6.810 J2.084 E17.92577
G1 X113.845 Y116.885 F9000
G1 F1200
G3 X113.739 Y116.150 I-6.831 J0.610 E19.18275
G1 X113.832 Y116.796 E19.20213
; printing object Ergonomic lockable bit screw driver (for small hands).stl id:0 copy 0
EXCLUDE_OBJECT_START NAME=Ergonomic_lockable_bit_screw_driver_for_small_hands_stl_id_0_copy_0
G1 E17.70213 F3300
G92 E0
G1 X112.083 Y119.368 F9000
G1 E1.5 F3300
;TYPE:Perimeter
;WIDTH:0.399999
G1 F1200
G3 X112.356 Y118.301 I-5.068 J-1.865 E2.47466
G3 X112.110 Y119.282 I-5.231 J-0.790 E2.50472
G1 X112.418 Y119.491 F9000
G1 F1200
G3 X112.709 Y118.354 I-5.404 J-1.989 E3.54372
G3 X112.445 Y119.405 I-5.509 J-0.825 E3.57593
G1 X112.753 Y119.614 F9000
G1 F1200
G3 X112.926 Y119.062 I-5.740 J-2.102 E4.69919
G1 X112.78 Y119.528 E4.71369
G1 X113.08 Y119.761 F9000
;TYPE:External perimeter
G1 F1200
G3 X113.483 Y117.227 I-6.068 J-2.264 E5.84489
G3 X113.111 Y119.676 I-6.122 J0.323 E5.91895
G1 X112.812 Y119.813 F9000
G1 E4.41895 F3300
G92 E0
G1 X109.731 Y112.955 F9000
G1 E1.5 F3300
;TYPE:Solid infill
;WIDTH:0.409686
G1 F1200
G1 X110.948 Y114.192 E1.55292
G3 X111.737 Y115.479 I-3.782 J3.204 E1.59911
G1 X109.033 Y112.775 E1.71573
G2 X108.258 Y112.519 I-1.445 J3.073 E1.74065
G1 X111.995 Y116.256 E1.90182
G3 X112.111 Y116.890 I-2.982 J0.873 E1.92150
G1 X107.621 Y112.401 E2.11513
G1 X107.072 Y112.37 E2.1319
G1 X112.152 Y117.451 E2.35102
G1 X112.131 Y117.949 E2.36622
G1 X106.566 Y112.383 E2.60625
G1 X106.106 Y112.442 E2.62039
G1 X112.069 Y118.405 E2.87757
G1 X111.972 Y118.827 E2.89078
G1 X105.683 Y112.538 E3.16202
G1 X105.296 Y112.669 E3.17448
G1 X111.851 Y119.224 E3.45719
G1 X111.703 Y119.595 E3.46937
G1 X104.919 Y112.811 E3.76196
G1 X104.572 Y112.983 E3.77377
G1 X111.53 Y119.953 E4.07412
G1 X111.337 Y120.266 E4.08533
G1 X104.243 Y113.173 E4.39126
G1 X103.941 Y113.389 E4.40258
G1 X111.127 Y120.575 E4.7125
G1 X110.896 Y120.863 E4.72376
G1 X103.653 Y113.62 E5.03614
G1 X103.383 Y113.868 E5.04732
G1 X110.647 Y121.132 E5.36061
G1 X110.376 Y121.38 E5.37181
G1 X103.133 Y114.137 E5.68419
G1 X102.902 Y114.425 E5.69545
G1 X110.088 Y121.611 E6.00537
G1 X109.786 Y121.827 E6.01669
G1 X102.693 Y114.734 E6.3226
G1 X102.495 Y115.055 E6.3341
G1 X109.457 Y122.017 E6.63436
G1 X109.11 Y122.189 E6.64617
G1 X102.326 Y115.405 E6.93876
G1 X102.178 Y115.776 E6.95094
G1 X108.733 Y122.331 E7.23365
G1 X108.346 Y122.462 E7.24611
G1 X102.057 Y116.173 E7.51735
G1 X101.96 Y116.595 E7.53056
G1 X107.923 Y122.558 E7.78774
G1 X107.463 Y122.617 E7.80188
G1 X101.898 Y117.051 E8.04191
G1 X101.877 Y117.549 E8.05711
G1 X106.947 Y122.619 E8.27577
G1 X106.408 Y122.599 E8.29222
G1 X101.919 Y118.11 E8.48583
G2 X102.035 Y118.744 I2.915 J-0.206 E8.50551
G1 X105.771 Y122.481 E8.66666
G3 X104.996 Y122.224 I0.679 J-3.346 E8.69159
G1 X102.293 Y119.521 E8.80817
G2 X103.081 Y120.808 I4.679 J-1.980 E8.85435
G1 X104.298 Y122.045 E8.90727
; stop printing object Ergonomic lockable bit screw driver (for small hands).stl id:0 copy 0
EXCLUDE_OBJECT_END NAME=Ergonomic_lockable_bit_screw_driver_for_small_hands_stl_id_0_copy_0
; printing object Locknut for lockable bit screwdriver.stl id:1 copy 0
EXCLUDE_OBJECT_START NAME=Locknut_for_lockable_bit_screwdriver_stl_id_1_copy_0
G1 E7.40727 F3300
G92 E0
G1 X126.112 Y123.835 F9000
G1 E1.5 F3300
;TYPE:Perimeter
;WIDTH:0.554597
G1 F1200
G1 X126.145 Y123.856 E1.50166
;WIDTH:0.557682
G1 X126.821 Y124.181 E1.53376
;WIDTH:0.564223
G1 X127.87 Y124.529 E1.58167
;WIDTH:0.546563
G1 X128.381 Y124.638 E1.60355
;WIDTH:0.532052
G1 X128.935 Y124.727 E1.62637
;WIDTH:0.505494
G1 X129.464 Y124.753 E1.64674
;WIDTH:0.485544
G1 X130.005 Y124.738 E1.66666
;WIDTH:0.462749
G1 X130.539 Y124.673 E1.68544
;WIDTH:0.451799
G1 X131.094 Y124.58 E1.70457
;WIDTH:0.494806
G1 X131.173 Y124.58 E1.70754
;WIDTH:0.537813
G1 X131.252 Y124.579 E1.71079
;WIDTH:0.58082
G1 X131.331 Y124.578 E1.71432
;WIDTH:0.623827
G1 X131.411 Y124.577 E1.71818
;WIDTH:0.666834
G1 X131.49 Y124.577 E1.72228
;WIDTH:0.709841
G1 X131.569 Y124.576 E1.72666
;WIDTH:0.752848
G1 X131.648 Y124.575 E1.73132
G1 X131.572 Y124.627 E1.73676
;WIDTH:0.704426
G1 X131.495 Y124.679 E1.74187
;WIDTH:0.656003
G1 X131.418 Y124.73 E1.74658
;WIDTH:0.607581
G1 X131.341 Y124.782 E1.75094
;WIDTH:0.559158
G1 X131.264 Y124.834 E1.75493
;WIDTH:0.510736
G1 X131.187 Y124.885 E1.75852
;WIDTH:0.462313
G1 X131.11 Y124.937 E1.76176
;WIDTH:0.442652
G1 X130.607 Y125.067 E1.77903
;WIDTH:0.462749
G1 X130.038 Y125.157 E1.79914
;WIDTH:0.485544
G1 X129.455 Y125.195 E1.82064
;WIDTH:0.505494
G1 X128.873 Y125.185 E1.84303
;WIDTH:0.532052
G1 X128.294 Y125.12 E1.86673
;WIDTH:0.546563
G1 X127.724 Y125.011 E1.89103
;WIDTH:0.564223
G3 X126.420 Y124.561 I1.800 J-7.330 E1.95088
;WIDTH:0.552829
G1 X125.815 Y124.255 E1.97963
M73 P3 R86
G1 X125.228 Y123.865 E2.00951
;WIDTH:0.550383
G1 X124.78 Y123.498 E2.03395
;WIDTH:0.55416
G3 X123.876 Y122.533 I3.983 J-4.637 E2.09024
;WIDTH:0.563594
G3 X123.144 Y121.311 I6.189 J-4.538 E2.15197
;WIDTH:0.554997
G1 X122.923 Y120.777 E2.17658
;WIDTH:0.564013
G3 X122.607 Y119.494 I6.676 J-2.325 E2.23390
;WIDTH:0.551404
G1 X122.533 Y118.729 E2.2664
;WIDTH:0.556741
G3 X122.587 Y117.644 I6.918 J-0.200 E2.31284
;WIDTH:0.554713
G1 X122.689 Y117.073 E2.33752
;WIDTH:0.554003
G1 X122.859 Y116.429 E2.36583
;WIDTH:0.532129
G1 X123.079 Y115.838 E2.39148
;WIDTH:0.507295
G1 X123.399 Y115.167 E2.42018
;WIDTH:0.484802
G1 X123.733 Y114.633 E2.44332
;WIDTH:0.459772
G1 X124.073 Y114.19 E2.46268
;WIDTH:0.434978
G1 X124.44 Y113.779 E2.48064
;WIDTH:0.475542
G1 X124.52 Y113.737 E2.48389
;WIDTH:0.521724
G1 X124.6 Y113.696 E2.48747
;WIDTH:0.567907
G1 X124.68 Y113.654 E2.49141
;WIDTH:0.614089
G1 X124.759 Y113.613 E2.49564
;WIDTH:0.660271
G1 X124.839 Y113.571 E2.50028
;WIDTH:0.706454
G1 X124.919 Y113.53 E2.50524
;WIDTH:0.752636
G1 X124.999 Y113.489 E2.51054
G1 X124.959 Y113.568 E2.51577
;WIDTH:0.706454
G1 X124.919 Y113.647 E2.52066
;WIDTH:0.660271
G1 X124.88 Y113.726 E2.52518
;WIDTH:0.614089
G1 X124.84 Y113.806 E2.52943
;WIDTH:0.567907
G1 X124.801 Y113.885 E2.53328
;WIDTH:0.521724
G1 X124.761 Y113.964 E2.53681
;WIDTH:0.475542
G1 X124.721 Y114.044 E2.54003
;WIDTH:0.434978
G1 X124.389 Y114.421 E2.55641
;WIDTH:0.464116
G1 X124.038 Y114.926 E2.57795
;WIDTH:0.485145
G1 X123.738 Y115.475 E2.60095
;WIDTH:0.517438
G1 X123.461 Y116.138 E2.6293
;WIDTH:0.537043
G1 X123.306 Y116.645 E2.65108
;WIDTH:0.554003
G1 X123.186 Y117.19 E2.6748
;WIDTH:0.554713
G1 X123.093 Y117.72 E2.6977
;WIDTH:0.556741
G2 X123.044 Y118.789 I7.599 J0.884 E2.74345
;WIDTH:0.555616
G1 X123.133 Y119.577 E2.77726
;WIDTH:0.564013
G1 X123.405 Y120.609 E2.8235
;WIDTH:0.553655
G1 X123.696 Y121.277 E2.85444
;WIDTH:0.563594
G1 X124.3 Y122.248 E2.90395
;WIDTH:0.553858
G2 X125.233 Y123.223 I5.039 J-3.888 E2.96136
;WIDTH:0.554597
G2 X126.036 Y123.787 I3.570 J-4.229 E3.00315
G1 X126.342 Y123.471 F9000
;TYPE:External perimeter
;WIDTH:0.399999
G1 F1200
G3 X123.611 Y117.277 I2.875 J-4.967 E3.21817
G3 X128.862 Y112.211 I6.003 J0.967 E3.45070
;WIDTH:0.441299
G1 X129.019 Y112.179 E3.45601
;WIDTH:0.482598
G1 X129.177 Y112.147 E3.4619
;WIDTH:0.523898
G1 X129.335 Y112.115 E3.46835
;WIDTH:0.565197
G3 X130.037 Y112.094 I0.396 J1.494 E3.49899
;WIDTH:0.558115
G1 X130.609 Y112.167 E3.52369
;WIDTH:0.53885
G1 X131.166 Y112.284 E3.54716
;WIDTH:0.516644
G1 X131.709 Y112.451 E3.56954
;WIDTH:0.49621
G1 X132.5 Y112.79 E3.60198
;WIDTH:0.463446
G1 X133.252 Y113.251 E3.63282
;WIDTH:0.439207
G1 X133.7 Y113.597 E3.65147
;WIDTH:0.422361
G1 X134.118 Y114 E3.66979
