; generated by PrusaSlicer 2.6.0+win64 on 2023-07-04 at 20:31:23 UTC
; Postprocessed by [ArcWelder](https://github.com/FormerLurker/ArcWelderLib)
; Copyright(C) 2021 - Brad Hochgesang
; Version: 1.2.0, Branch: HEAD, BuildDate: 2021-11-21T20:25:43Z
; resolution=0.05mm
; path_tolerance=5.0%
; max_radius=9999.00mm
; default_xyz_precision=3
; default_e_precision=5
; extrusion_rate_variance_percent=5.0%








; 

; external perimeters extrusion width = 0.60mm
; perimeters extrusion width = 0.60mm
; infill extrusion width = 0.60mm
; solid infill extrusion width = 0.60mm
; top infill extrusion width = 0.40mm
; support material extrusion width = 0.40mm
; first layer extrusion width = 0.60mm

M73 P0 R74


; Pre-Processed for Cancel-Object support by preprocess_cancellation v0.2.0
; 1 known objects
EXCLUDE_OBJECT_DEFINE NAME=Ergonomic_lockable_bit_screw_driver_for_small_hands_stl_id_0_copy_0 CENTER=117.864,118.238 POLYGON=[[105.967,104.377],[105.967,127.404],[127.938,127.404],[127.938,104.377]]
;TYPE:Custom
G90 ; use absolute coordinates
M83 ; extruder relative mode
M104 S205 ; set temporary nozzle temp to prevent oozing during homing
M140 S65 ; set final bed temp
G4 S30 ; allow partial nozzle warmup
G28 ; home all axis
BED_MESH_CALIBRATE
G1 Z50 F240
G1 X2.0 Y10 F3000
M104 S210 ; set final nozzle temp
M190 S65 ; wait for bed temp to stabilize
M109 S210 ; wait for nozzle temp to stabilize
G1 Z0.28 F240
G92 E0
G1 X2.0 Y140 E10 F1500 ; prime the nozzle
G1 X2.3 Y140 F5000
G92 E0
G1 X2.3 Y10 E10 F1200 ; prime the nozzle
G21 ; set units to millimeters
G90 ; use absolute coordinates
M82 ; use absolute distances for extrusion
G92 E0
; Filament gcode
M107
;LAYER_CHANGE
;Z:0.2
;HEIGHT:0.2
;BEFORE_LAYER_CHANGE
;0.2
M117 Layer 1/472 : PLA - KLIPPER

G1 Z.2 F7800
SET_PRINT_STATS_INFO CURRENT_LAYER=1
;AFTER_LAYER_CHANGE
;0.2
G1 E-1.5 F3000
G92 E0
G1 X104.948 Y104.52 F7800
G1 E1.5 F3000
;TYPE:Skirt/Brim
;WIDTH:0.6
G1 F1200
G3 X109.098 Y101.519 I12.579 J13.025 E1.73794
G1 X110.843 Y100.717 E1.8269
G1 X112.668 Y100.104 E1.91608
G3 X117.655 Y99.447 I4.827 J17.385 E2.14976
G1 X119.693 Y99.58 E2.24436
G3 X127.431 Y102.423 I-2.200 J17.939 E2.62948
G1 X129.033 Y103.61 E2.72184
G3 X131.429 Y106.016 I-11.593 J13.941 E2.87930
G1 X132.656 Y107.692 E2.97552
G3 X135.171 Y121.190 I-15.152 J9.807 E3.62770
G1 X134.678 Y123.052 E3.71692
G3 X130.248 Y130.282 I-17.180 J-5.555 E4.11325
G3 X127.335 Y132.640 I-12.813 J-12.851 E4.28709
G3 X122.762 Y134.770 I-9.811 J-15.089 E4.52144
G1 X120.788 Y135.252 E4.61556
G3 X117.425 Y135.554 I-3.299 J-17.860 E4.77214
G1 X115.304 Y135.42 E4.87058
G3 X103.567 Y128.984 I2.204 J-17.940 E5.50554
G1 X102.341 Y127.309 E5.60169
G3 X99.825 Y113.809 I15.167 J-9.811 E6.25397
G1 X100.319 Y111.947 E6.3432
G3 X104.887 Y104.586 I17.112 J5.521 E6.74832
G1 E5.69832 F3000
;WIPE_START
G1 F6240
G1 X105.625 Y103.933 E5.24832
;WIPE_END
G92 E0
G1 X105.292 Y104.967 F7800
G1 E1.5 F3000
G1 F1200
G3 X111.051 Y101.234 I12.184 J12.488 E1.81985
G3 X117.649 Y100.004 I6.447 J16.272 E2.13256
M73 P1 R74
G1 X119.632 Y100.133 E2.22461
G3 X127.117 Y102.884 I-2.139 J17.379 E2.59714
G1 X128.68 Y104.042 E2.68725
G3 X130.994 Y106.364 I-11.099 J13.375 E2.83927
G1 X132.191 Y107.999 E2.93313
G3 X134.640 Y121.008 I-14.684 J9.499 E3.56173
G1 X134.15 Y122.875 E3.65114
G3 X122.606 Y134.235 I-16.657 J-5.381 E4.43080
G1 X120.68 Y134.706 E4.52264
G3 X107.891 Y132.124 I-3.175 J-17.238 E5.14170
G1 X106.317 Y130.959 E5.23241
G3 X104.002 Y128.636 I11.223 J-13.499 E5.38449
G1 X102.806 Y127.002 E5.47829
G3 X100.356 Y113.991 I14.695 J-9.503 E6.10698
G1 X100.847 Y112.125 E6.19636
G3 X105.231 Y105.032 I16.522 J5.311 E6.58627
; printing object Ergonomic lockable bit screw driver (for small hands).stl id:0 copy 0
EXCLUDE_OBJECT_START NAME=Ergonomic_lockable_bit_screw_driver_for_small_hands_stl_id_0_copy_0
G1 E5.53627 F3000
;WIPE_START
G1 F6240
G1 X105.967 Y104.377 E5.08627
;WIPE_END
G92 E0
G1 X117.577 Y106.56 F7800
G1 E1.5 F3000
;TYPE:Support material
G1 F1200
G3 X116.654 Y106.592 I-0.083 J10.940 E4.64085
G1 X117.494 Y106.559 E4.67979
G1 E3.62979 F3000
;WIPE_START
G1 F6240
G2 X116.510 Y106.607 I-0.121 J7.638 E3.17979
;WIPE_END
G92 E0
G1 X121.521 Y107.596 F7800
G1 E1.5 F3000
G1 F1200
G1 X114.199 Y107.596 E1.83917
G2 X112.725 Y108.215 I3.292 J9.903 E1.91327
G1 X122.269 Y108.215 E2.35536
G3 X123.315 Y108.834 I-4.414 J8.652 E2.41169
G1 X111.681 Y108.834 E2.95059
M73 P1 R73
G2 X110.849 Y109.453 I5.172 J7.821 E2.99864
G1 X124.148 Y109.453 E3.61467
G1 X124.833 Y110.072 E3.65744
G1 X110.164 Y110.072 E4.33693
G1 X109.587 Y110.691 E4.37613
G1 X125.409 Y110.691 E5.10903
G1 X125.902 Y111.31 E5.14569
G1 X109.094 Y111.31 E5.92426
G1 X108.67 Y111.929 E5.95901
G1 X126.326 Y111.929 E6.77686
G1 X126.688 Y112.548 E6.81008
G1 X108.309 Y112.548 E7.66142
G1 X108.003 Y113.167 E7.69341
G1 X126.995 Y113.167 E8.57315
G1 X127.253 Y113.786 E8.60421
G1 X107.744 Y113.786 E9.50789
G1 X107.529 Y114.405 E9.53824
G1 X127.469 Y114.405 E10.46189
G1 X127.639 Y115.024 E10.49162
G1 X107.359 Y115.024 E11.43102
G1 X107.226 Y115.643 E11.46035
G1 X127.77 Y115.643 E12.41198
G1 X127.862 Y116.262 E12.44097
G1 X107.134 Y116.262 E13.40112
G1 X107.079 Y116.881 E13.42991
G1 X127.917 Y116.881 E14.39515
G1 X127.938 Y117.5 E14.42384
G1 X107.058 Y117.5 E15.39103
G1 X107.079 Y118.119 E15.41972
G1 X127.918 Y118.119 E16.38501
G1 X127.863 Y118.738 E16.4138
G1 X107.134 Y118.738 E17.374
G1 X107.226 Y119.357 E17.40299
G1 X127.77 Y119.357 E18.35462
G1 X127.638 Y119.976 E18.38394
G1 X107.358 Y119.976 E19.32334
G1 X107.528 Y120.595 E19.35307
G1 X127.468 Y120.595 E20.27672
G1 X127.252 Y121.214 E20.30709
G1 X107.744 Y121.214 E21.21073
G1 X108.002 Y121.833 E21.24179
G1 X126.993 Y121.833 E22.12148
G1 X126.688 Y122.452 E22.15344
G1 X108.309 Y122.452 E23.00478
G1 X108.67 Y123.071 E23.03797
G1 X126.326 Y123.071 E23.85582
G1 X125.902 Y123.69 E23.89057
G1 X109.094 Y123.69 E24.66914
G1 X109.587 Y124.309 E24.7058
G1 X125.409 Y124.309 E25.4387
G1 X124.833 Y124.928 E25.47787
G1 X110.164 Y124.928 E26.15736
G1 X110.849 Y125.547 E26.20013
G1 X124.148 Y125.547 E26.81616
G3 X123.316 Y126.166 I-6.268 J-7.556 E26.86422
G1 X111.681 Y126.166 E27.40317
G2 X112.727 Y126.785 I5.460 J-8.033 E27.45950
G1 X122.271 Y126.785 E27.90159
G3 X120.798 Y127.404 I-4.790 J-9.336 E27.97565
G1 X113.476 Y127.404 E28.31482
; stop printing object Ergonomic lockable bit screw driver (for small hands).stl id:0 copy 0
EXCLUDE_OBJECT_END NAME=Ergonomic_lockable_bit_screw_driver_for_small_hands_stl_id_0_copy_0
;LAYER_CHANGE
;Z:0.65
;HEIGHT:0.45
;BEFORE_LAYER_CHANGE
;0.65
M117 Layer 2/472 : PLA - KLIPPER

G1 Z.65 F7800
SET_PRINT_STATS_INFO CURRENT_LAYER=2
;AFTER_LAYER_CHANGE
;0.65
M104 S205 ; set temperature
; printing object Ergonomic lockable bit screw driver (for small hands).stl id:0 copy 0
EXCLUDE_OBJECT_START NAME=Ergonomic_lockable_bit_screw_driver_for_small_hands_stl_id_0_copy_0
G1 E26.81482 F3000
G92 E0
G1 X121.949 Y124.413 F7800
G1 E1.5 F3000
;TYPE:Support material interface
;WIDTH:0.4
G1 F3600
G1 X123.673 Y122.684 E1.63861
G2 X124.664 Y121.193 I-6.109 J-5.135 E1.74042
G1 X121.191 Y124.666 E2.01924
G3 X120.289 Y125.063 I-3.646 J-7.061 E2.07521
G1 X125.061 Y120.291 E2.45832
G1 X125.294 Y119.553 E2.50225
G1 X119.552 Y125.295 E2.96323
G1 X118.904 Y125.439 E3.00091
G1 X125.437 Y118.906 E3.52539
G1 X125.518 Y118.319 E3.55903
G1 X118.319 Y125.518 E4.13698
G1 X117.775 Y125.557 E4.16794
G1 X125.553 Y117.779 E4.79237
G1 X125.555 Y117.272 E4.82115
G1 X117.269 Y125.558 E5.48637
G1 X116.791 Y125.531 E5.51355
G1 X125.529 Y116.793 E6.21506
G1 X125.476 Y116.341 E6.24089
G1 X116.34 Y125.477 E6.97435
G1 X115.911 Y125.402 E6.99907
G1 X125.402 Y115.911 E7.76103
G1 X125.308 Y115.499 E7.78502
G1 X115.499 Y125.308 E8.57251
G1 X115.104 Y125.198 E8.59579
G1 X125.196 Y115.106 E9.406
G1 X125.069 Y114.729 E9.42858
G1 X114.727 Y125.07 E10.25882
G1 X114.365 Y124.927 E10.28092
G1 X124.925 Y114.367 E11.1287
G1 X124.768 Y114.019 E11.15037
G1 X114.017 Y124.77 E12.01348
G1 X113.682 Y124.6 E12.03481
G1 X124.599 Y113.683 E12.91125
G1 X124.416 Y113.361 E12.93228
G1 X113.36 Y124.417 E13.81988
G1 X113.05 Y124.222 E13.84067
M73 P2 R73
G1 X124.221 Y113.052 E14.73746
G1 X124.013 Y112.755 E14.75804
G1 X112.752 Y124.016 E15.6621
G1 X112.465 Y123.798 E15.68256
G1 X123.794 Y112.468 E16.59212
G1 X123.565 Y112.193 E16.61244
G1 X112.19 Y123.567 E17.52561
G1 X111.927 Y123.325 E17.5459
G1 X123.323 Y111.929 E18.4608
G2 X123.071 Y111.677 I-2.770 J2.518 E18.48104
G1 X111.675 Y123.073 E19.39594
G1 X111.433 Y122.809 E19.41627
G1 X122.808 Y111.434 E20.32948
G1 X122.533 Y111.204 E20.34983
G1 X111.204 Y122.534 E21.25939
G1 X110.985 Y122.248 E21.27984
G1 X122.247 Y110.986 E22.18398
G1 X121.948 Y110.779 E22.20462
G1 X110.777 Y121.95 E23.10145
G1 X110.582 Y121.641 E23.12219
G1 X121.638 Y110.584 E24.00983
G1 X121.316 Y110.401 E24.03086
G1 X110.399 Y121.319 E24.90734
G1 X110.229 Y120.983 E24.92872
G1 X120.982 Y110.231 E25.79195
G1 X120.634 Y110.074 E25.81362
G1 X110.072 Y120.636 E26.66156
G1 X109.929 Y120.274 E26.68366
G1 X120.272 Y109.931 E27.51402
G1 X119.895 Y109.803 E27.53662
G1 X109.801 Y119.897 E28.34699
G1 X109.689 Y119.503 E28.37024
G1 X119.5 Y109.693 E29.15785
G1 X119.089 Y109.599 E29.18178
G1 X109.595 Y119.092 E29.94394
G1 X109.521 Y118.662 E29.96871
G1 X118.659 Y109.524 E30.70233
G1 X118.208 Y109.469 E30.72812
G1 X109.468 Y118.21 E31.42983
G1 X109.441 Y117.731 E31.45707
G1 X117.731 Y109.442 E32.12257
G1 X117.225 Y109.443 E32.15129
G1 X109.443 Y117.225 E32.77605
G1 X109.478 Y116.685 E32.80677
G1 X116.681 Y109.482 E33.38504
G1 X116.097 Y109.561 E33.41849
G1 X109.559 Y116.099 E33.94337
G1 X109.702 Y115.451 E33.98104
G1 X115.449 Y109.703 E34.44246
G1 X114.713 Y109.935 E34.48627
G1 X109.933 Y114.714 E34.86998
G3 X110.329 Y113.814 I7.188 J2.626 E34.92582
G1 X113.813 Y110.329 E35.20556
G2 X112.316 Y111.324 I3.755 J7.272 E35.30779
G1 X110.578 Y113.06 E35.44724
; stop printing object Ergonomic lockable bit screw driver (for small hands).stl id:0 copy 0
EXCLUDE_OBJECT_END NAME=Ergonomic_lockable_bit_screw_driver_for_small_hands_stl_id_0_copy_0
M106 S255
;LAYER_CHANGE
;Z:1.09
;HEIGHT:0.44
;BEFORE_LAYER_CHANGE
;1.09
M117 Layer 3/472 : PLA - KLIPPER

G1 Z1.09 F7800
SET_PRINT_STATS_INFO CURRENT_LAYER=3
;AFTER_LAYER_CHANGE
;1.09
; printing object Ergonomic lockable bit screw driver (for small hands).stl id:0 copy 0
EXCLUDE_OBJECT_START NAME=Ergonomic_lockable_bit_screw_driver_for_small_hands_stl_id_0_copy_0
G1 E33.94724 F3000
G92 E0
G1 X117.506 Y121.71 F7800
G1 E1.5 F3000
;TYPE:Perimeter
;WIDTH:0.6
;HEIGHT:0.2
G1 F1800
G3 X118.237 Y121.644 I-0.012 J-4.210 E2.69048
G1 X117.596 Y121.707 E2.72032
G1 E1.67032 F3000
;WIPE_START
G1 F6240
G3 X116.618 Y121.611 I-0.177 J-3.231 E1.22032
;WIPE_END
G92 E0
G1 X117.504 Y122.267 F7800
G1 E1.5 F3000
G1 F1800
G3 X117.841 Y122.255 I-0.001 J-4.767 E2.87115
G1 X117.594 Y122.264 E2.8826
G1 E1.8326 F3000
;WIPE_START
G1 F6240
G3 X116.614 Y122.182 I-0.209 J-3.405 E1.38260
;WIPE_END
G92 E0
G1 X117.516 Y122.825 F7800
G1 E1.5 F3000
G1 F1800
G3 X117.887 Y122.811 I-0.015 J-5.325 E3.03182
G1 X117.606 Y122.821 E3.04484
G1 E1.99484 F3000
;WIPE_START
G1 F6240
G3 X116.624 Y122.751 I-0.152 J-4.786 E1.54484
;WIPE_END
G92 E0
G1 X117.537 Y123.381 F7800
G1 E1.5 F3000
G1 F1800
G3 X117.932 Y123.366 I-0.026 J-5.881 E3.19295
G1 X117.627 Y123.378 E3.20709
G1 E2.15709 F3000
;WIPE_START
G1 F6240
G3 X116.645 Y123.315 I-0.187 J-4.775 E1.70709
;WIPE_END
G92 E0
G1 X117.558 Y123.938 F7800
G1 E1.5 F3000
;TYPE:External perimeter
G1 F1800
G3 X118.618 Y123.842 I-0.049 J-6.439 E3.32424
G3 X117.648 Y123.935 I-1.033 J-5.668 E3.36941
G1 X117.255 Y123.42 F7800
G1 E2.31941 F3000
;WIPE_START
G1 F6240
G1 X116.937 Y123.916 E1.99456
G1 X116.665 Y123.88 E1.86941
;WIPE_END
G92 E0
G1 X119.158 Y113.83 F7800
G1 E1.5 F3000
;TYPE:Solid infill
;WIDTH:0.622676
G1 F1800
G1 X120.355 Y115.027 E1.58161
G3 X121.183 Y116.676 I-2.784 J2.430 E1.67147
G1 X118.324 Y113.817 E1.86638
G2 X117.411 Y113.723 I-0.794 J3.234 E1.91073
G1 X121.273 Y117.586 E2.17406
G3 X121.185 Y118.317 I-3.113 J-0.004 E2.20961
G1 X116.685 Y113.817 E2.5164
G2 X116.062 Y114.014 I0.344 J2.171 E2.54798
G1 X120.991 Y118.943 E2.88401
G3 X120.709 Y119.481 I-2.666 J-1.054 E2.91333
G1 X115.514 Y114.286 E3.2675
G1 X115.042 Y114.634 E3.29577
G1 X120.366 Y119.958 E3.65873
G3 X119.955 Y120.367 I-2.224 J-1.824 E3.68671
G1 X114.63 Y115.042 E4.04974
G2 X114.288 Y115.519 I1.914 J1.733 E4.07808
G1 X119.483 Y120.714 E4.43225
G3 X118.934 Y120.986 I-1.421 J-2.179 E4.46183
G1 X114.006 Y116.057 E4.79783
G2 X113.812 Y116.683 I2.934 J1.252 E4.82946
G1 X118.311 Y121.183 E5.13621
G3 X117.586 Y121.278 I-0.673 J-2.319 E5.17153
G1 X113.723 Y117.415 E5.43489
G2 X113.813 Y118.324 I3.420 J0.120 E5.47902
G1 X116.672 Y121.183 E5.67393
G3 X114.958 Y120.290 I0.748 J-3.528 E5.76825
G1 X113.834 Y119.165 E5.84491
; stop printing object Ergonomic lockable bit screw driver (for small hands).stl id:0 copy 0
EXCLUDE_OBJECT_END NAME=Ergonomic_lockable_bit_screw_driver_for_small_hands_stl_id_0_copy_0
;LAYER_CHANGE
;Z:1.29
;HEIGHT:0.2
;BEFORE_LAYER_CHANGE
;1.29
M117 Layer 4/472 : PLA - KLIPPER

G1 Z1.29 F7800
SET_PRINT_STATS_INFO CURRENT_LAYER=4
;AFTER_LAYER_CHANGE
;1.29
; printing object Ergonomic lockable bit screw driver (for small hands).stl id:0 copy 0
EXCLUDE_OBJECT_START NAME=Ergonomic_lockable_bit_screw_driver_for_small_hands_stl_id_0_copy_0
G1 E4.34491 F3000
G92 E0
G1 X117.506 Y121.988 F7800
G1 E1.5 F3000
;TYPE:Perimeter
;WIDTH:0.6
G1 F1800
G3 X117.817 Y121.977 I-0.003 J-4.488 E2.79110
G1 X117.596 Y121.985 E2.80134
G1 E1.75134 F3000
;WIPE_START
G1 F6240
G3 X116.617 Y121.896 I-0.195 J-3.284 E1.30134
;WIPE_END
G92 E0
G1 X117.504 Y122.546 F7800
G1 E1.5 F3000
G1 F1800
G3 X117.862 Y122.532 I-0.018 J-5.046 E2.95112
G1 X117.594 Y122.542 E2.96354
G1 E1.91354 F3000
;WIPE_START
G1 F6240
G3 X116.613 Y122.467 I-0.187 J-4.005 E1.46354
;WIPE_END
G92 E0
G1 X117.525 Y123.103 F7800
G1 E1.5 F3000
G1 F1800
G3 X117.907 Y123.088 I-0.029 J-5.603 E3.11230
G1 X117.615 Y123.099 E3.12584
G1 E2.07584 F3000
;WIPE_START
G1 F6240
G3 X116.633 Y123.033 I-0.166 J-4.870 E1.62584
;WIPE_END
G92 E0
G1 X117.546 Y123.659 F7800
G1 E1.5 F3000
G1 F1800
G3 X112.408 Y120.970 I-0.051 J-6.155 E1.77960
M73 P2 R72
G3 X117.636 Y123.656 I5.088 J-3.472 E3.28814
G1 E2.23814 F3000
;WIPE_START
G1 F6240
G3 X116.654 Y123.597 I-0.201 J-4.854 E1.78814
;WIPE_END
G92 E0
G1 X117.567 Y124.216 F7800
G1 E1.5 F3000
;TYPE:External perimeter
G1 F1800
G3 X118.666 Y124.116 I-0.057 J-6.718 E3.40344
G3 X117.657 Y124.213 I-1.061 J-5.737 E3.45044
G1 X117.264 Y123.698 F7800
G1 E2.40044 F3000
;WIPE_START
G1 F6240
G1 X116.913 Y124.193 E2.06051
G1 X116.674 Y124.161 E1.95044
;WIPE_END
G92 E0
G1 X115.223 Y113.912 F7800
G1 E1.5 F3000
;TYPE:Solid infill
;WIDTH:0.55292
G1 F1800
G2 X114.043 Y115.063 I5.406 J6.723 E1.56998
G1 E.51998 F3000
;WIPE_START
G1 F6240
G3 X114.727 Y114.355 I3.929 J3.111 E0.06998
;WIPE_END
G92 E0
G1 X113.587 Y116.306 F7800
G1 E1.5 F3000
G1 F1800
G3 X113.603 Y116.245 I-0.046 J-0.045 E1.51357
;WIDTH:0.599999
G1 X113.786 Y115.867 E1.53302
G1 X115.851 Y113.802 E1.66829
G1 X116.288 Y113.601 E1.69057
;WIDTH:0.55292
G3 X116.304 Y113.539 I-0.045 J-0.045 E1.70411
;WIDTH:0.599999
G1 X116.958 Y113.483 E1.73451
G1 X113.481 Y116.96 E1.96228
G1 X113.452 Y117.778 E2.00019
G1 X117.776 Y113.453 E2.28348
G1 X118.455 Y113.562 E2.31533
G1 X113.56 Y118.457 E2.63599
G1 X113.751 Y119.054 E2.66502
G1 X119.052 Y113.753 E3.01228
G1 X119.575 Y114.018 E3.03944
G1 X114.017 Y119.576 E3.40353
G1 X114.339 Y120.041 E3.42973
G1 X120.041 Y114.34 E3.80323
G1 X120.449 Y114.719 E3.82902
G1 X114.72 Y120.449 E4.20435
G1 X115.152 Y120.804 E4.23025
G1 X120.804 Y115.152 E4.6005
G1 X121.101 Y115.643 E4.62708
G1 X115.638 Y121.106 E4.98495
G1 X116.197 Y121.335 E5.01293
G1 X121.337 Y116.195 E5.34964
G1 X121.493 Y116.826 E5.37975
G1 X116.819 Y121.5 E5.68594
G1 X117.55 Y121.557 E5.7199
G1 X121.553 Y117.554 E5.98213
G1 X121.435 Y118.461 E6.0245
G1 X118.465 Y121.43 E6.21903
G1 E5.16903 F3000
;WIPE_START
G1 F6240
G1 X119.162 Y120.733 E4.71903
;WIPE_END
G92 E0
G1 X120.715 Y119.968 F7800
G1 E1.5 F3000
G1 F1800
