; generated by PrusaSlicer 2.6.0+win64 on 2023-07-04 at 22:26:40 UTC
; Postprocessed by [ArcWelder](https://github.com/FormerLurker/ArcWelderLib)
; Copyright(C) 2021 - Brad Hochgesang
; Version: 1.2.0, Branch: HEAD, BuildDate: 2021-11-21T20:25:43Z
; resolution=0.05mm
; path_tolerance=5.0%
; max_radius=9999.00mm
; default_xyz_precision=3
; default_e_precision=5
; extrusion_rate_variance_percent=5.0%








; 

; external perimeters extrusion width = 0.60mm
; perimeters extrusion width = 0.60mm
; infill extrusion width = 0.60mm
; solid infill extrusion width = 0.60mm
; top infill extrusion width = 0.40mm
; support material extrusion width = 0.40mm
; first layer extrusion width = 0.60mm

M73 P0 R75


; Pre-Processed for Cancel-Object support by preprocess_cancellation v0.2.0
; 1 known objects
EXCLUDE_OBJECT_DEFINE NAME=Ergonomic_lockable_bit_screw_driver_for_small_hands_stl_id_0_copy_0 CENTER=117.564,118.324 POLYGON=[[105.924,104.335],[105.924,127.404],[127.998,127.404],[127.998,104.335]]
;TYPE:Custom
G90 ; use absolute coordinates
M83 ; extruder relative mode
M104 S205 ; set temporary nozzle temp to prevent oozing during homing
M140 S65 ; set final bed temp
G4 S30 ; allow partial nozzle warmup
G28 ; home all axis
BED_MESH_CALIBRATE
G1 Z50 F240
G1 X2.0 Y10 F3000
M104 S210 ; set final nozzle temp
M190 S65 ; wait for bed temp to stabilize
M109 S210 ; wait for nozzle temp to stabilize
G1 Z0.28 F240
G92 E0
G1 X2.0 Y140 E10 F1500 ; prime the nozzle
G1 X2.3 Y140 F5000
G92 E0
G1 X2.3 Y10 E10 F1200 ; prime the nozzle
G21 ; set units to millimeters
G90 ; use absolute coordinates
M82 ; use absolute distances for extrusion
G92 E0
; Filament gcode
M107
;LAYER_CHANGE
;Z:0.2
;HEIGHT:0.2
;BEFORE_LAYER_CHANGE
;0.2
M117 Layer 1/472 : PLA - KLIPPER

G1 Z.2 F7800
SET_PRINT_STATS_INFO CURRENT_LAYER=1
;AFTER_LAYER_CHANGE
;0.2
G1 E-1.5 F3000
G92 E0
G1 X104.906 Y104.478 F7800
G1 E1.5 F3000
;TYPE:Skirt/Brim
;WIDTH:0.6
G1 F1200
G3 X109.071 Y101.465 I12.613 J13.051 E1.73883
G1 X110.821 Y100.661 E1.82804
G1 X112.652 Y100.046 E1.91751
G3 X117.656 Y99.387 I4.842 J17.436 E2.15198
G1 X119.701 Y99.52 E2.24691
G3 X127.463 Y102.373 I-2.208 J17.991 E2.63325
G1 X129.071 Y103.564 E2.72594
G3 X131.475 Y105.977 I-11.612 J13.972 E2.88389
G1 X132.707 Y107.66 E2.9805
G3 X135.230 Y121.203 I-15.210 J9.840 E3.63484
G1 X134.735 Y123.071 E3.72435
G3 X130.290 Y130.325 I-17.226 J-5.566 E4.12201
G1 X128.87 Y131.6 E4.21041
G3 X122.780 Y134.827 I-11.376 J-14.109 E4.53149
G1 X120.799 Y135.311 E4.62595
G3 X117.425 Y135.614 I-3.306 J-17.873 E4.78304
G1 X115.296 Y135.48 E4.88185
G3 X103.521 Y129.023 I2.215 J-18.004 E5.51886
G1 X102.29 Y127.341 E5.61541
G3 X99.767 Y113.796 I15.212 J-9.841 E6.26986
G1 X100.262 Y111.929 E6.35933
G3 X104.845 Y104.543 I17.162 J5.534 E6.76581
G1 E5.71581 F3000
;WIPE_START
G1 F6240
G1 X105.583 Y103.89 E5.26581
;WIPE_END
G92 E0
G1 X105.25 Y104.924 F7800
G1 E1.5 F3000
G1 F1200
G3 X111.030 Y101.178 I12.226 J12.533 E1.82103
G3 X114.306 Y100.235 I6.486 J16.371 E1.97913
G3 X117.650 Y99.944 I3.182 J17.212 E2.13479
G1 X119.64 Y100.074 E2.22717
G3 X127.150 Y102.834 I-2.143 J17.429 E2.60095
G1 X128.718 Y103.996 E2.69135
M73 P1 R75
G3 X131.041 Y106.326 I-11.243 J13.532 E2.84392
G1 X132.242 Y107.967 E2.93812
G3 X134.699 Y121.020 I-14.738 J9.532 E3.56883
G1 X134.207 Y122.893 E3.65853
G3 X122.624 Y134.292 I-16.712 J-5.397 E4.44084
G1 X120.69 Y134.765 E4.53307
G3 X107.858 Y132.174 I-3.186 J-17.292 E5.15422
G1 X106.279 Y131.005 E5.24522
G3 X103.956 Y128.674 I11.190 J-13.474 E5.39782
G1 X102.755 Y127.034 E5.49198
G3 X100.297 Y113.980 I14.748 J-9.535 E6.12273
G1 X100.79 Y112.107 E6.21245
G3 X105.188 Y104.990 I16.590 J5.334 E6.60365
; printing object Ergonomic lockable bit screw driver (for small hands).stl id:0 copy 0
EXCLUDE_OBJECT_START NAME=Ergonomic_lockable_bit_screw_driver_for_small_hands_stl_id_0_copy_0
G1 E5.55365 F3000
;WIPE_START
G1 F6240
G1 X105.924 Y104.335 E5.10365
;WIPE_END
G92 E0
G1 X117.578 Y106.5 F7800
G1 E1.5 F3000
;TYPE:Support material
G1 F1200
G3 X116.649 Y106.532 I-0.086 J11.000 E4.65806
G1 X117.494 Y106.499 E4.69723
G1 E3.64723 F3000
;WIPE_START
G1 F6240
G2 X116.510 Y106.546 I-0.109 J8.033 E3.19723
;WIPE_END
G92 E0
G1 X121.677 Y107.596 F7800
G1 E1.5 F3000
G1 F1200
G1 X114.015 Y107.596 E1.85491
G2 X112.599 Y108.215 I3.385 J9.672 E1.92655
G1 X122.399 Y108.215 E2.3805
G3 X123.422 Y108.834 I-4.535 J8.650 E2.43591
G1 X111.573 Y108.834 E2.98477
G2 X110.754 Y109.453 I5.534 J8.174 E3.03234
G1 X124.242 Y109.453 E3.65712
G1 X124.919 Y110.072 E3.69961
G1 X110.08 Y110.072 E4.38697
G1 X109.507 Y110.691 E4.42604
M73 P1 R74
G1 X125.489 Y110.691 E5.16635
G1 X125.976 Y111.31 E5.20283
G1 X109.02 Y111.31 E5.98825
G1 X108.599 Y111.929 E6.02293
G1 X126.397 Y111.929 E6.84736
G1 X126.756 Y112.548 E6.88051
G1 X108.241 Y112.548 E7.73815
G1 X107.937 Y113.167 E7.77009
G1 X127.06 Y113.167 E8.65589
G1 X127.317 Y113.786 E8.68694
G1 X107.68 Y113.786 E9.59655
G1 X107.466 Y114.405 E9.62689
G1 X127.531 Y114.405 E10.55633
G1 X127.7 Y115.024 E10.58605
G1 X107.297 Y115.024 E11.53114
G1 X107.165 Y115.643 E11.56046
G1 X127.832 Y115.643 E12.51778
G1 X127.923 Y116.262 E12.54676
G1 X107.073 Y116.262 E13.51256
G1 X107.018 Y116.881 E13.54135
G1 X127.977 Y116.881 E14.5122
G1 X127.998 Y117.5 E14.54089
G1 X106.998 Y117.5 E15.51364
G1 X107.019 Y118.119 E15.54233
G1 X127.978 Y118.119 E16.51318
G1 X127.923 Y118.738 E16.54197
G1 X107.074 Y118.738 E17.50772
G1 X107.165 Y119.357 E17.5367
G1 X127.831 Y119.357 E18.49398
G1 X127.699 Y119.976 E18.5233
G1 X107.296 Y119.976 E19.46839
G1 X107.465 Y120.595 E19.49811
G1 X127.53 Y120.595 E20.42755
G1 X127.317 Y121.214 E20.45787
G1 X107.679 Y121.214 E21.36753
G1 X107.936 Y121.833 E21.39858
G1 X127.059 Y121.833 E22.28438
G1 X126.756 Y122.452 E22.3163
G1 X108.241 Y122.452 E23.17394
G1 X108.599 Y123.071 E23.20706
G1 X126.397 Y123.071 E24.03149
G1 X125.976 Y123.69 E24.06617
G1 X109.02 Y123.69 E24.85159
G1 X109.507 Y124.309 E24.88807
G1 X125.489 Y124.309 E25.62838
G1 X124.916 Y124.928 E25.66745
G1 X110.077 Y124.928 E26.35481
G1 X110.754 Y125.547 E26.3973
G1 X124.242 Y125.547 E27.02208
G3 X123.423 Y126.166 I-6.353 J-7.555 E27.06965
G1 X111.575 Y126.166 E27.61847
G2 X112.598 Y126.785 I5.407 J-7.781 E27.67388
G1 X122.397 Y126.785 E28.12778
G3 X120.982 Y127.404 I-4.823 J-9.097 E28.19937
G1 X113.319 Y127.404 E28.55433
; stop printing object Ergonomic lockable bit screw driver (for small hands).stl id:0 copy 0
EXCLUDE_OBJECT_END NAME=Ergonomic_lockable_bit_screw_driver_for_small_hands_stl_id_0_copy_0
;LAYER_CHANGE
;Z:0.65
;HEIGHT:0.45
;BEFORE_LAYER_CHANGE
;0.65
M117 Layer 2/472 : PLA - KLIPPER

G1 Z.65 F7800
SET_PRINT_STATS_INFO CURRENT_LAYER=2
;AFTER_LAYER_CHANGE
;0.65
M104 S205 ; set temperature
; printing object Ergonomic lockable bit screw driver (for small hands).stl id:0 copy 0
EXCLUDE_OBJECT_START NAME=Ergonomic_lockable_bit_screw_driver_for_small_hands_stl_id_0_copy_0
G1 E27.05433 F3000
G92 E0
G1 X121.765 Y124.597 F7800
G1 E1.5 F3000
;TYPE:Support material interface
;WIDTH:0.4
G1 F3600
G1 X124.008 Y122.354 E1.68007
G2 X124.798 Y121.059 I-6.252 J-4.702 E1.76628
G1 X121.06 Y124.797 E2.06637
G3 X120.190 Y125.162 I-3.306 J-6.660 E2.11995
G1 X125.159 Y120.193 E2.51887
G1 X125.375 Y119.472 E2.5616
G1 X119.47 Y125.377 E3.03567
G1 X118.832 Y125.51 E3.07267
G1 X125.509 Y118.833 E3.60871
G1 X125.584 Y118.253 E3.64191
G1 X118.252 Y125.585 E4.23054
G1 X117.713 Y125.619 E4.2612
G1 X125.615 Y117.717 E4.89559
G1 X125.614 Y117.213 E4.9242
G1 X117.211 Y125.616 E5.59881
G1 X116.737 Y125.585 E5.62578
G1 X125.584 Y116.739 E6.336
G1 X125.529 Y116.288 E6.36179
G1 X116.288 Y125.529 E7.10368
G1 X115.86 Y125.453 E7.12836
G1 X125.452 Y115.86 E7.89847
G1 X125.357 Y115.451 E7.92231
G1 X115.45 Y125.357 E8.71762
G1 X115.056 Y125.246 E8.74086
G1 X125.244 Y115.059 E9.55873
G1 X125.115 Y114.682 E9.58135
G1 X114.68 Y125.117 E10.41909
G1 X114.319 Y124.973 E10.44115
G1 X124.971 Y114.321 E11.29632
G1 X124.813 Y113.974 E11.31796
G1 X113.972 Y124.815 E12.1883
G1 X113.638 Y124.644 E12.2096
G1 X124.643 Y113.639 E13.0931
G1 X124.46 Y113.318 E13.11408
G1 X113.317 Y124.461 E14.00866
G1 X113.007 Y124.265 E14.02948
G1 X124.264 Y113.008 E14.93322
G1 X124.056 Y112.712 E14.95376
G1 X112.709 Y124.059 E15.86472
G1 X112.422 Y123.84 E15.88521
G1 X123.837 Y112.426 E16.80159
G1 X123.607 Y112.15 E16.82199
M73 P2 R74
G1 X112.148 Y123.61 E17.74198
G1 X111.885 Y123.368 E17.76227
G1 X123.366 Y111.887 E18.68399
G2 X123.113 Y111.634 I-3.326 J3.072 E18.70431
G1 X111.632 Y123.115 E19.62603
G1 X111.391 Y122.852 E19.64628
G1 X122.851 Y111.392 E20.56631
G1 X122.576 Y111.161 E20.5867
G1 X111.161 Y122.576 E21.50312
G1 X110.942 Y122.291 E21.52352
G1 X122.29 Y110.943 E22.43456
G1 X121.991 Y110.736 E22.4552
G1 X110.734 Y121.994 E23.35898
G1 X110.538 Y121.685 E23.37975
G1 X121.682 Y110.541 E24.27441
G1 X121.361 Y110.357 E24.29541
G1 X110.354 Y121.363 E25.17904
G1 X110.184 Y121.028 E25.20037
G1 X121.026 Y110.186 E26.07079
G1 X120.679 Y110.028 E26.09243
G1 X110.026 Y120.681 E26.94768
G1 X109.882 Y120.32 E26.96974
G1 X120.319 Y109.884 E27.8076
G1 X119.943 Y109.755 E27.83017
G1 X109.754 Y119.944 E28.64816
G1 X109.641 Y119.552 E28.67132
G1 X119.549 Y109.643 E29.4668
G1 X119.14 Y109.548 E29.49064
G1 X109.545 Y119.143 E30.26095
G1 X109.468 Y118.715 E30.28564
G1 X118.712 Y109.471 E31.02777
G1 X118.263 Y109.415 E31.05346
G1 X109.413 Y118.264 E31.76392
G1 X109.382 Y117.79 E31.79089
G1 X117.789 Y109.384 E32.46578
G1 X117.287 Y109.381 E32.49428
G1 X109.381 Y117.286 E33.12895
G1 X109.412 Y116.751 E33.15937
G1 X116.748 Y109.415 E33.74832
G1 X116.169 Y109.489 E33.78146
G1 X109.486 Y116.171 E34.31795
G1 X109.62 Y115.533 E34.35496
G1 X115.531 Y109.622 E34.82951
G1 X114.812 Y109.836 E34.8721
G1 X109.835 Y114.812 E35.27162
G3 X110.194 Y113.948 I7.413 J2.574 E35.32476
G1 X113.943 Y110.2 E35.6257
G2 X112.658 Y110.980 I3.301 J6.887 E35.71115
G1 X110.393 Y113.245 E35.89299
; stop printing object Ergonomic lockable bit screw driver (for small hands).stl id:0 copy 0
EXCLUDE_OBJECT_END NAME=Ergonomic_lockable_bit_screw_driver_for_small_hands_stl_id_0_copy_0
M106 S255
;LAYER_CHANGE
;Z:1.09
;HEIGHT:0.44
;BEFORE_LAYER_CHANGE
;1.09
M117 Layer 3/472 : PLA - KLIPPER

G1 Z1.09 F7800
SET_PRINT_STATS_INFO CURRENT_LAYER=3
;AFTER_LAYER_CHANGE
;1.09
; printing object Ergonomic lockable bit screw driver (for small hands).stl id:0 copy 0
EXCLUDE_OBJECT_START NAME=Ergonomic_lockable_bit_screw_driver_for_small_hands_stl_id_0_copy_0
G1 E34.39299 F3000
G92 E0
G1 X117.506 Y121.77 F7800
G1 E1.5 F3000
;TYPE:Perimeter
;WIDTH:0.6
;HEIGHT:0.2
G1 F1800
G3 X118.247 Y121.703 I-0.013 J-4.270 E2.70748
G1 X117.596 Y121.767 E2.73778
G1 E1.68778 F3000
;WIPE_START
G1 F6240
G3 X116.618 Y121.672 I-0.183 J-3.197 E1.23778
;WIPE_END
G92 E0
G1 X117.504 Y122.327 F7800
G1 E1.5 F3000
G1 F1800
G3 X117.846 Y122.315 I0.002 J-4.827 E2.88840
G1 X117.594 Y122.324 E2.90008
G1 E1.85008 F3000
;WIPE_START
G1 F6240
G3 X116.614 Y122.243 I-0.227 J-3.227 E1.40008
;WIPE_END
G92 E0
G1 X117.503 Y122.885 F7800
G1 E1.5 F3000
G1 F1800
G3 X117.891 Y122.870 I-0.014 J-5.385 E3.04846
G1 X117.593 Y122.882 E3.06227
G1 E2.01227 F3000
;WIPE_START
G1 F6240
G3 X116.612 Y122.810 I-0.120 J-5.083 E1.56227
;WIPE_END
G92 E0
G1 X117.501 Y123.443 F7800
G1 E1.5 F3000
G1 F1800
G3 X117.936 Y123.426 I-0.014 J-5.943 E3.20865
G1 X117.591 Y123.439 E3.22464
G1 E2.17464 F3000
;WIPE_START
G1 F6240
G3 X116.609 Y123.371 I-0.153 J-4.916 E1.72464
;WIPE_END
G92 E0
G1 X117.514 Y124 F7800
G1 E1.5 F3000
;TYPE:External perimeter
G1 F1800
G3 X117.982 Y123.982 I-0.016 J-6.500 E3.36937
G1 X117.603 Y123.996 E3.38694
G1 X117.222 Y123.496 F7800
G1 E2.33694 F3000
;WIPE_START
G1 F6240
G1 X116.932 Y123.975 E2.03032
G1 X116.621 Y123.934 E1.88694
;WIPE_END
G92 E0
G1 X119.181 Y113.775 F7800
G1 E1.5 F3000
;TYPE:Solid infill
;WIDTH:0.631249
G1 F1800
G1 X120.442 Y115.036 E1.58724
G3 X121.244 Y116.669 I-2.878 J2.427 E1.67710
G1 X118.331 Y113.757 E1.8786
G2 X117.406 Y113.663 I-0.799 J3.268 E1.92419
G1 X121.333 Y117.591 E2.19591
G3 X121.243 Y118.332 I-3.276 J-0.022 E2.23248
G1 X116.67 Y113.759 E2.54885
G2 X116.038 Y113.960 I0.338 J2.158 E2.58138
G1 X121.045 Y118.967 E2.92778
G3 X120.759 Y119.513 I-2.532 J-0.978 E2.95798
G1 X115.481 Y114.235 E3.32313
G1 X115.002 Y114.588 E3.35224
G1 X120.412 Y119.998 E3.72652
G3 X119.994 Y120.412 I-2.266 J-1.870 E3.75533
G1 X114.585 Y115.002 E4.12958
G2 X114.237 Y115.487 I2.030 J1.824 E4.15883
G1 X119.515 Y120.765 E4.52398
G3 X118.958 Y121.040 I-1.399 J-2.131 E4.55442
G1 X113.951 Y116.033 E4.90082
G2 X113.754 Y116.668 I3.015 J1.283 E4.93339
G1 X118.327 Y121.241 E5.24976
G3 X117.592 Y121.338 I-0.693 J-2.419 E5.28610
G1 X113.663 Y117.409 E5.55792
G2 X113.753 Y118.331 I3.467 J0.127 E5.60334
G1 X116.665 Y121.243 E5.8048
G3 X114.973 Y120.383 I0.749 J-3.569 E5.89872
G1 X113.779 Y119.189 E5.98132
; stop printing object Ergonomic lockable bit screw driver (for small hands).stl id:0 copy 0
EXCLUDE_OBJECT_END NAME=Ergonomic_lockable_bit_screw_driver_for_small_hands_stl_id_0_copy_0
;LAYER_CHANGE
;Z:1.29
;HEIGHT:0.2
;BEFORE_LAYER_CHANGE
;1.29
M117 Layer 4/472 : PLA - KLIPPER

G1 Z1.29 F7800
SET_PRINT_STATS_INFO CURRENT_LAYER=4
;AFTER_LAYER_CHANGE
;1.29
; printing object Ergonomic lockable bit screw driver (for small hands).stl id:0 copy 0
EXCLUDE_OBJECT_START NAME=Ergonomic_lockable_bit_screw_driver_for_small_hands_stl_id_0_copy_0
G1 E4.48132 F3000
G92 E0
G1 X117.506 Y122.048 F7800
G1 E1.5 F3000
;TYPE:Perimeter
;WIDTH:0.6
G1 F1800
G3 X117.822 Y122.036 I-0.014 J-4.548 E2.80828
G1 X117.596 Y122.045 E2.81876
G1 E1.76876 F3000
;WIPE_START
G1 F6240
G3 X116.617 Y121.957 I-0.207 J-3.186 E1.31876
;WIPE_END
G92 E0
G1 X117.504 Y122.606 F7800
G1 E1.5 F3000
G1 F1800
G3 X117.867 Y122.592 I-0.015 J-5.106 E2.96833
G1 X117.594 Y122.602 E2.98098
G1 E1.93098 F3000
;WIPE_START
G1 F6240
G3 X116.613 Y122.528 I-0.191 J-4.013 E1.48098
;WIPE_END
G92 E0
G1 X117.503 Y123.163 F7800
G1 E1.5 F3000
G1 F1800
G3 X117.912 Y123.148 I-0.003 J-5.663 E3.12850
G1 X117.593 Y123.16 E3.14329
G1 E2.09329 F3000
;WIPE_START
G1 F6240
G3 X116.611 Y123.090 I-0.144 J-4.898 E1.64329
;WIPE_END
G92 E0
G1 X117.503 Y123.721 F7800
G1 E1.5 F3000
G1 F1800
G3 X122.265 Y121.496 I-0.006 J-6.221 E3.05845
M73 P2 R73
G3 X117.593 Y123.717 I-4.752 J-3.972 E3.30558
G1 E2.25558 F3000
;WIPE_START
G1 F6240
G3 X116.611 Y123.652 I-0.161 J-5.011 E1.80558
;WIPE_END
G92 E0
G1 X117.524 Y124.278 F7800
G1 E1.5 F3000
;TYPE:External perimeter
G1 F1800
G3 X118.002 Y124.260 I-0.016 J-6.778 E3.44985
G1 X117.614 Y124.274 E3.46783
G1 X117.223 Y123.759 F7800
G1 E2.41783 F3000
;WIPE_START
G1 F6240
G1 X116.907 Y124.253 E2.09478
G1 X116.631 Y124.217 E1.96783
;WIPE_END
G92 E0
G1 X115.191 Y113.86 F7800
G1 E1.5 F3000
;TYPE:Solid infill
;WIDTH:0.55292
G1 F1800
G2 X113.994 Y115.028 I5.361 J6.692 E1.57101
G1 E.52101 F3000
;WIPE_START
G1 F6240
G3 X114.676 Y114.318 I4.041 J3.199 E0.07101
;WIPE_END
G92 E0
G1 X113.536 Y116.271 F7800
G1 E1.5 F3000
G1 F1800
G3 X113.429 Y116.242 I-0.045 J-0.047 E1.50540
G3 X113.553 Y116.209 I0.062 J-0.016 E1.51352
;WIDTH:0.599999
G1 X113.737 Y115.832 E1.53295
G1 X115.833 Y113.736 E1.67026
G1 X116.27 Y113.536 E1.69252
;WIDTH:0.55292
G3 X116.286 Y113.475 I-0.046 J-0.045 E1.70613
;WIDTH:0.599999
G1 X116.93 Y113.426 E1.73605
G1 X113.425 Y116.932 E1.96569
G1 X113.391 Y117.754 E2.0038
G1 X117.752 Y113.392 E2.28951
G1 X118.436 Y113.496 E2.32156
G1 X113.493 Y118.439 E2.64537
G1 X113.68 Y119.04 E2.67453
G1 X119.036 Y113.684 E3.02539
G1 X119.565 Y113.943 E3.05267
G1 X113.941 Y119.567 E3.42109
G1 X114.26 Y120.036 E3.44736
G1 X120.036 Y114.26 E3.82574
G1 X120.451 Y114.632 E3.85156
G1 X114.632 Y120.451 E4.23275
G1 X115.06 Y120.812 E4.25869
G1 X120.81 Y115.061 E4.6354
G1 X121.119 Y115.541 E4.66184
G1 X115.54 Y121.12 E5.02731
G1 X116.087 Y121.36 E5.05498
G1 X121.361 Y116.086 E5.40047
G1 X121.535 Y116.699 E5.42999
G1 X116.699 Y121.536 E5.74682
G1 X117.408 Y121.615 E5.77987
G1 X121.613 Y117.41 E6.05533
G1 X121.541 Y118.269 E6.09526
G1 X118.269 Y121.541 E6.3096
G1 E5.2596 F3000
;WIPE_START
G1 F6240
G1 X118.966 Y120.844 E4.8096
;WIPE_END
G92 E0
G1 X121.088 Y119.511 F7800
G1 E1.5 F3000
G1 F1800
