; generated by PrusaSlicer 2.6.0+win64 on 2023-07-05 at 00:38:21 UTC
; Postprocessed by [ArcWelder](https://github.com/FormerLurker/ArcWelderLib)
; Copyright(C) 2021 - Brad Hochgesang
; Version: 1.2.0, Branch: HEAD, BuildDate: 2021-11-21T20:25:43Z
; resolution=0.05mm
; path_tolerance=5.0%
; max_radius=9999.00mm
; default_xyz_precision=3
; default_e_precision=5
; extrusion_rate_variance_percent=5.0%








; 

; external perimeters extrusion width = 0.60mm
; perimeters extrusion width = 0.60mm
; infill extrusion width = 0.60mm
; solid infill extrusion width = 0.60mm
; top infill extrusion width = 0.40mm
; first layer extrusion width = 0.60mm

M73 P0 R6


; Pre-Processed for Cancel-Object support by preprocess_cancellation v0.2.0
; 1 known objects
EXCLUDE_OBJECT_DEFINE NAME=Ethernet_Cover_v2_default_stl_id_0_copy_0 CENTER=117.000,117.155 POLYGON=[[109.018,109.501],[109.018,125.461],[125.982,125.461],[125.982,109.501]]
;TYPE:Custom
G90 ; use absolute coordinates
M83 ; extruder relative mode
M104 S205 ; set temporary nozzle temp to prevent oozing during homing
M140 S65 ; set final bed temp
G4 S30 ; allow partial nozzle warmup
G28 ; home all axis
BED_MESH_CALIBRATE
G1 Z50 F240
G1 X2.0 Y10 F3000
M104 S210 ; set final nozzle temp
M190 S65 ; wait for bed temp to stabilize
M109 S210 ; wait for nozzle temp to stabilize
M73 P3 R6
G1 Z0.28 F240
G92 E0
G1 X2.0 Y140 E10 F1500 ; prime the nozzle
M73 P6 R6
G1 X2.3 Y140 F5000
G92 E0
M73 P7 R5
G1 X2.3 Y10 E10 F1200 ; prime the nozzle
G21 ; set units to millimeters
G90 ; use absolute coordinates
M82 ; use absolute distances for extrusion
G92 E0
; Filament gcode
M107
;LAYER_CHANGE
;Z:0.2
;HEIGHT:0.2
;BEFORE_LAYER_CHANGE
;0.2
M117 Layer 1/67 : PLA - KLIPPER

G1 Z.2 F7800
SET_PRINT_STATS_INFO CURRENT_LAYER=1
;AFTER_LAYER_CHANGE
;0.2
M73 P9 R5
G1 E-1.5 F3000
G92 E0
G1 X102.62 Y109.65 F7800
G1 E1.5 F3000
;TYPE:Skirt/Brim
;WIDTH:0.6
G1 F1200
G1 X105.123 Y107.701 E1.64695
G1 X117.938 Y101.72 E2.30203
G1 X120.23 Y101.088 E2.41216
M73 P10 R5
G1 X123.378 Y101.48 E2.55911
G1 X127.27 Y102.895 E2.75094
G1 X129.337 Y104.07 E2.86107
G1 X131.286 Y106.573 E3.00802
G1 X134.73 Y113.951 E3.38518
G1 X135.361 Y116.242 E3.49525
G1 X134.969 Y119.39 E3.6422
G1 X133.554 Y123.283 E3.83407
G1 X132.38 Y125.35 E3.94418
G1 X129.877 Y127.299 E4.09113
G1 X117.062 Y133.28 E4.74621
G1 X114.77 Y133.912 E4.85634
G1 X111.622 Y133.52 E5.00329
G1 X107.73 Y132.105 E5.19512
G1 X105.663 Y130.93 E5.30525
G1 X103.714 Y128.427 E5.4522
G1 X100.27 Y121.049 E5.82936
M73 P11 R5
G1 X99.639 Y118.758 E5.93943
G1 X100.031 Y115.61 E6.08638
G1 X101.446 Y111.717 E6.27825
G1 X102.576 Y109.728 E6.38421
G1 E5.33421 F3000
;WIPE_START
G1 F6240
G1 X103.347 Y109.114 E4.88421
;WIPE_END
G92 E0
G1 X103.065 Y110.01 F7800
G1 E1.5 F3000
G1 F1200
G1 X103.11 Y109.931 E1.50421
G1 X105.359 Y108.206 E1.6355
G1 X118.173 Y102.225 E2.29054
G1 X120.377 Y101.634 E2.39624
G1 X123.187 Y102.004 E2.52753
G1 X127.08 Y103.419 E2.7194
G1 X129.056 Y104.56 E2.82509
G1 X130.781 Y106.808 E2.95634
G1 X134.225 Y114.186 E3.3335
G1 X134.816 Y116.39 E3.4392
G1 X134.446 Y119.2 E3.57049
G1 X133.031 Y123.093 E3.76236
G1 X131.89 Y125.069 E3.86805
G1 X129.641 Y126.794 E3.99934
M73 P12 R5
G1 X116.827 Y132.775 E4.65438
G1 X114.623 Y133.366 E4.76008
G1 X111.813 Y132.996 E4.89137
G1 X107.92 Y131.581 E5.08324
G1 X105.944 Y130.44 E5.18893
G1 X104.219 Y128.192 E5.32018
G1 X100.775 Y120.814 E5.69734
G1 X100.184 Y118.61 E5.80304
G1 X100.554 Y115.8 E5.93433
G1 X101.969 Y111.907 E6.1262
G1 X103.02 Y110.088 E6.22351
G1 E5.17351 F3000
;WIPE_START
G1 F6240
G1 X103.11 Y109.931 E5.09086
G1 X103.748 Y109.441 E4.72351
;WIPE_END
G92 E0
G1 X108.954 Y115.031 F7800
G1 E1.5 F3000
G1 F1200
G1 X109.167 Y114.775 E1.51543
G1 X109.897 Y114.231 E1.5576
G1 X119.876 Y109.573 E2.06772
G1 X120.763 Y109.362 E2.10995
G1 X121.616 Y109.365 E2.14946
G1 X122.171 Y109.485 E2.17576
G1 X123.389 Y109.969 E2.23647
G3 X124.759 Y111.352 I-1.890 J3.243 E2.32758
M73 P13 R5
G1 X126.964 Y116.142 E2.57184
G3 X127.043 Y117.881 I-3.617 J1.036 E2.65313
G1 X126.644 Y119.066 E2.71105
G1 X126.379 Y119.57 E2.73743
G1 X125.833 Y120.225 E2.77693
G1 X125.103 Y120.769 E2.8191
G1 X115.124 Y125.427 E3.32922
G1 X114.276 Y125.635 E3.36966
G3 X113.190 Y125.606 I-0.438 J-3.949 E3.42010
G1 X111.946 Y125.194 E3.4808
G1 X111.443 Y124.929 E3.50714
G1 X110.788 Y124.384 E3.54661
G1 X110.241 Y123.649 E3.58905
G1 X108.017 Y118.796 E3.83633
G3 X107.945 Y117.178 I3.705 J-0.975 E3.91185
G1 X108.357 Y115.933 E3.9726
G3 X108.896 Y115.100 I2.210 J0.839 E4.01881
G1 E2.96881 F3000
;WIPE_START
G1 F6240
G3 X109.618 Y114.439 I1.739 J1.174 E2.51881
;WIPE_END
G92 E0
G1 X109.319 Y115.457 F7800
G1 E1.5 F3000
G1 F1200
G1 X109.571 Y115.16 E1.51804
G1 X110.158 Y114.724 E1.55191
G1 X120.087 Y110.089 E2.05948
G3 X121.991 Y110.013 I1.069 J2.903 E2.14907
G1 X123.103 Y110.448 E2.20438
G3 X124.265 Y111.610 I-1.541 J2.703 E2.28128
G1 X126.443 Y116.343 E2.52262
G3 X126.504 Y117.734 I-3.117 J0.834 E2.58756
G1 X126.123 Y118.866 E2.64289
G3 X124.842 Y120.276 I-2.820 J-1.275 E2.73245
G1 X114.913 Y124.911 E3.24002
G1 X114.224 Y125.08 E3.27288
M73 P14 R5
G3 X113.279 Y125.055 I-0.386 J-3.290 E3.31678
G1 X112.147 Y124.674 E3.37211
G3 X110.735 Y123.390 I1.266 J-2.811 E3.46185
G1 X108.557 Y118.657 E3.70319
G3 X108.496 Y117.266 I3.117 J-0.834 E3.76813
G1 X108.877 Y116.134 E3.82346
G3 X109.261 Y115.526 I1.629 J0.604 E3.85694
G1 E2.80694 F3000
;WIPE_START
G1 F6240
G3 X109.977 Y114.859 I1.782 J1.195 E2.35694
;WIPE_END
G92 E0
G1 X109.681 Y115.886 F7800
G1 E1.5 F3000
G1 F1200
G3 X110.419 Y115.217 I1.827 J1.274 E1.54643
G1 X120.297 Y110.606 E2.05139
G3 X121.814 Y110.542 I0.855 J2.253 E2.12273
G1 X122.821 Y110.928 E2.17269
G3 X123.771 Y111.869 I-1.271 J2.233 E2.23525
G1 X125.903 Y116.484 E2.47073
G3 X125.954 Y117.642 I-2.567 J0.693 E2.52481
G1 X125.605 Y118.662 E2.57475
G3 X124.581 Y119.783 I-2.295 J-1.068 E2.64608
G1 X114.702 Y124.394 E3.15108
G3 X113.371 Y124.505 I-0.877 J-2.476 E3.21358
G1 X112.351 Y124.155 E3.26353
G3 X111.229 Y123.131 I1.065 J-2.293 E3.33489
G1 X109.097 Y118.516 E3.57037
G3 X109.046 Y117.358 I2.567 J-0.693 E3.62445
G1 X109.395 Y116.338 E3.67439
G3 X109.622 Y115.955 I1.000 J0.334 E3.69508
G1 E2.64508 F3000
;WIPE_START
G1 F6240
G3 X110.332 Y115.281 I1.825 J1.211 E2.19508
;WIPE_END
G92 E0
G1 X110.043 Y116.312 F7800
G1 E1.5 F3000
G1 F1200
G3 X110.679 Y115.710 I1.685 J1.144 E1.54080
G1 X120.508 Y111.122 E2.04325
G1 X120.881 Y111.031 E2.06103
M73 P15 R5
G3 X121.642 Y111.072 I0.285 J1.797 E2.09651
G1 X122.542 Y111.412 E2.14107
G3 X123.277 Y112.129 I-0.975 J1.735 E2.18911
G1 X125.365 Y116.629 E2.4189
G3 X125.405 Y117.546 I-1.986 J0.546 E2.46172
G1 X125.087 Y118.453 E2.50624
G3 X124.321 Y119.290 I-1.779 J-0.859 E2.55948
G1 X114.491 Y123.878 E3.06197
G3 X113.467 Y123.955 I-0.658 J-1.905 E3.11000
G1 X112.559 Y123.638 E3.15455
G3 X111.723 Y122.871 I0.856 J-1.772 E3.20778
G1 X109.635 Y118.371 E3.43757
G3 X109.595 Y117.454 I1.986 J-0.546 E3.48039
G1 X109.913 Y116.547 E3.52491
G1 X109.999 Y116.39 E3.5332
G1 E2.4832 F3000
;WIPE_START
G1 F6240
G3 X110.694 Y115.703 I1.660 J0.984 E2.03320
;WIPE_END
G92 E0
G1 X110.481 Y116.667 F7800
G1 E1.5 F3000
G1 F1200
G3 X110.940 Y116.203 I1.210 J0.738 E1.53041
G1 X120.719 Y111.639 E2.03029
G3 X121.474 Y111.604 I0.437 J1.273 E2.06568
G1 X122.269 Y111.898 E2.10494
G3 X122.784 Y112.389 I-0.689 J1.238 E2.13821
G1 X124.828 Y116.78 E2.36256
G3 X124.857 Y117.442 I-1.412 J0.393 E2.39347
G1 X124.572 Y118.24 E2.43272
G3 X124.060 Y118.797 I-1.268 J-0.652 E2.46814
G1 X114.281 Y123.361 E2.96802
G1 X114.068 Y123.414 E2.97819
M73 P16 R5
G3 X113.570 Y123.407 I-0.229 J-1.461 E3.00133
G1 X112.772 Y123.122 E3.04058
G3 X112.216 Y122.611 I0.632 J-1.246 E3.07594
G1 X110.172 Y118.22 E3.30029
G3 X110.143 Y117.558 I1.412 J-0.393 E3.33120
G1 X110.437 Y116.745 E3.37125
G1 E2.32125 F3000
;WIPE_START
G1 F6240
G3 X110.940 Y116.203 I1.253 J0.658 E1.98107
G1 X111.158 Y116.101 E1.87125
;WIPE_END
G92 E0
G1 X110.941 Y116.98 F7800
G1 E1.5 F3000
G1 F1200
G1 X111.2 Y116.697 E1.51777
G1 X120.93 Y112.155 E2.01516
G1 X121.26 Y112.13 E2.03049
G1 X122.007 Y112.39 E2.06713
G1 X122.291 Y112.65 E2.08497
G1 X124.295 Y116.943 E2.30443
G1 X124.32 Y117.272 E2.31971
G1 X124.059 Y118.02 E2.35641
G1 X123.8 Y118.303 E2.37418
G1 X114.07 Y122.845 E2.87157
G1 X113.74 Y122.87 E2.8869
G1 X112.993 Y122.61 E2.92354
G1 X112.709 Y122.35 E2.94138
G1 X110.705 Y118.057 E3.16084
G1 X110.688 Y117.673 E3.17864
G1 X110.91 Y117.064 E3.20867
G1 E2.15867 F3000
;WIPE_START
G1 F6240
G1 X111.2 Y116.697 E1.94503
G1 X111.669 Y116.478 E1.70867
;WIPE_END
G92 E0
G1 X111.433 Y117.255 F7800
G1 E1.5 F3000
G1 F1200
G1 X111.511 Y117.166 E1.50548
G1 X121.091 Y112.695 E1.99519
G1 X121.201 Y112.69 E2.00029
G1 X121.739 Y112.885 E2.0268
G1 X121.821 Y112.96 E2.03195
G1 X123.755 Y117.103 E2.24374
G1 X123.76 Y117.214 E2.24889
G1 X123.564 Y117.752 E2.27541
G1 X123.489 Y117.834 E2.28056
G1 X113.909 Y122.305 E2.77027
G1 X113.799 Y122.31 E2.77537
M73 P17 R5
G1 X113.261 Y122.115 E2.80188
G1 X113.179 Y122.04 E2.80703
G1 X111.245 Y117.897 E3.01882
G1 X111.24 Y117.786 E3.02397
G1 X111.403 Y117.339 E3.04601
G1 E1.99601 F3000
;WIPE_START
G1 F6240
G1 X111.511 Y117.166 E1.90286
G1 X112.219 Y116.836 E1.54601
;WIPE_END
G92 E0
G1 X111.901 Y117.599 F7800
G1 E1.5 F3000
G1 F1200
G1 X121.172 Y113.272 E1.97392
G1 X121.388 Y113.351 E1.98457
G1 X123.178 Y117.184 E2.18053
G1 X123.099 Y117.401 E2.19123
G1 X113.828 Y121.728 E2.66515
G1 X113.612 Y121.649 E2.6758
G1 X111.822 Y117.816 E2.87176
G1 X111.87 Y117.683 E2.87831
; printing object Ethernet_Cover_v2_default.stl id:0 copy 0
EXCLUDE_OBJECT_START NAME=Ethernet_Cover_v2_default_stl_id_0_copy_0
G1 E1.82831 F3000
;WIPE_START
G1 F6240
G1 X112.76 Y117.261 E1.37831
;WIPE_END
G92 E0
G1 X114.498 Y119.547 F7800
G1 E1.5 F3000
;TYPE:Perimeter
G1 F1200
G1 X114.003 Y118.486 E1.55423
G1 X120.502 Y115.453 E1.88644
G1 X120.997 Y116.514 E1.94067
G1 X114.58 Y119.509 E2.2687
G1 E1.2187 F3000
;WIPE_START
G1 F6240
G1 X114.096 Y118.651 E.7687
;WIPE_END
G92 E0
G1 X114.229 Y120.288 F7800
G1 E1.5 F3000
M73 P18 R5
G1 F1200
G1 X113.262 Y118.217 E1.60587
G1 X120.771 Y114.712 E1.98972
G1 X121.738 Y116.783 E2.09559
G1 X114.311 Y120.25 E2.47526
G1 E1.42526 F3000
;WIPE_START
G1 F6240
G1 X113.859 Y119.374 E.97526
;WIPE_END
G92 E0
G1 X113.96 Y121.028 F7800
G1 E1.5 F3000
;TYPE:External perimeter
G1 F1200
G1 X112.522 Y117.947 E1.6575
G1 X121.04 Y113.972 E2.09291
G1 X122.478 Y117.053 E2.25041
G1 X114.042 Y120.99 E2.68164
G1 X113.943 Y120.429 F7800
G1 E1.63164 F3000
;WIPE_START
G1 F6240
G1 X113.602 Y120.109 E1.18164
;WIPE_END
G92 E0
G1 X114.503 Y118.899 F7800
G1 E1.5 F3000
;TYPE:Gap fill
;WIDTH:0.657524
G1 F1200
G1 X120.497 Y116.101 E1.83805
; stop printing object Ethernet_Cover_v2_default.stl id:0 copy 0
EXCLUDE_OBJECT_END NAME=Ethernet_Cover_v2_default_stl_id_0_copy_0
;LAYER_CHANGE
;Z:0.4
;HEIGHT:0.2
;BEFORE_LAYER_CHANGE
;0.4
M117 Layer 2/67 : PLA - KLIPPER

G1 Z.4 F7800
SET_PRINT_STATS_INFO CURRENT_LAYER=2
;AFTER_LAYER_CHANGE
;0.4
M104 S205 ; set temperature
; printing object Ethernet_Cover_v2_default.stl id:0 copy 0
EXCLUDE_OBJECT_START NAME=Ethernet_Cover_v2_default_stl_id_0_copy_0
G1 E.33805 F3000
G92 E0
G1 X114.498 Y119.547 F7800
G1 E1.5 F3000
;TYPE:Perimeter
;WIDTH:0.6
G1 F1800
G1 X114.003 Y118.486 E1.55423
G1 X120.502 Y115.453 E1.88644
M73 P19 R5
G1 X120.997 Y116.514 E1.94067
G1 X114.58 Y119.509 E2.2687
G1 E1.2187 F3000
;WIPE_START
G1 F6240
G1 X114.096 Y118.651 E.7687
;WIPE_END
G92 E0
G1 X114.229 Y120.288 F7800
G1 E1.5 F3000
G1 F1800
G1 X113.262 Y118.217 E1.60587
G1 X120.771 Y114.712 E1.98972
G1 X121.738 Y116.783 E2.09559
G1 X114.311 Y120.25 E2.47526
G1 E1.42526 F3000
;WIPE_START
G1 F6240
G1 X113.859 Y119.374 E.97526
;WIPE_END
G92 E0
G1 X113.96 Y121.028 F7800
G1 E1.5 F3000
;TYPE:External perimeter
G1 F1800
G1 X112.522 Y117.947 E1.6575
G1 X121.04 Y113.972 E2.09291
G1 X122.478 Y117.053 E2.25041
G1 X114.042 Y120.99 E2.68164
G1 X113.943 Y120.429 F7800
G1 E1.63164 F3000
;WIPE_START
G1 F6240
G1 X113.602 Y120.109 E1.18164
;WIPE_END
G92 E0
G1 X114.503 Y118.899 F7800
G1 E1.5 F3000
;TYPE:Gap fill
;WIDTH:0.657524
G1 F1800
G1 X120.497 Y116.101 E1.83805
; stop printing object Ethernet_Cover_v2_default.stl id:0 copy 0
EXCLUDE_OBJECT_END NAME=Ethernet_Cover_v2_default_stl_id_0_copy_0
M106 S255
;LAYER_CHANGE
;Z:0.6
;HEIGHT:0.2
;BEFORE_LAYER_CHANGE
;0.6
M117 Layer 3/67 : PLA - KLIPPER

G1 Z.6 F7800
SET_PRINT_STATS_INFO CURRENT_LAYER=3
;AFTER_LAYER_CHANGE
;0.6
; printing object Ethernet_Cover_v2_default.stl id:0 copy 0
EXCLUDE_OBJECT_START NAME=Ethernet_Cover_v2_default_stl_id_0_copy_0
G1 E.33805 F3000
G92 E0
G1 X114.498 Y119.547 F7800
G1 E1.5 F3000
;TYPE:Perimeter
;WIDTH:0.6
M73 P20 R5
G1 F1800
G1 X114.003 Y118.486 E1.55423
G1 X120.502 Y115.453 E1.88644
G1 X120.997 Y116.514 E1.94067
G1 X114.58 Y119.509 E2.2687
G1 E1.2187 F3000
;WIPE_START
G1 F6240
G1 X114.096 Y118.651 E.7687
;WIPE_END
G92 E0
G1 X114.229 Y120.288 F7800
G1 E1.5 F3000
G1 F1800
G1 X113.262 Y118.217 E1.60587
G1 X120.771 Y114.712 E1.98972
G1 X121.738 Y116.783 E2.09559
G1 X114.311 Y120.25 E2.47526
G1 E1.42526 F3000
;WIPE_START
G1 F6240
G1 X113.859 Y119.374 E.97526
;WIPE_END
G92 E0
G1 X113.96 Y121.028 F7800
G1 E1.5 F3000
;TYPE:External perimeter
G1 F1800
G1 X112.522 Y117.947 E1.6575
G1 X121.04 Y113.972 E2.09291
G1 X122.478 Y117.053 E2.25041
G1 X114.042 Y120.99 E2.68164
G1 X113.943 Y120.429 F7800
G1 E1.63164 F3000
;WIPE_START
G1 F6240
G1 X113.602 Y120.109 E1.18164
;WIPE_END
G92 E0
G1 X114.503 Y118.899 F7800
G1 E1.5 F3000
;TYPE:Gap fill
;WIDTH:0.657524
G1 F1800
G1 X120.497 Y116.101 E1.83805
; stop printing object Ethernet_Cover_v2_default.stl id:0 copy 0
EXCLUDE_OBJECT_END NAME=Ethernet_Cover_v2_default_stl_id_0_copy_0
;LAYER_CHANGE
;Z:0.8
;HEIGHT:0.2
;BEFORE_LAYER_CHANGE
;0.8
M117 Layer 4/67 : PLA - KLIPPER

G1 Z.8 F7800
SET_PRINT_STATS_INFO CURRENT_LAYER=4
;AFTER_LAYER_CHANGE
;0.8
; printing object Ethernet_Cover_v2_default.stl id:0 copy 0
EXCLUDE_OBJECT_START NAME=Ethernet_Cover_v2_default_stl_id_0_copy_0
G1 E.33805 F3000
G92 E0
G1 X114.498 Y119.547 F7800
M73 P21 R5
G1 E1.5 F3000
;TYPE:Perimeter
;WIDTH:0.6
G1 F1800
G1 X114.003 Y118.486 E1.55423
G1 X120.502 Y115.453 E1.88644
G1 X120.997 Y116.514 E1.94067
G1 X114.58 Y119.509 E2.2687
G1 E1.2187 F3000
;WIPE_START
G1 F6240
G1 X114.096 Y118.651 E.7687
;WIPE_END
G92 E0
G1 X114.229 Y120.288 F7800
G1 E1.5 F3000
G1 F1800
G1 X113.262 Y118.217 E1.60587
G1 X120.771 Y114.712 E1.98972
G1 X121.738 Y116.783 E2.09559
G1 X114.311 Y120.25 E2.47526
G1 E1.42526 F3000
;WIPE_START
G1 F6240
G1 X113.859 Y119.374 E.97526
;WIPE_END
G92 E0
G1 X113.96 Y121.028 F7800
G1 E1.5 F3000
;TYPE:External perimeter
G1 F1800
G1 X112.522 Y117.947 E1.6575
G1 X121.04 Y113.972 E2.09291
G1 X122.478 Y117.053 E2.25041
G1 X114.042 Y120.99 E2.68164
G1 X113.943 Y120.429 F7800
G1 E1.63164 F3000
;WIPE_START
G1 F6240
G1 X113.602 Y120.109 E1.18164
;WIPE_END
G92 E0
G1 X114.503 Y118.899 F7800
G1 E1.5 F3000
;TYPE:Gap fill
;WIDTH:0.657524
G1 F1800
G1 X120.497 Y116.101 E1.83805
; stop printing object Ethernet_Cover_v2_default.stl id:0 copy 0
EXCLUDE_OBJECT_END NAME=Ethernet_Cover_v2_default_stl_id_0_copy_0
;LAYER_CHANGE
;Z:1
;HEIGHT:0.2
;BEFORE_LAYER_CHANGE
;1
M117 Layer 5/67 : PLA - KLIPPER

G1 Z1 F7800
SET_PRINT_STATS_INFO CURRENT_LAYER=5
;AFTER_LAYER_CHANGE
;1
; printing object Ethernet_Cover_v2_default.stl id:0 copy 0
EXCLUDE_OBJECT_START NAME=Ethernet_Cover_v2_default_stl_id_0_copy_0
M73 P22 R5
G1 E.33805 F3000
G92 E0
G1 X114.498 Y119.547 F7800
G1 E1.5 F3000
;TYPE:Perimeter
;WIDTH:0.6
G1 F1800
G1 X114.003 Y118.486 E1.55423
G1 X120.502 Y115.453 E1.88644
G1 X120.997 Y116.514 E1.94067
G1 X114.58 Y119.509 E2.2687
G1 E1.2187 F3000
;WIPE_START
G1 F6240
G1 X114.096 Y118.651 E.7687
;WIPE_END
G92 E0
G1 X114.229 Y120.288 F7800
G1 E1.5 F3000
G1 F1800
G1 X113.262 Y118.217 E1.60587
G1 X120.771 Y114.712 E1.98972
G1 X121.738 Y116.783 E2.09559
G1 X114.311 Y120.25 E2.47526
G1 E1.42526 F3000
;WIPE_START
G1 F6240
G1 X113.859 Y119.374 E.97526
;WIPE_END
G92 E0
G1 X113.96 Y121.028 F7800
G1 E1.5 F3000
;TYPE:External perimeter
G1 F1800
G1 X112.522 Y117.947 E1.6575
G1 X121.04 Y113.972 E2.09291
