; generated by PrusaSlicer 2.6.0+win64 on 2023-06-25 at 18:43:02 UTC
; Postprocessed by [ArcWelder](https://github.com/FormerLurker/ArcWelderLib)
; Copyright(C) 2021 - Brad Hochgesang
; Version: 1.2.0, Branch: HEAD, BuildDate: 2021-11-21T20:25:43Z
; resolution=0.05mm
; path_tolerance=5.0%
; max_radius=9999.00mm
; default_xyz_precision=3
; default_e_precision=5
; extrusion_rate_variance_percent=5.0%








; 

; external perimeters extrusion width = 0.40mm
; perimeters extrusion width = 0.40mm
; infill extrusion width = 0.40mm
; solid infill extrusion width = 0.40mm
; top infill extrusion width = 0.40mm
; first layer extrusion width = 0.40mm

M73 P0 R55


; Pre-Processed for Cancel-Object support by preprocess_cancellation v0.2.0
; 1 known objects
EXCLUDE_OBJECT_DEFINE NAME=Food_Clip_4_stl_id_0_copy_0 CENTER=115.481,117.502 POLYGON=[[92.169,102.165],[92.169,132.846],[142.829,132.846],[142.829,102.165]]
;TYPE:Custom
G90 ; use absolute coordinates
M83 ; extruder relative mode
M104 S205 ; set temporary nozzle temp to prevent oozing during homing
M140 S65 ; set final bed temp
G4 S30 ; allow partial nozzle warmup
G28 ; home all axis
BED_MESH_CALIBRATE
G1 Z50 F240
G1 X2.0 Y10 F3000
M104 S210 ; set final nozzle temp
M190 S65 ; wait for bed temp to stabilize
M109 S210 ; wait for nozzle temp to stabilize
G1 Z0.28 F240
G92 E0
G1 X2.0 Y140 E10 F1500 ; prime the nozzle
G1 X2.3 Y140 F5000
G92 E0
G1 X2.3 Y10 E10 F1200 ; prime the nozzle
G21 ; set units to millimeters
G90 ; use absolute coordinates
M82 ; use absolute distances for extrusion
G92 E0
; Filament gcode
M107
;LAYER_CHANGE
;Z:0.2
;HEIGHT:0.2
;BEFORE_LAYER_CHANGE
;0.2
M117 Layer 1/50 : klipper-PLA-0.6

G1 Z.2 F9000
SET_PRINT_STATS_INFO CURRENT_LAYER=1
;AFTER_LAYER_CHANGE
;0.2
M73 P1 R54
G1 E-1.5 F3300
G92 E0
G1 Z.5 F9000
G1 X88.23 Y97.515
G1 Z.2
G1 E1.5 F3300
;TYPE:Skirt/Brim
;WIDTH:0.4
G1 F1200
G1 X89.401 Y96.629 E1.5436
G1 X90.367 Y96.096 E1.57636
G1 X91.741 Y95.579 E1.61995
G1 X93.182 Y95.294 E1.66356
G1 X95.015 Y95.276 E1.71799
G1 X96.09 Y95.442 E1.75029
G1 X144.226 Y106.929 E3.21964
G1 X146.346 Y107.844 E3.2882
G1 X148.031 Y109.422 E3.35674
G1 X148.972 Y111.079 E3.41332
G1 X149.573 Y113.068 E3.47501
G1 X149.746 Y114.776 E3.52598
G1 X149.746 Y120.224 E3.68774
G3 X149.573 Y121.932 I-12.490 J-0.402 E3.73874
G1 X148.972 Y123.921 E3.80043
G1 X148.717 Y124.452 E3.81792
G1 X147.373 Y126.329 E3.88646
G1 X145.472 Y127.64 E3.95502
G1 X144.226 Y128.071 E3.99417
G1 X96.09 Y139.558 E5.46352
G1 X94.65 Y139.751 E5.50666
G1 X93.182 Y139.706 E5.55027
G1 X91.741 Y139.421 E5.59388
G1 X90.367 Y138.904 E5.63747
G1 X89.401 Y138.371 E5.67023
G1 X88.23 Y137.485 E5.71383
G1 X86.996 Y136.129 E5.76827
G1 X86.398 Y135.202 E5.80102
G1 X85.786 Y133.867 E5.84462
G1 X85.344 Y132.099 E5.89873
G1 X85.254 Y131.004 E5.93135
G1 X85.254 Y103.996 E6.73325
G1 X85.343 Y102.912 E6.76554
G1 X85.665 Y101.494 E6.80871
G1 X86.225 Y100.121 E6.85274
G1 X87.213 Y98.589 E6.90687
G1 X88.168 Y97.58 E6.94812
G1 X88.426 Y97.825 F9000
G1 F1200
G1 X89.598 Y96.926 E6.99198
G1 X90.513 Y96.422 E7.023
G1 X91.832 Y95.925 E7.06485
G1 X93.215 Y95.65 E7.10672
G1 X94.989 Y95.632 E7.1594
G1 X96.007 Y95.789 E7.18998
G1 X144.143 Y107.277 E8.65934
G1 X146.201 Y108.176 E8.72602
G1 X148.395 Y110.703 E8.82538
G1 X148.651 Y111.234 E8.84288
G1 X149.219 Y113.117 E8.90128
G3 X149.388 Y114.776 I-11.844 J2.045 E8.95082
G1 X149.388 Y120.224 E9.11258
G3 X149.219 Y121.883 I-12.013 J-0.386 E9.16212
G1 X148.651 Y123.766 E9.22052
G1 X148.395 Y124.297 E9.23802
G1 X147.079 Y126.117 E9.3047
G1 X144.143 Y127.723 E9.40406
G1 X96.007 Y139.211 E10.87342
G1 X94.624 Y139.395 E10.91484
G1 X93.215 Y139.35 E10.9567
G1 X91.832 Y139.075 E10.99857
G1 X90.513 Y138.578 E11.04042
G1 X89.598 Y138.074 E11.07144
G1 X88.473 Y137.224 E11.1133
G1 X87.279 Y135.911 E11.16599
G1 X86.54 Y134.711 E11.20783
G1 X86.124 Y133.752 E11.23887
G1 X85.697 Y132.041 E11.29123
G1 X85.612 Y131.004 E11.32212
G1 X85.612 Y103.996 E12.12402
G1 X85.695 Y102.969 E12.15461
G1 X86.003 Y101.608 E12.19604
G1 X86.54 Y100.289 E12.23832
G1 X87.496 Y98.807 E12.29068
G1 X88.365 Y97.891 E12.32817
; printing object Food_Clip_4.stl id:0 copy 0
EXCLUDE_OBJECT_START NAME=Food_Clip_4_stl_id_0_copy_0
G1 E10.82817 F3300
G92 E0
G1 Z.5 F9000
G1 X134.954 Y121.265
G1 Z.2
G1 E1.5 F3300
;TYPE:Perimeter
;WIDTH:0.544028
G1 F1200
G2 X135.027 Y120.491 I-1.818 J-0.562 E1.53256
G1 X135.353 Y120.692 E1.54852
;WIDTH:0.58512
G1 X135.502 Y120.731 E1.55546
;WIDTH:0.626212
G1 X135.651 Y120.77 E1.56293
;WIDTH:0.667303
G1 X135.8 Y120.809 E1.57093
;WIDTH:0.708395
G1 X135.95 Y120.848 E1.57951
;WIDTH:0.749486
G1 X136.099 Y120.886 E1.58854
G1 X136.042 Y120.911 E1.5922
;WIDTH:0.728486
G1 X135.865 Y120.977 E1.60297
;WIDTH:0.682372
G1 X135.688 Y121.043 E1.61301
;WIDTH:0.636257
G1 X135.512 Y121.109 E1.62228
;WIDTH:0.590143
G1 X135.335 Y121.174 E1.63086
;WIDTH:0.544028
G1 X135.042 Y121.244 E1.64341
G1 X136.818 Y120.715 F9000
;WIDTH:0.749484
G1 F1200
G1 X136.948 Y120.592 E1.65392
;WIDTH:0.702461
G1 X137.079 Y120.469 E1.66377
;WIDTH:0.655438
G1 X137.209 Y120.346 E1.67288
;WIDTH:0.608415
G1 X137.339 Y120.223 E1.6813
;WIDTH:0.561392
G1 X137.469 Y120.1 E1.68902
;WIDTH:0.514368
G1 X137.626 Y120.262 E1.69786
G1 X138.088 Y120.533 E1.71886
G1 X137.524 Y120.667 E1.74158
;WIDTH:0.561392
G1 X137.383 Y120.677 E1.74767
;WIDTH:0.608415
G1 X137.242 Y120.686 E1.75431
;WIDTH:0.655438
G1 X137.1 Y120.696 E1.76156
;WIDTH:0.702461
G1 X136.959 Y120.705 E1.76931
;WIDTH:0.749484
G1 X136.908 Y120.709 E1.77232
G1 E.27232 F3300
G92 E0
G1 Z.5 F9000
G1 X134.191 Y121.888
G1 Z.2
G1 E1.5 F3300
;WIDTH:0.399999
G1 F1200
G1 X134.477 Y121.481 E1.51477
G1 X134.598 Y120.871 E1.53323
G2 X134.554 Y119.512 I-5.782 J-0.493 E1.57366
G1 X134.769 Y119.82 E1.58481
G1 X135.483 Y120.283 E1.61008
G2 X137.469 Y119.355 I0.486 J-1.548 E1.68126
G2 X138.445 Y120.270 I1.669 J-0.802 E1.72191
;WIDTH:0.445251
G1 X138.524 Y120.304 E1.72479
;WIDTH:0.490502
G1 X138.603 Y120.337 E1.72798
;WIDTH:0.535753
G1 X138.682 Y120.37 E1.73149
;WIDTH:0.581005
G1 X138.761 Y120.403 E1.73532
;WIDTH:0.626256
G1 X138.84 Y120.437 E1.73949
;WIDTH:0.671508
G1 X138.92 Y120.47 E1.74401
;WIDTH:0.716759
G1 X138.999 Y120.503 E1.74881
;WIDTH:0.76201
G1 X139.078 Y120.536 E1.75393
G1 X138.995 Y120.579 E1.75952
;WIDTH:0.716759
G1 X138.912 Y120.622 E1.76476
;WIDTH:0.671508
G1 X138.829 Y120.665 E1.76965
;WIDTH:0.626256
G1 X138.746 Y120.708 E1.77418
;WIDTH:0.581005
G1 X138.663 Y120.751 E1.77836
;WIDTH:0.535753
G1 X138.58 Y120.794 E1.78219
;WIDTH:0.490502
G1 X138.498 Y120.838 E1.78565
;WIDTH:0.445251
G1 X138.415 Y120.881 E1.78878
;WIDTH:0.399999
G1 X134.279 Y121.868 E1.91503
G1 E.41503 F3300
G92 E0
G1 Z.5 F9000
G1 X139.679 Y120.393
G1 Z.2
G1 E1.5 F3300
;WIDTH:0.762008
G1 F1200
G1 X139.73 Y120.34 E1.5044
;WIDTH:0.717818
G1 X139.782 Y120.288 E1.50853
;WIDTH:0.673628
G1 X139.833 Y120.236 E1.51235
;WIDTH:0.629438
G1 X139.885 Y120.183 E1.51597
;WIDTH:0.585247
G1 X139.993 Y120.045 E1.52387
;WIDTH:0.538935
G1 X140.101 Y119.906 E1.53113
;WIDTH:0.492623
G1 X140.208 Y119.767 E1.53769
;WIDTH:0.446311
G1 X140.316 Y119.628 E1.54359
;WIDTH:0.399999
G1 X140.47 Y119.354 E1.55292
G3 X141.370 Y120.175 I-0.010 J0.915 E1.59225
G1 X140.798 Y120.312 E1.60971
;WIDTH:0.446311
G1 X140.594 Y120.337 E1.6166
;WIDTH:0.492623
G1 X140.39 Y120.362 E1.62429
;WIDTH:0.538935
G1 X140.186 Y120.386 E1.63276
;WIDTH:0.585247
G1 X139.982 Y120.411 E1.64203
;WIDTH:0.629438
G1 X139.906 Y120.407 E1.64574
;WIDTH:0.673628
G1 X139.83 Y120.402 E1.64973
;WIDTH:0.717818
G1 X139.769 Y120.398 E1.65316
G1 E.15316 F3300
G92 E0
G1 Z.5 F9000
G1 X105.308 Y128.767
G1 Z.2
G1 E1.5 F3300
;WIDTH:0.409253
G1 F1200
G1 X133.282 Y122.091 E2.37604
;WIDTH:0.420147
G2 X133.831 Y121.799 I-0.208 J-1.054 E2.39574
;WIDTH:0.403581
G1 X134.147 Y121.346 E2.4123
;WIDTH:0.399999
G1 X134.241 Y120.871 E2.42668
G2 X134.207 Y119.595 I-5.459 J-0.493 E2.46463
G1 X134.135 Y119.406 E2.47064
G2 X134.237 Y118.978 I-0.718 J-0.397 E2.48379
G1 X134.602 Y119.01 E2.49467
G1 X134.758 Y119.138 E2.50066
G1 X135.036 Y119.582 E2.51621
G1 X135.56 Y119.932 E2.53492
G2 X137.164 Y119.169 I0.400 J-1.226 E2.59294
G3 X137.688 Y119.063 I0.306 J0.162 E2.61082
G2 X138.139 Y119.685 I3.365 J-1.965 E2.63366
G2 X139.643 Y119.805 I0.831 J-0.935 E2.68149
G2 X140.181 Y119.138 I-0.876 J-1.257 E2.70718
G1 X140.361 Y119.003 E2.71386
G1 X140.859 Y119.054 E2.72872
G3 X141.715 Y120.460 I-0.356 J1.180 E2.78197
G1 X134.801 Y122.11 E2.99302
;WIDTH:0.403581
G1 X134.084 Y122.279 E3.01511
;WIDTH:0.409253
G1 X106.178 Y128.936 E3.889
G1 X106.145 Y128.891 E3.8907
G1 X105.397 Y128.78 E3.91373
G1 E2.41373 F3300
G92 E0
G1 Z.5 F9000
G1 X140.727 Y119.815
G1 Z.2
G1 E1.5 F3300
;WIDTH:0.586074
G1 F1200
G2 X140.761 Y119.874 I-0.034 J0.059 E1.51538
G1 X139.078 Y120.536 F9000
;WIDTH:0.76201
G1 F1200
G1 X139.679 Y120.393 E1.55232
G1 E.05232 F3300
G92 E0
G1 Z.5 F9000
G1 X136.099 Y120.886
G1 Z.2
G1 E1.5 F3300
;WIDTH:0.749486
G1 F1200
G1 X136.818 Y120.715 E1.54342
G1 E.04342 F3300
G92 E0
G1 Z.5 F9000
G1 X136.818 Y114.285
G1 Z.2
M73 P2 R54
G1 E1.5 F3300
;WIDTH:0.749488
G1 F1200
G1 X136.959 Y114.295 E1.5083
;WIDTH:0.702465
G1 X137.1 Y114.304 E1.51605
;WIDTH:0.655441
G1 X137.242 Y114.314 E1.5233
;WIDTH:0.608417
G1 X137.383 Y114.323 E1.52994
;WIDTH:0.561393
G1 X137.524 Y114.333 E1.53603
;WIDTH:0.514369
G1 X138.088 Y114.467 E1.55875
G1 X137.626 Y114.738 E1.57975
G1 X137.469 Y114.9 E1.58859
G1 X137.313 Y114.738 E1.59741
;WIDTH:0.561393
G1 X137.214 Y114.648 E1.60318
;WIDTH:0.608417
G1 X137.115 Y114.557 E1.6095
;WIDTH:0.655441
G1 X137.016 Y114.466 E1.61635
;WIDTH:0.702465
G1 X136.917 Y114.376 E1.62369
;WIDTH:0.749488
G1 X136.884 Y114.346 E1.62631
G1 X135.027 Y114.509 F9000
;WIDTH:0.544029
G1 F1200
G2 X134.954 Y113.735 I-2.125 J-0.190 E1.65884
G1 X135.335 Y113.826 E1.67516
;WIDTH:0.585122
G1 X135.488 Y113.883 E1.68252
;WIDTH:0.626214
G1 X135.641 Y113.941 E1.69046
;WIDTH:0.667306
G1 X135.793 Y113.998 E1.69889
;WIDTH:0.708398
G1 X135.946 Y114.056 E1.70794
;WIDTH:0.74949
G1 X136.099 Y114.114 E1.71755
G1 X136.038 Y114.121 E1.72116
;WIDTH:0.72849
G1 X135.866 Y114.168 E1.73132
;WIDTH:0.682375
G1 X135.695 Y114.215 E1.74075
;WIDTH:0.63626
G1 X135.524 Y114.261 E1.74949
;WIDTH:0.590145
G1 X135.353 Y114.308 E1.75756
;WIDTH:0.544029
G1 X135.104 Y114.461 E1.76974
G1 X134.554 Y115.488 F9000
;WIDTH:0.399999
G1 F1200
G2 X134.477 Y113.519 I-5.074 J-0.788 E1.82865
G1 X134.191 Y113.112 E1.84342
G1 X138.415 Y114.119 E1.97235
;WIDTH:0.445251
G1 X138.498 Y114.162 E1.97548
;WIDTH:0.490503
G1 X138.58 Y114.206 E1.97894
;WIDTH:0.535755
G1 X138.663 Y114.249 E1.98277
;WIDTH:0.581007
G1 X138.746 Y114.292 E1.98695
;WIDTH:0.626259
G1 X138.829 Y114.335 E1.99148
;WIDTH:0.671511
G1 X138.912 Y114.378 E1.99637
;WIDTH:0.716762
G1 X138.995 Y114.421 E2.00161
;WIDTH:0.762014
G1 X139.078 Y114.464 E2.0072
G1 X138.999 Y114.497 E2.01232
;WIDTH:0.716762
G1 X138.92 Y114.53 E2.01712
;WIDTH:0.671511
G1 X138.84 Y114.563 E2.02164
;WIDTH:0.626259
G1 X138.761 Y114.597 E2.02581
;WIDTH:0.581007
G1 X138.682 Y114.63 E2.02964
;WIDTH:0.535755
G1 X138.603 Y114.663 E2.03315
;WIDTH:0.490503
G1 X138.524 Y114.696 E2.03634
;WIDTH:0.445251
G1 X138.445 Y114.73 E2.03922
;WIDTH:0.399999
G1 X137.901 Y115.048 E2.05793
G2 X137.469 Y115.645 I1.185 J1.312 E2.07991
G2 X136.021 Y114.642 I-1.591 J0.750 E2.13492
G1 X135.443 Y114.73 E2.15228
G1 X134.769 Y115.18 E2.17634
G1 X134.605 Y115.414 E2.18482
G1 E.68482 F3300
G92 E0
G1 Z.5 F9000
G1 X136.818 Y114.285
G1 Z.2
G1 E1.5 F3300
;WIDTH:0.74949
G1 F1200
G1 X136.099 Y114.114 E1.54342
G1 E.04342 F3300
G92 E0
G1 Z.5 F9000
G1 X139.679 Y114.607
G1 Z.2
G1 E1.5 F3300
;WIDTH:0.762014
G1 F1200
G1 X139.755 Y114.603 E1.50455
;WIDTH:0.717824
G1 X139.83 Y114.598 E1.50877
;WIDTH:0.673633
G1 X139.906 Y114.593 E1.51276
;WIDTH:0.629442
G1 X139.982 Y114.589 E1.51647
;WIDTH:0.585251
G1 X140.186 Y114.614 E1.52574
;WIDTH:0.538938
G1 X140.39 Y114.638 E1.53421
;WIDTH:0.492625
G1 X140.594 Y114.663 E1.5419
;WIDTH:0.446312
G1 X140.798 Y114.688 E1.54879
;WIDTH:0.399999
G1 X141.37 Y114.825 E1.56625
G3 X140.470 Y115.646 I-0.917 J-0.101 E1.60565
G1 X140.316 Y115.372 E1.61498
;WIDTH:0.445251
G1 X140.236 Y115.276 E1.61916
;WIDTH:0.490503
G1 X140.157 Y115.18 E1.62379
;WIDTH:0.535755
G1 X140.077 Y115.085 E1.62888
;WIDTH:0.581007
G1 X139.997 Y114.989 E1.63447
;WIDTH:0.626259
G1 X139.918 Y114.894 E1.64046
;WIDTH:0.671511
G1 X139.838 Y114.798 E1.64699
;WIDTH:0.716762
G1 X139.758 Y114.703 E1.65395
;WIDTH:0.762014
G1 X139.736 Y114.676 E1.65603
G1 X140.727 Y115.067 F9000
;WIDTH:0.586078
G1 F1200
G2 X140.761 Y115.126 I-0.034 J0.059 E1.67141
G1 E.17141 F3300
G92 E0
G1 Z.5 F9000
G1 X134.237 Y116.022
G1 Z.2
G1 E1.5 F3300
;WIDTH:0.399999
G1 F1200
G2 X134.135 Y115.594 I-0.965 J0.004 E1.51314
G2 X134.241 Y115.115 I-0.783 J-0.425 E1.52781
G1 X134.241 Y114.129 E1.55709
G1 X134.147 Y113.654 E1.57147
G1 X133.83 Y113.203 E1.58784
;WIDTH:0.409253
G1 X133.282 Y112.909 E1.60678
G1 X105.466 Y106.271 E2.47787
G1 X106.145 Y106.109 E2.49913
G1 X106.178 Y106.064 E2.50083
G1 X134.085 Y112.719 E3.37473
;WIDTH:0.399999
G1 X141.715 Y114.54 E3.60764
G3 X140.433 Y116.013 I-1.242 J0.213 E3.67360
G1 X140.254 Y115.939 E3.67935
G2 X139.465 Y115.101 I-1.727 J0.835 E3.71409
G1 X139.109 Y115.006 E3.72503
G1 X138.561 Y115.067 E3.7414
G2 X137.774 Y115.832 I0.474 J1.275 E3.77482
G3 X137.250 Y115.936 I-0.305 J-0.163 E3.79269
G2 X136.800 Y115.315 I-3.330 J1.940 E3.81549
G2 X135.560 Y115.068 I-0.830 J0.931 E3.85465
G1 X135.036 Y115.418 E3.87336
G1 X134.758 Y115.862 E3.88891
G3 X134.326 Y116.014 I-0.327 J-0.239 E3.90313
G1 E2.40313 F3300
G92 E0
G1 Z.5 F9000
G1 X139.679 Y114.607
G1 Z.2
G1 E1.5 F3300
;WIDTH:0.762014
G1 F1200
G1 X139.078 Y114.464 E1.53694
G1 E.03694 F3300
G92 E0
G1 Z.5 F9000
G1 X109.46 Y112.585
G1 Z.2
G1 E1.5 F3300
;WIDTH:0.399999
G1 F1200
G1 X107.433 Y113.084 E1.56198
G1 X106.827 Y113.368 E1.58185
G1 X106.979 Y112.717 E1.6017
G2 X106.872 Y111.966 I-1.983 J-0.101 E1.62429
G1 X109.372 Y112.564 E1.70061
G1 E.20061 F3300
G92 E0
G1 Z.5 F9000
G1 X104.884 Y114.404
G1 Z.2
G1 E1.5 F3300
;WIDTH:0.522958
G1 F1200
G2 X106.036 Y113.974 I-0.444 J-2.947 E1.54934
G1 X106.201 Y113.797 E1.559
;WIDTH:0.50631
G1 X106.371 Y113.571 E1.5699
;WIDTH:0.533795
G2 X106.568 Y113.076 I-0.310 J-0.410 E1.59247
;WIDTH:0.489197
G1 X106.595 Y112.807 E1.6025
;WIDTH:0.444598
G1 X106.623 Y112.539 E1.6115
;WIDTH:0.399999
G1 X106.514 Y111.962 E1.62893
G1 X106.15 Y111.426 E1.64817
G1 X110.969 Y112.58 E1.7953
G1 X107.518 Y113.431 E1.90083
;WIDTH:0.444598
G1 X107.315 Y113.502 E1.90801
;WIDTH:0.489197
G1 X107.113 Y113.573 E1.91596
;WIDTH:0.533795
G1 X106.91 Y113.644 E1.92474
G1 X106.399 Y114.268 E1.95766
;WIDTH:0.522958
G1 X106.377 Y114.404 E1.96316
G1 X104.974 Y114.404 E2.01916
G1 E.51916 F3300
G92 E0
G1 Z.5 F9000
G1 X97.658 Y118.521
G1 Z.2
G1 E1.5 F3300
;WIDTH:0.399999
G1 F1200
G1 X95.441 Y117.978 E1.56777
G1 X94.825 Y117.885 E1.58627
G3 X94.789 Y117.135 I0.154 J-0.383 E1.61382
G1 X95.441 Y117.022 E1.63347
G1 X100.334 Y115.823 E1.78305
G2 X100.349 Y119.180 I2.873 J1.666 E1.88735
G1 X97.746 Y118.542 E1.96692
G1 X97.573 Y118.868 F9000
G1 F1200
G1 X95.356 Y118.325 E2.03469
G3 X94.611 Y118.180 I0.261 J-3.329 E2.05726
G3 X94.795 Y116.759 I0.370 J-0.674 E2.11170
G1 X95.356 Y116.675 E2.12854
G1 X101.356 Y115.205 E2.31196
G2 X101.356 Y119.795 I1.809 J2.295 E2.46851
G1 X97.661 Y118.889 E2.58147
G1 E1.08147 F3300
G92 E0
G1 Z.5 F9000
G1 X106.872 Y123.034
G1 Z.2
G1 E1.5 F3300
G1 F1200
G2 X106.979 Y122.283 I-1.876 J-0.650 E1.52259
G1 X106.827 Y121.632 E1.54244
G1 X107.433 Y121.916 E1.56231
G1 X109.46 Y122.415 E1.62429
G1 X106.96 Y123.013 E1.70061
G1 X106.15 Y123.574 F9000
G1 F1200
G1 X106.514 Y123.038 E1.71985
G1 X106.622 Y122.295 E1.74214
;WIDTH:0.436569
G1 X106.496 Y121.675 E1.76285
;WIDTH:0.478826
G1 X106.381 Y121.426 E1.77279
;WIDTH:0.522959
G1 X106.036 Y121.026 E1.79387
G2 X104.884 Y120.596 I-1.596 J2.517 E1.84321
G1 X106.377 Y120.596 E1.9028
G1 X106.399 Y120.732 E1.9083
G1 X106.719 Y121.152 E1.92938
;WIDTH:0.478826
G1 X106.939 Y121.317 E1.93935
;WIDTH:0.436569
G1 X107.518 Y121.569 E1.96002
;WIDTH:0.399999
G1 X110.97 Y122.42 E2.06558
G1 X106.238 Y123.553 E2.21005
G1 E.71005 F3300
G92 E0
G1 Z.5 F9000
