; generated by PrusaSlicer 2.6.0+win64 on 2023-06-24 at 11:22:19 UTC
; Postprocessed by [ArcWelder](https://github.com/FormerLurker/ArcWelderLib)
; Copyright(C) 2021 - Brad Hochgesang
; Version: 1.2.0, Branch: HEAD, BuildDate: 2021-11-21T20:25:43Z
; resolution=0.05mm
; path_tolerance=5.0%
; max_radius=9999.00mm
; default_xyz_precision=3
; default_e_precision=5
; extrusion_rate_variance_percent=5.0%








; 

; external perimeters extrusion width = 0.60mm
; perimeters extrusion width = 0.60mm
; infill extrusion width = 0.60mm
; solid infill extrusion width = 0.60mm
; top infill extrusion width = 0.38mm
; first layer extrusion width = 0.60mm

M73 P0 R7


; Pre-Processed for Cancel-Object support by preprocess_cancellation v0.2.0
; 1 known objects
EXCLUDE_OBJECT_DEFINE NAME=Forma_Caixa_id_0_copy_0 CENTER=117.500,117.478 POLYGON=[[107.8,107.8],[107.8,127.2],[127.2,127.2],[127.2,107.8]]
;TYPE:Custom
G90 ; use absolute coordinates
M83 ; extruder relative mode
M104 S205 ; set temporary nozzle temp to prevent oozing during homing
M140 S100 ; set final bed temp
G4 S30 ; allow partial nozzle warmup
G28 ; home all axis
BED_MESH_CALIBRATE
G1 Z50 F240
G1 X2.0 Y10 F3000
M104 S235 ; set final nozzle temp
M190 S100 ; wait for bed temp to stabilize
M109 S235 ; wait for nozzle temp to stabilize
M73 P2 R7
G1 Z0.28 F240
G92 E0
G1 X2.0 Y140 E10 F1500 ; prime the nozzle
M73 P5 R6
G1 X2.3 Y140 F5000
G92 E0
M73 P7 R6
G1 X2.3 Y10 E10 F1200 ; prime the nozzle
G21 ; set units to millimeters
G90 ; use absolute coordinates
M82 ; use absolute distances for extrusion
G92 E0
; Filament gcode
M107
;LAYER_CHANGE
;Z:0.2
;HEIGHT:0.2
;BEFORE_LAYER_CHANGE
;0.2
M117 Layer 1/100 : Ender3-V2_ABS

G1 Z.2 F7800
SET_PRINT_STATS_INFO CURRENT_LAYER=1
;AFTER_LAYER_CHANGE
;0.2
M73 P8 R6
G1 E-1 F2400
G92 E0
G1 X101.93 Y103.074 F7800
G1 E1 F2400
;TYPE:Skirt/Brim
;WIDTH:0.6
G1 F1200
G1 X103.699 Y101.486 E1.11012
G1 X105.893 Y100.57 E1.22025
G1 X107.5 Y100.386 E1.29517
G1 X127.5 Y100.386 E2.2216
G1 X129.844 Y100.783 E2.33172
M73 P9 R6
G1 X131.926 Y101.93 E2.44183
G1 X133.514 Y103.699 E2.55195
G1 X134.43 Y105.893 E2.66208
G1 X134.614 Y107.5 E2.737
G1 X134.614 Y127.5 E3.66343
G1 X134.217 Y129.844 E3.77355
G1 X133.07 Y131.926 E3.88366
G1 X131.301 Y133.514 E3.99378
G1 X129.107 Y134.43 E4.10391
G1 X127.5 Y134.614 E4.17883
G1 X107.5 Y134.614 E5.10526
G1 X105.156 Y134.217 E5.21538
G1 X103.074 Y133.07 E5.32549
G1 X101.486 Y131.301 E5.43561
G1 X100.57 Y129.107 E5.54574
G1 X100.386 Y127.5 E5.62066
G1 X100.386 Y107.5 E6.54709
G1 X100.783 Y105.156 E6.65721
M73 P10 R6
G1 X101.887 Y103.153 E6.76315
G1 X102.388 Y103.443 F7800
G1 F1200
G1 X102.483 Y103.278 E6.77197
G1 X104.233 Y101.815 E6.87763
G1 X107.5 Y100.943 E7.03426
G1 X127.5 Y100.943 E7.96069
G1 X129.747 Y101.34 E8.06639
G1 X131.722 Y102.483 E8.17209
G1 X133.185 Y104.233 E8.27775
G1 X134.057 Y107.5 E8.43438
G1 X134.057 Y127.5 E9.36081
G1 X133.66 Y129.747 E9.46651
G1 X132.517 Y131.722 E9.57221
G1 X130.767 Y133.185 E9.67787
G1 X127.5 Y134.057 E9.8345
G1 X107.5 Y134.057 E10.76093
M73 P11 R6
G1 X105.253 Y133.66 E10.86663
G1 X103.278 Y132.517 E10.97233
G1 X101.815 Y130.767 E11.07799
G1 X100.943 Y127.5 E11.23462
G1 X100.943 Y107.5 E12.16105
G1 X101.34 Y105.253 E12.26675
G1 X102.343 Y103.521 E12.35946
; printing object Forma-Caixa id:0 copy 0
EXCLUDE_OBJECT_START NAME=Forma_Caixa_id_0_copy_0
G1 E11.35946 F2400
G92 E0
G1 X126.643 Y126.643 F7800
G1 E1 F2400
;TYPE:Perimeter
;WIDTH:0.599999
G1 F1200
G1 X108.357 Y126.643 E1.84703
G1 X108.357 Y108.357 E2.69406
M73 P12 R6
G1 X126.643 Y108.357 E3.54109
G1 X126.643 Y126.553 E4.38395
G1 X127.2 Y127.2 F7800
;TYPE:External perimeter
G1 F1200
G1 X107.8 Y127.2 E5.28258
G1 X107.8 Y107.8 E6.18121
G1 X127.2 Y107.8 E7.07984
M73 P13 R6
G1 X127.2 Y127.11 E7.9743
G1 X126.62 Y127.045 F7800
; stop printing object Forma-Caixa id:0 copy 0
EXCLUDE_OBJECT_END NAME=Forma_Caixa_id_0_copy_0
;LAYER_CHANGE
;Z:0.4
;HEIGHT:0.2
;BEFORE_LAYER_CHANGE
;0.4
M117 Layer 2/100 : Ender3-V2_ABS

G1 Z.4 F7800
SET_PRINT_STATS_INFO CURRENT_LAYER=2
;AFTER_LAYER_CHANGE
;0.4
; printing object Forma-Caixa id:0 copy 0
EXCLUDE_OBJECT_START NAME=Forma_Caixa_id_0_copy_0
G1 X126.643 Y126.643
;TYPE:Perimeter
G1 F3000
G1 X108.357 Y126.643 E8.82133
G1 X108.357 Y108.357 E9.66836
G1 X126.643 Y108.357 E10.51539
G1 X126.643 Y126.553 E11.35825
G1 X127.2 Y127.2 F7800
;TYPE:External perimeter
G1 F3000
M73 P14 R6
G1 X107.8 Y127.2 E12.25688
G1 X107.8 Y107.8 E13.15551
G1 X127.2 Y107.8 E14.05414
G1 X127.2 Y127.11 E14.9486
G1 X126.62 Y127.045 F7800
; stop printing object Forma-Caixa id:0 copy 0
EXCLUDE_OBJECT_END NAME=Forma_Caixa_id_0_copy_0
;LAYER_CHANGE
;Z:0.6
;HEIGHT:0.2
;BEFORE_LAYER_CHANGE
;0.6
M117 Layer 3/100 : Ender3-V2_ABS

G1 Z.6 F7800
SET_PRINT_STATS_INFO CURRENT_LAYER=3
;AFTER_LAYER_CHANGE
;0.6
; printing object Forma-Caixa id:0 copy 0
EXCLUDE_OBJECT_START NAME=Forma_Caixa_id_0_copy_0
G1 X126.643 Y126.643
;TYPE:Perimeter
G1 F3000
G1 X108.357 Y126.643 E15.79563
G1 X108.357 Y108.357 E16.64266
G1 X126.643 Y108.357 E17.48969
G1 X126.643 Y126.553 E18.33255
G1 X127.2 Y127.2 F7800
;TYPE:External perimeter
G1 F3000
G1 X107.8 Y127.2 E19.23118
G1 X107.8 Y107.8 E20.12981
G1 X127.2 Y107.8 E21.02844
M73 P15 R6
G1 X127.2 Y127.11 E21.9229
G1 X126.62 Y127.045 F7800
; stop printing object Forma-Caixa id:0 copy 0
EXCLUDE_OBJECT_END NAME=Forma_Caixa_id_0_copy_0
;LAYER_CHANGE
;Z:0.8
;HEIGHT:0.2
;BEFORE_LAYER_CHANGE
;0.8
M117 Layer 4/100 : Ender3-V2_ABS

G1 Z.8 F7800
SET_PRINT_STATS_INFO CURRENT_LAYER=4
;AFTER_LAYER_CHANGE
;0.8
; printing object Forma-Caixa id:0 copy 0
EXCLUDE_OBJECT_START NAME=Forma_Caixa_id_0_copy_0
G1 X126.643 Y126.643
;TYPE:Perimeter
G1 F3000
G1 X108.357 Y126.643 E22.76993
G1 X108.357 Y108.357 E23.61696
G1 X126.643 Y108.357 E24.46399
G1 X126.643 Y126.553 E25.30685
G1 X127.2 Y127.2 F7800
;TYPE:External perimeter
G1 F3000
G1 X107.8 Y127.2 E26.20548
G1 X107.8 Y107.8 E27.10411
G1 X127.2 Y107.8 E28.00274
G1 X127.2 Y127.11 E28.8972
M73 P16 R6
G1 X126.62 Y127.045 F7800
; stop printing object Forma-Caixa id:0 copy 0
EXCLUDE_OBJECT_END NAME=Forma_Caixa_id_0_copy_0
;LAYER_CHANGE
;Z:1
;HEIGHT:0.2
;BEFORE_LAYER_CHANGE
;1
M117 Layer 5/100 : Ender3-V2_ABS

G1 Z1 F7800
SET_PRINT_STATS_INFO CURRENT_LAYER=5
;AFTER_LAYER_CHANGE
;1
; printing object Forma-Caixa id:0 copy 0
EXCLUDE_OBJECT_START NAME=Forma_Caixa_id_0_copy_0
G1 X126.643 Y126.643
;TYPE:Perimeter
G1 F3000
G1 X108.357 Y126.643 E29.74423
G1 X108.357 Y108.357 E30.59126
G1 X126.643 Y108.357 E31.43829
G1 X126.643 Y126.553 E32.28115
G1 X127.2 Y127.2 F7800
;TYPE:External perimeter
G1 F3000
G1 X107.8 Y127.2 E33.17978
G1 X107.8 Y107.8 E34.07841
G1 X127.2 Y107.8 E34.97704
G1 X127.2 Y127.11 E35.8715
G1 X126.62 Y127.045 F7800
; stop printing object Forma-Caixa id:0 copy 0
EXCLUDE_OBJECT_END NAME=Forma_Caixa_id_0_copy_0
;LAYER_CHANGE
;Z:1.2
;HEIGHT:0.2
;BEFORE_LAYER_CHANGE
;1.2
M117 Layer 6/100 : Ender3-V2_ABS

M73 P17 R6
G1 Z1.2 F7800
SET_PRINT_STATS_INFO CURRENT_LAYER=6
;AFTER_LAYER_CHANGE
;1.2
; printing object Forma-Caixa id:0 copy 0
EXCLUDE_OBJECT_START NAME=Forma_Caixa_id_0_copy_0
G1 X126.643 Y126.643
;TYPE:Perimeter
G1 F3000
G1 X108.357 Y126.643 E36.71853
G1 X108.357 Y108.357 E37.56556
G1 X126.643 Y108.357 E38.41259
G1 X126.643 Y126.553 E39.25545
G1 X127.2 Y127.2 F7800
;TYPE:External perimeter
M73 P17 R5
G1 F3000
G1 X107.8 Y127.2 E40.15408
G1 X107.8 Y107.8 E41.05271
G1 X127.2 Y107.8 E41.95134
G1 X127.2 Y127.11 E42.8458
G1 X126.62 Y127.045 F7800
; stop printing object Forma-Caixa id:0 copy 0
EXCLUDE_OBJECT_END NAME=Forma_Caixa_id_0_copy_0
;LAYER_CHANGE
;Z:1.4
;HEIGHT:0.2
;BEFORE_LAYER_CHANGE
;1.4
M117 Layer 7/100 : Ender3-V2_ABS

G1 Z1.4 F7800
SET_PRINT_STATS_INFO CURRENT_LAYER=7
;AFTER_LAYER_CHANGE
;1.4
; printing object Forma-Caixa id:0 copy 0
EXCLUDE_OBJECT_START NAME=Forma_Caixa_id_0_copy_0
G1 X126.643 Y126.643
;TYPE:Perimeter
G1 F3000
G1 X108.357 Y126.643 E43.69283
G1 X108.357 Y108.357 E44.53986
M73 P18 R5
G1 X126.643 Y108.357 E45.38689
G1 X126.643 Y126.553 E46.22975
G1 X127.2 Y127.2 F7800
;TYPE:External perimeter
G1 F3000
G1 X107.8 Y127.2 E47.12838
G1 X107.8 Y107.8 E48.02701
G1 X127.2 Y107.8 E48.92564
G1 X127.2 Y127.11 E49.8201
G1 X126.62 Y127.045 F7800
; stop printing object Forma-Caixa id:0 copy 0
EXCLUDE_OBJECT_END NAME=Forma_Caixa_id_0_copy_0
;LAYER_CHANGE
;Z:1.6
;HEIGHT:0.2
;BEFORE_LAYER_CHANGE
;1.6
M117 Layer 8/100 : Ender3-V2_ABS

G1 Z1.6 F7800
SET_PRINT_STATS_INFO CURRENT_LAYER=8
;AFTER_LAYER_CHANGE
;1.6
; printing object Forma-Caixa id:0 copy 0
EXCLUDE_OBJECT_START NAME=Forma_Caixa_id_0_copy_0
G1 X126.643 Y126.643
;TYPE:Perimeter
G1 F3000
G1 X108.357 Y126.643 E50.66713
G1 X108.357 Y108.357 E51.51416
G1 X126.643 Y108.357 E52.36119
M73 P19 R5
G1 X126.643 Y126.553 E53.20405
G1 X127.2 Y127.2 F7800
;TYPE:External perimeter
G1 F3000
G1 X107.8 Y127.2 E54.10268
G1 X107.8 Y107.8 E55.00131
G1 X127.2 Y107.8 E55.89994
G1 X127.2 Y127.11 E56.7944
G1 X126.62 Y127.045 F7800
; stop printing object Forma-Caixa id:0 copy 0
EXCLUDE_OBJECT_END NAME=Forma_Caixa_id_0_copy_0
;LAYER_CHANGE
;Z:1.8
;HEIGHT:0.2
;BEFORE_LAYER_CHANGE
;1.8
M117 Layer 9/100 : Ender3-V2_ABS

G1 Z1.8 F7800
SET_PRINT_STATS_INFO CURRENT_LAYER=9
;AFTER_LAYER_CHANGE
;1.8
; printing object Forma-Caixa id:0 copy 0
EXCLUDE_OBJECT_START NAME=Forma_Caixa_id_0_copy_0
G1 X126.643 Y126.643
;TYPE:Perimeter
G1 F3000
G1 X108.357 Y126.643 E57.64143
G1 X108.357 Y108.357 E58.48846
G1 X126.643 Y108.357 E59.33549
G1 X126.643 Y126.553 E60.17835
G1 X127.2 Y127.2 F7800
;TYPE:External perimeter
M73 P20 R5
G1 F3000
G1 X107.8 Y127.2 E61.07698
G1 X107.8 Y107.8 E61.97561
G1 X127.2 Y107.8 E62.87424
G1 X127.2 Y127.11 E63.7687
G1 X126.62 Y127.045 F7800
; stop printing object Forma-Caixa id:0 copy 0
EXCLUDE_OBJECT_END NAME=Forma_Caixa_id_0_copy_0
;LAYER_CHANGE
;Z:2
;HEIGHT:0.2
;BEFORE_LAYER_CHANGE
;2
M117 Layer 10/100 : Ender3-V2_ABS

G1 Z2 F7800
SET_PRINT_STATS_INFO CURRENT_LAYER=10
;AFTER_LAYER_CHANGE
;2
; printing object Forma-Caixa id:0 copy 0
EXCLUDE_OBJECT_START NAME=Forma_Caixa_id_0_copy_0
G1 X126.643 Y126.643
;TYPE:Perimeter
G1 F3000
G1 X108.357 Y126.643 E64.61573
G1 X108.357 Y108.357 E65.46276
G1 X126.643 Y108.357 E66.30979
G1 X126.643 Y126.553 E67.15265
G1 X127.2 Y127.2 F7800
;TYPE:External perimeter
G1 F3000
G1 X107.8 Y127.2 E68.05128
G1 X107.8 Y107.8 E68.94991
M73 P21 R5
G1 X127.2 Y107.8 E69.84854
G1 X127.2 Y127.11 E70.743
G1 X126.62 Y127.045 F7800
; stop printing object Forma-Caixa id:0 copy 0
EXCLUDE_OBJECT_END NAME=Forma_Caixa_id_0_copy_0
;LAYER_CHANGE
;Z:2.2
;HEIGHT:0.2
;BEFORE_LAYER_CHANGE
;2.2
M117 Layer 11/100 : Ender3-V2_ABS

G1 Z2.2 F7800
SET_PRINT_STATS_INFO CURRENT_LAYER=11
;AFTER_LAYER_CHANGE
;2.2
; printing object Forma-Caixa id:0 copy 0
EXCLUDE_OBJECT_START NAME=Forma_Caixa_id_0_copy_0
G1 X126.643 Y126.643
;TYPE:Perimeter
G1 F3000
G1 X108.357 Y126.643 E71.59003
G1 X108.357 Y108.357 E72.43706
G1 X126.643 Y108.357 E73.28409
G1 X126.643 Y126.553 E74.12695
G1 X127.2 Y127.2 F7800
;TYPE:External perimeter
G1 F3000
G1 X107.8 Y127.2 E75.02558
G1 X107.8 Y107.8 E75.92421
G1 X127.2 Y107.8 E76.82284
M73 P22 R5
G1 X127.2 Y127.11 E77.7173
G1 X126.62 Y127.045 F7800
; stop printing object Forma-Caixa id:0 copy 0
EXCLUDE_OBJECT_END NAME=Forma_Caixa_id_0_copy_0
;LAYER_CHANGE
;Z:2.4
;HEIGHT:0.2
;BEFORE_LAYER_CHANGE
;2.4
M117 Layer 12/100 : Ender3-V2_ABS

G1 Z2.4 F7800
SET_PRINT_STATS_INFO CURRENT_LAYER=12
;AFTER_LAYER_CHANGE
;2.4
; printing object Forma-Caixa id:0 copy 0
EXCLUDE_OBJECT_START NAME=Forma_Caixa_id_0_copy_0
G1 X126.643 Y126.643
;TYPE:Perimeter
G1 F3000
G1 X108.357 Y126.643 E78.56433
G1 X108.357 Y108.357 E79.41136
G1 X126.643 Y108.357 E80.25839
G1 X126.643 Y126.553 E81.10125
G1 X127.2 Y127.2 F7800
;TYPE:External perimeter
G1 F3000
G1 X107.8 Y127.2 E81.99988
G1 X107.8 Y107.8 E82.89851
G1 X127.2 Y107.8 E83.79714
G1 X127.2 Y127.11 E84.6916
M73 P23 R5
G1 X126.62 Y127.045 F7800
; stop printing object Forma-Caixa id:0 copy 0
EXCLUDE_OBJECT_END NAME=Forma_Caixa_id_0_copy_0
;LAYER_CHANGE
;Z:2.6
;HEIGHT:0.2
;BEFORE_LAYER_CHANGE
;2.6
M117 Layer 13/100 : Ender3-V2_ABS

G1 Z2.6 F7800
SET_PRINT_STATS_INFO CURRENT_LAYER=13
;AFTER_LAYER_CHANGE
;2.6
; printing object Forma-Caixa id:0 copy 0
EXCLUDE_OBJECT_START NAME=Forma_Caixa_id_0_copy_0
G1 X126.643 Y126.643
;TYPE:Perimeter
G1 F3000
G1 X108.357 Y126.643 E85.53863
G1 X108.357 Y108.357 E86.38566
G1 X126.643 Y108.357 E87.23269
G1 X126.643 Y126.553 E88.07555
G1 X127.2 Y127.2 F7800
;TYPE:External perimeter
G1 F3000
G1 X107.8 Y127.2 E88.97418
G1 X107.8 Y107.8 E89.87281
G1 X127.2 Y107.8 E90.77144
G1 X127.2 Y127.11 E91.6659
G1 X126.62 Y127.045 F7800
; stop printing object Forma-Caixa id:0 copy 0
EXCLUDE_OBJECT_END NAME=Forma_Caixa_id_0_copy_0
;LAYER_CHANGE
;Z:2.8
;HEIGHT:0.2
;BEFORE_LAYER_CHANGE
;2.8
M117 Layer 14/100 : Ender3-V2_ABS

G1 Z2.8 F7800
SET_PRINT_STATS_INFO CURRENT_LAYER=14
;AFTER_LAYER_CHANGE
;2.8
; printing object Forma-Caixa id:0 copy 0
EXCLUDE_OBJECT_START NAME=Forma_Caixa_id_0_copy_0
M73 P24 R5
G1 X126.643 Y126.643
;TYPE:Perimeter
G1 F3000
G1 X108.357 Y126.643 E92.51293
G1 X108.357 Y108.357 E93.35996
G1 X126.643 Y108.357 E94.20699
G1 X126.643 Y126.553 E95.04985
G1 X127.2 Y127.2 F7800
;TYPE:External perimeter
G1 F3000
G1 X107.8 Y127.2 E95.94848
G1 X107.8 Y107.8 E96.84711
G1 X127.2 Y107.8 E97.74574
G1 X127.2 Y127.11 E98.6402
G1 X126.62 Y127.045 F7800
; stop printing object Forma-Caixa id:0 copy 0
EXCLUDE_OBJECT_END NAME=Forma_Caixa_id_0_copy_0
;LAYER_CHANGE
;Z:3
;HEIGHT:0.2
;BEFORE_LAYER_CHANGE
;3
M117 Layer 15/100 : Ender3-V2_ABS

G1 Z3 F7800
SET_PRINT_STATS_INFO CURRENT_LAYER=15
;AFTER_LAYER_CHANGE
;3
; printing object Forma-Caixa id:0 copy 0
EXCLUDE_OBJECT_START NAME=Forma_Caixa_id_0_copy_0
G1 X126.643 Y126.643
;TYPE:Perimeter
G1 F3000
G1 X108.357 Y126.643 E99.48723
G1 X108.357 Y108.357 E100.33426
G1 X126.643 Y108.357 E101.18129
M73 P25 R5
G1 X126.643 Y126.553 E102.02415
G1 X127.2 Y127.2 F7800
;TYPE:External perimeter
G1 F3000
G1 X107.8 Y127.2 E102.92278
G1 X107.8 Y107.8 E103.82141
G1 X127.2 Y107.8 E104.72004
G1 X127.2 Y127.11 E105.6145
G1 X126.62 Y127.045 F7800
; stop printing object Forma-Caixa id:0 copy 0
EXCLUDE_OBJECT_END NAME=Forma_Caixa_id_0_copy_0
;LAYER_CHANGE
;Z:3.2
;HEIGHT:0.2
;BEFORE_LAYER_CHANGE
;3.2
M117 Layer 16/100 : Ender3-V2_ABS

G1 Z3.2 F7800
SET_PRINT_STATS_INFO CURRENT_LAYER=16
;AFTER_LAYER_CHANGE
;3.2
; printing object Forma-Caixa id:0 copy 0
EXCLUDE_OBJECT_START NAME=Forma_Caixa_id_0_copy_0
G1 X126.643 Y126.643
;TYPE:Perimeter
G1 F3000
G1 X108.357 Y126.643 E106.46153
G1 X108.357 Y108.357 E107.30856
G1 X126.643 Y108.357 E108.15559
G1 X126.643 Y126.553 E108.99845
M73 P26 R5
G1 X127.2 Y127.2 F7800
;TYPE:External perimeter
G1 F3000
G1 X107.8 Y127.2 E109.89708
G1 X107.8 Y107.8 E110.79571
G1 X127.2 Y107.8 E111.69434
G1 X127.2 Y127.11 E112.5888
G1 X126.62 Y127.045 F7800
; stop printing object Forma-Caixa id:0 copy 0
EXCLUDE_OBJECT_END NAME=Forma_Caixa_id_0_copy_0
;LAYER_CHANGE
;Z:3.4
;HEIGHT:0.2
;BEFORE_LAYER_CHANGE
;3.4
M117 Layer 17/100 : Ender3-V2_ABS

G1 Z3.4 F7800
SET_PRINT_STATS_INFO CURRENT_LAYER=17
;AFTER_LAYER_CHANGE
;3.4
; printing object Forma-Caixa id:0 copy 0
EXCLUDE_OBJECT_START NAME=Forma_Caixa_id_0_copy_0
G1 X126.643 Y126.643
;TYPE:Perimeter
G1 F3000
G1 X108.357 Y126.643 E113.43583
G1 X108.357 Y108.357 E114.28286
G1 X126.643 Y108.357 E115.12989
G1 X126.643 Y126.553 E115.97275
G1 X127.2 Y127.2 F7800
;TYPE:External perimeter
M73 P27 R5
G1 F3000
G1 X107.8 Y127.2 E116.87138
G1 X107.8 Y107.8 E117.77001
G1 X127.2 Y107.8 E118.66864
G1 X127.2 Y127.11 E119.5631
G1 X126.62 Y127.045 F7800
; stop printing object Forma-Caixa id:0 copy 0
EXCLUDE_OBJECT_END NAME=Forma_Caixa_id_0_copy_0
;LAYER_CHANGE
;Z:3.6
;HEIGHT:0.2
;BEFORE_LAYER_CHANGE
;3.6
M117 Layer 18/100 : Ender3-V2_ABS

G1 Z3.6 F7800
SET_PRINT_STATS_INFO CURRENT_LAYER=18
;AFTER_LAYER_CHANGE
;3.6
; printing object Forma-Caixa id:0 copy 0
EXCLUDE_OBJECT_START NAME=Forma_Caixa_id_0_copy_0
G1 X126.643 Y126.643
;TYPE:Perimeter
G1 F3000
G1 X108.357 Y126.643 E120.41013
G1 X108.357 Y108.357 E121.25716
G1 X126.643 Y108.357 E122.10419
G1 X126.643 Y126.553 E122.94705
G1 X127.2 Y127.2 F7800
;TYPE:External perimeter
