; generated by PrusaSlicer 2.6.0+win64 on 2023-06-30 at 21:39:32 UTC
; Postprocessed by [ArcWelder](https://github.com/FormerLurker/ArcWelderLib)
; Copyright(C) 2021 - Brad Hochgesang
; Version: 1.2.0, Branch: HEAD, BuildDate: 2021-11-21T20:25:43Z
; resolution=0.05mm
; path_tolerance=5.0%
; max_radius=9999.00mm
; default_xyz_precision=3
; default_e_precision=5
; extrusion_rate_variance_percent=5.0%








; 

; external perimeters extrusion width = 0.60mm
; perimeters extrusion width = 0.60mm
; infill extrusion width = 0.60mm
; solid infill extrusion width = 0.60mm
; top infill extrusion width = 0.38mm
; support material extrusion width = 0.60mm
; first layer extrusion width = 0.60mm

M73 P0 R13


; Pre-Processed for Cancel-Object support by preprocess_cancellation v0.2.0
; 1 known objects
EXCLUDE_OBJECT_DEFINE NAME=Forma_Caixa_id_0_copy_0 CENTER=117.505,117.521 POLYGON=[[101.55,101.55],[101.55,133.45],[133.45,133.45],[133.45,101.55]]
;TYPE:Custom
G90 ; use absolute coordinates
M83 ; extruder relative mode
M104 S205 ; set temporary nozzle temp to prevent oozing during homing
M140 S65 ; set final bed temp
G4 S30 ; allow partial nozzle warmup
G28 ; home all axis
BED_MESH_CALIBRATE
G1 Z50 F240
G1 X2.0 Y10 F3000
M104 S210 ; set final nozzle temp
M190 S65 ; wait for bed temp to stabilize
M109 S210 ; wait for nozzle temp to stabilize
M73 P1 R13
G1 Z0.28 F240
G92 E0
G1 X2.0 Y140 E10 F1500 ; prime the nozzle
M73 P3 R13
G1 X2.3 Y140 F5000
G92 E0
M73 P3 R12
G1 X2.3 Y10 E10 F1200 ; prime the nozzle
G21 ; set units to millimeters
G90 ; use absolute coordinates
M82 ; use absolute distances for extrusion
G92 E0
; Filament gcode
M107
;LAYER_CHANGE
;Z:0.2
;HEIGHT:0.2
;BEFORE_LAYER_CHANGE
;0.2
M117 Layer 1/121 : klipper-PLA-0.6

G1 Z.2 F9000
SET_PRINT_STATS_INFO CURRENT_LAYER=1
;AFTER_LAYER_CHANGE
;0.2
M73 P4 R12
G1 E-1.5 F3300
G92 E0
G1 Z.5 F9000
G1 X97.704 Y97.704
G1 Z.2
G1 E1.5 F3300
;TYPE:Skirt/Brim
;WIDTH:0.6
G1 F1200
G1 X98.495 Y96.913 E1.55182
G1 X100.364 Y95.605 E1.65749
G1 X103.132 Y94.993 E1.7888
G1 X131.868 Y94.993 E3.11989
G1 X134.115 Y95.39 E3.22559
G1 X136.505 Y96.913 E3.35687
G1 X138.087 Y98.495 E3.4605
M73 P5 R12
G1 X139.395 Y100.364 E3.56617
G1 X140.007 Y103.132 E3.69748
G1 X140.007 Y131.868 E5.02857
G1 X139.61 Y134.115 E5.13427
G1 X138.087 Y136.505 E5.26555
G1 X136.505 Y138.087 E5.36918
G1 X134.636 Y139.395 E5.47485
G1 X131.868 Y140.007 E5.60616
G1 X103.132 Y140.007 E6.93725
G1 X100.885 Y139.61 E7.04295
G1 X98.495 Y138.087 E7.17423
G1 X96.913 Y136.505 E7.27786
G1 X95.605 Y134.636 E7.38353
G1 X94.993 Y131.868 E7.51484
G1 X94.993 Y103.132 E8.84593
G1 X95.39 Y100.885 E8.95163
G1 X96.913 Y98.495 E9.08291
G1 X97.641 Y97.768 E9.13057
; printing object Forma-Caixa id:0 copy 0
EXCLUDE_OBJECT_START NAME=Forma_Caixa_id_0_copy_0
G1 E7.63057 F3300
G92 E0
G1 Z.5 F9000
G1 X133.45 Y103.132
G1 Z.2
G1 E1.5 F3300
;TYPE:Support material
G1 F1200
G1 X133.45 Y131.868 E2.83109
G1 X131.868 Y133.45 E2.93472
M73 P6 R12
G1 X103.132 Y133.45 E4.26581
G1 X101.55 Y131.868 E4.36944
G1 X101.55 Y103.132 E5.70053
G1 X103.132 Y101.55 E5.80416
G1 X131.868 Y101.55 E7.13525
G1 X133.391 Y103.073 E7.23502
G1 X132.608 Y102.645 F9000
G1 F1200
G1 X102.746 Y102.645 E8.61827
G1 X102.127 Y103.264 E8.65882
G1 X132.873 Y103.264 E10.08302
G1 X132.949 Y103.339 E10.08797
M73 P7 R12
G1 X132.949 Y103.883 E10.11317
G1 X102.051 Y103.883 E11.54441
G1 X102.051 Y104.501 E11.57304
G1 X132.949 Y104.501 E13.00428
G1 X132.949 Y105.12 E13.03295
G1 X102.051 Y105.12 E14.46419
G1 X102.051 Y105.739 E14.49286
G1 X132.949 Y105.739 E15.9241
G1 X132.949 Y106.358 E15.95277
G1 X102.051 Y106.358 E17.38401
G1 X102.051 Y106.977 E17.41268
M73 P8 R12
G1 X132.949 Y106.977 E18.84392
G1 X132.949 Y107.596 E18.87259
G1 X102.051 Y107.596 E20.30383
G1 X102.051 Y108.215 E20.3325
G1 X132.949 Y108.215 E21.76374
G1 X132.949 Y108.834 E21.79241
G1 X102.051 Y108.834 E23.22365
G1 X102.051 Y109.453 E23.25232
G1 X132.949 Y109.453 E24.68356
G1 X132.949 Y110.072 E24.71223
M73 P9 R12
G1 X102.051 Y110.072 E26.14347
G1 X102.051 Y110.691 E26.17214
G1 X132.949 Y110.691 E27.60338
G1 X132.949 Y111.31 E27.63205
G1 X102.051 Y111.31 E29.06329
G1 X102.051 Y111.929 E29.09196
G1 X132.949 Y111.929 E30.5232
G1 X132.949 Y112.548 E30.55187
G1 X102.051 Y112.548 E31.98311
G1 X102.051 Y113.167 E32.01178
M73 P10 R12
G1 X132.949 Y113.167 E33.44302
G1 X132.949 Y113.786 E33.47169
G1 X102.051 Y113.786 E34.90293
G1 X102.051 Y114.405 E34.9316
G1 X132.949 Y114.405 E36.36284
G1 X132.949 Y115.024 E36.39151
G1 X102.051 Y115.024 E37.82275
G1 X102.051 Y115.643 E37.85142
G1 X132.949 Y115.643 E39.28266
G1 X132.949 Y116.262 E39.31133
M73 P11 R12
G1 X102.051 Y116.262 E40.74257
G1 X102.051 Y116.881 E40.77124
M73 P11 R11
G1 X132.949 Y116.881 E42.20248
G1 X132.949 Y117.5 E42.23115
G1 X102.051 Y117.5 E43.66239
G1 X102.051 Y118.119 E43.69106
G1 X132.949 Y118.119 E45.1223
G1 X132.949 Y118.738 E45.15097
G1 X102.051 Y118.738 E46.58221
G1 X102.051 Y119.357 E46.61088
G1 X132.949 Y119.357 E48.04212
G1 X132.949 Y119.976 E48.07079
M73 P12 R11
G1 X102.051 Y119.976 E49.50203
G1 X102.051 Y120.595 E49.5307
G1 X132.949 Y120.595 E50.96194
G1 X132.949 Y121.214 E50.99061
G1 X102.051 Y121.214 E52.42185
G1 X102.051 Y121.833 E52.45052
G1 X132.949 Y121.833 E53.88176
G1 X132.949 Y122.452 E53.91043
G1 X102.051 Y122.452 E55.34167
G1 X102.051 Y123.071 E55.37034
M73 P13 R11
G1 X132.949 Y123.071 E56.80158
G1 X132.949 Y123.69 E56.83025
G1 X102.051 Y123.69 E58.26149
G1 X102.051 Y124.309 E58.29016
G1 X132.949 Y124.309 E59.7214
G1 X132.949 Y124.928 E59.75007
G1 X102.051 Y124.928 E61.18131
G1 X102.051 Y125.547 E61.20998
G1 X132.949 Y125.547 E62.64122
G1 X132.949 Y126.166 E62.66989
M73 P14 R11
G1 X102.051 Y126.166 E64.10113
G1 X102.051 Y126.785 E64.1298
G1 X132.949 Y126.785 E65.56104
G1 X132.949 Y127.404 E65.58971
G1 X102.051 Y127.404 E67.02095
G1 X102.051 Y128.023 E67.04962
G1 X132.949 Y128.023 E68.48086
G1 X132.949 Y128.642 E68.50953
G1 X102.051 Y128.642 E69.94077
G1 X102.051 Y129.261 E69.96944
M73 P15 R11
G1 X132.949 Y129.261 E71.40068
G1 X132.949 Y129.88 E71.42935
G1 X102.051 Y129.88 E72.86059
G1 X102.051 Y130.499 E72.88926
G1 X132.949 Y130.499 E74.3205
G1 X132.949 Y131.117 E74.34913
G1 X102.051 Y131.117 E75.78037
G1 X102.051 Y131.661 E75.80557
G1 X102.127 Y131.736 E75.81052
G1 X132.873 Y131.736 E77.23472
G1 X132.254 Y132.355 E77.27527
M73 P16 R11
G1 X102.392 Y132.355 E78.65852
; stop printing object Forma-Caixa id:0 copy 0
EXCLUDE_OBJECT_END NAME=Forma_Caixa_id_0_copy_0
;LAYER_CHANGE
;Z:0.65
;HEIGHT:0.45
;BEFORE_LAYER_CHANGE
;0.65
M117 Layer 2/121 : klipper-PLA-0.6

G1 Z.65 F9000
SET_PRINT_STATS_INFO CURRENT_LAYER=2
;AFTER_LAYER_CHANGE
;0.65
M104 S208 ; set temperature
M140 S60 ; set bed temperature
; printing object Forma-Caixa id:0 copy 0
EXCLUDE_OBJECT_START NAME=Forma_Caixa_id_0_copy_0
G1 E77.15852 F3300
G92 E0
G1 Z.95 F9000
G1 X103.778 Y130.17
G1 Z.65
G1 E1.5 F3300
;TYPE:Support material interface
G1 F3600
G1 X104.579 Y130.971 E1.60669
G1 X105.367 Y130.971 E1.68091
G1 X104.029 Y129.633 E1.85913
G1 X104.029 Y128.845 E1.93335
G1 X106.155 Y130.971 E2.21653
G1 X106.943 Y130.971 E2.29075
G1 X104.029 Y128.057 E2.67889
G1 X104.029 Y127.269 E2.75311
G1 X107.731 Y130.971 E3.24621
G1 X108.518 Y130.971 E3.32033
G1 X104.029 Y126.482 E3.91826
G1 X104.029 Y125.694 E3.99248
G1 X109.306 Y130.971 E4.69537
G1 X110.094 Y130.971 E4.76959
G1 X104.029 Y124.906 E5.57744
G1 X104.029 Y124.118 E5.65166
G1 X110.882 Y130.971 E6.56447
G1 X111.67 Y130.971 E6.63869
G1 X104.029 Y123.33 E7.65646
G1 X104.029 Y122.542 E7.73068
G1 X112.458 Y130.971 E8.85341
G1 X113.245 Y130.971 E8.92753
G1 X104.029 Y121.755 E10.15509
G1 X104.029 Y120.967 E10.22931
G1 X114.033 Y130.971 E11.56183
G1 X114.821 Y130.971 E11.63605
G1 X104.029 Y120.179 E13.07353
G1 X104.029 Y119.391 E13.14775
G1 X115.609 Y130.971 E14.69019
G1 X116.397 Y130.971 E14.76441
G1 X104.029 Y118.603 E16.41181
G1 X104.029 Y117.815 E16.48603
G1 X117.185 Y130.971 E18.23839
G1 X117.972 Y130.971 E18.31251
M73 P17 R11
G1 X104.029 Y117.028 E20.1697
G1 X104.029 Y116.24 E20.24392
G1 X118.76 Y130.971 E22.20607
G1 X119.548 Y130.971 E22.28029
G1 X104.029 Y115.452 E24.3474
G1 X104.029 Y114.664 E24.42162
G1 X120.336 Y130.971 E26.59369
G1 X121.124 Y130.971 E26.66791
G1 X104.029 Y113.876 E28.94494
G1 X104.029 Y113.088 E29.01916
G1 X121.911 Y130.971 E31.40109
G1 X122.699 Y130.971 E31.47531
G1 X104.029 Y112.301 E33.96213
G1 X104.029 Y111.513 E34.03635
G1 X123.487 Y130.971 E36.62813
G1 X124.275 Y130.971 E36.70235
G1 X104.029 Y110.725 E39.39909
G1 X104.029 Y109.937 E39.47331
G1 X125.063 Y130.971 E42.27501
G1 X125.851 Y130.971 E42.34923
G1 X104.029 Y109.149 E45.25589
G1 X104.029 Y108.362 E45.33001
G1 X126.638 Y130.971 E48.3415
G1 X127.426 Y130.971 E48.41572
G1 X104.029 Y107.574 E51.53217
G1 X104.029 Y106.786 E51.60639
G1 X128.214 Y130.971 E54.8278
G1 X129.002 Y130.971 E54.90202
M73 P18 R11
G1 X104.029 Y105.998 E58.22839
G1 X104.029 Y105.21 E58.30261
G1 X129.79 Y130.971 E61.73394
G1 X130.578 Y130.971 E61.80816
G1 X104.029 Y104.422 E65.34445
G1 X104.029 Y104.158 E65.36932
G1 X104.158 Y104.029 E65.3865
G1 X104.423 Y104.029 E65.41146
G1 X130.971 Y130.577 E68.94762
G1 X130.971 Y129.79 E69.02174
G1 X105.21 Y104.029 E72.45307
G1 X105.998 Y104.029 E72.52729
G1 X130.971 Y129.002 E75.85366
G1 X130.971 Y128.214 E75.92788
M73 P18 R10
G1 X106.786 Y104.029 E79.14929
G1 X107.574 Y104.029 E79.22351
G1 X130.971 Y127.426 E82.33996
G1 X130.971 Y126.638 E82.41418
G1 X108.362 Y104.029 E85.42567
G1 X109.15 Y104.029 E85.49989
G1 X130.971 Y125.851 E88.40648
G1 X130.971 Y125.063 E88.4807
G1 X109.937 Y104.029 E91.2824
G1 X110.725 Y104.029 E91.35662
G1 X130.971 Y124.275 E94.05336
G1 X130.971 Y123.487 E94.12758
M73 P19 R10
G1 X111.513 Y104.029 E96.71936
G1 X112.301 Y104.029 E96.79358
G1 X130.971 Y122.699 E99.2804
G1 X130.971 Y121.911 E99.35462
G1 X113.089 Y104.029 E101.73648
G1 X113.876 Y104.029 E101.8106
G1 X130.971 Y121.124 E104.08763
G1 X130.971 Y120.336 E104.16185
G1 X114.664 Y104.029 E106.33392
G1 X115.452 Y104.029 E106.40814
G1 X130.971 Y119.548 E108.47525
G1 X130.971 Y118.76 E108.54947
G1 X116.24 Y104.029 E110.51162
G1 X117.028 Y104.029 E110.58584
G1 X130.971 Y117.972 E112.44303
G1 X130.971 Y117.184 E112.51725
G1 X117.816 Y104.029 E114.26948
G1 X118.603 Y104.029 E114.3436
G1 X130.971 Y116.397 E115.991
G1 X130.971 Y115.609 E116.06522
G1 X119.391 Y104.029 E117.60766
G1 X120.179 Y104.029 E117.68188
G1 X130.971 Y114.821 E119.11936
G1 X130.971 Y114.033 E119.19358
G1 X120.967 Y104.029 E120.5261
G1 X121.755 Y104.029 E120.60032
G1 X130.971 Y113.245 E121.82788
G1 X130.971 Y112.457 E121.9021
G1 X122.543 Y104.029 E123.0247
G1 X123.33 Y104.029 E123.09882
G1 X130.971 Y111.67 E124.11659
G1 X130.971 Y110.882 E124.19081
G1 X124.118 Y104.029 E125.10362
G1 X124.906 Y104.029 E125.17784
G1 X130.971 Y110.094 E125.98569
M73 P20 R10
G1 X130.971 Y109.306 E126.05991
G1 X125.694 Y104.029 E126.7628
G1 X126.482 Y104.029 E126.83702
G1 X130.971 Y108.518 E127.43495
G1 X130.971 Y107.73 E127.50917
G1 X127.27 Y104.029 E128.00214
G1 X128.057 Y104.029 E128.07626
G1 X130.971 Y106.943 E128.4644
G1 X130.971 Y106.155 E128.53862
G1 X128.845 Y104.029 E128.8218
G1 X129.633 Y104.029 E128.89602
G1 X130.971 Y105.367 E129.07424
G1 X130.971 Y104.579 E129.14846
G1 X130.17 Y103.778 E129.25515
; stop printing object Forma-Caixa id:0 copy 0
EXCLUDE_OBJECT_END NAME=Forma_Caixa_id_0_copy_0
M106 S255
;LAYER_CHANGE
;Z:1.1
;HEIGHT:0.45
;BEFORE_LAYER_CHANGE
;1.1
M117 Layer 3/121 : klipper-PLA-0.6

G1 Z1.1 F9000
SET_PRINT_STATS_INFO CURRENT_LAYER=3
;AFTER_LAYER_CHANGE
;1.1
; printing object Forma-Caixa id:0 copy 0
EXCLUDE_OBJECT_START NAME=Forma_Caixa_id_0_copy_0
G1 E127.75515 F3300
G92 E0
G1 Z1.4 F9000
G1 X104.278 Y105.118
G1 Z1.1
G1 E1.5 F3300
G1 F3600
G1 X104.867 Y104.529 E1.57845
G1 X105.655 Y104.529 E1.65267
G1 X104.529 Y105.655 E1.80265
G1 X104.529 Y106.443 E1.87687
G1 X106.443 Y104.529 E2.13181
G1 X107.23 Y104.529 E2.20593
G1 X104.529 Y107.23 E2.5657
G1 X104.529 Y108.018 E2.63992
G1 X108.018 Y104.529 E3.10465
G1 X108.806 Y104.529 E3.17887
G1 X104.529 Y108.806 E3.74856
G1 X104.529 Y109.594 E3.82278
G1 X109.594 Y104.529 E4.49743
G1 X110.382 Y104.529 E4.57165
G1 X104.529 Y110.382 E5.35126
G1 X104.529 Y111.17 E5.42548
G1 X111.17 Y104.529 E6.31005
G1 X111.957 Y104.529 E6.38417
G1 X104.529 Y111.957 E7.37357
G1 X104.529 Y112.745 E7.44779
G1 X112.745 Y104.529 E8.54215
G1 X113.533 Y104.529 E8.61637
G1 X104.529 Y113.533 E9.81569
G1 X104.529 Y114.321 E9.88991
G1 X114.321 Y104.529 E11.19419
G1 X115.109 Y104.529 E11.26841
G1 X104.529 Y115.109 E12.67765
G1 X104.529 Y115.897 E12.75187
G1 X115.897 Y104.529 E14.26607
G1 X116.684 Y104.529 E14.34019
G1 X104.529 Y116.684 E15.95922
G1 X104.529 Y117.472 E16.03344
G1 X117.472 Y104.529 E17.75743
G1 X118.26 Y104.529 E17.83165
G1 X104.529 Y118.26 E19.6606
G1 X104.529 Y119.048 E19.73482
G1 X119.048 Y104.529 E21.66873
G1 X119.836 Y104.529 E21.74295
M73 P21 R10
G1 X104.529 Y119.836 E23.78182
G1 X104.529 Y120.624 E23.85604
G1 X120.624 Y104.529 E25.99987
G1 X121.411 Y104.529 E26.07399
G1 X104.529 Y121.411 E28.32265
G1 X104.529 Y122.199 E28.39687
G1 X122.199 Y104.529 E30.75049
G1 X122.987 Y104.529 E30.82471
G1 X104.529 Y122.987 E33.28329
G1 X104.529 Y123.775 E33.35751
G1 X123.775 Y104.529 E35.92105
G1 X124.563 Y104.529 E35.99527
G1 X104.529 Y124.563 E38.66377
G1 X104.529 Y125.351 E38.73799
G1 X125.351 Y104.529 E41.51145
G1 X126.138 Y104.529 E41.58557
G1 X104.529 Y126.138 E44.46386
G1 X104.529 Y126.926 E44.53808
G1 X126.926 Y104.529 E47.52133
G1 X127.714 Y104.529 E47.59555
G1 X104.529 Y127.714 E50.68376
G1 X104.529 Y128.502 E50.75798
G1 X128.502 Y104.529 E53.95115
G1 X129.29 Y104.529 E54.02537
G1 X104.529 Y129.29 E57.3235
G1 X104.529 Y130.077 E57.39762
G1 X130.077 Y104.529 E60.80058
G1 X130.471 Y104.529 E60.83769
M73 P22 R10
G1 X130.471 Y104.922 E60.8747
G1 X104.922 Y130.471 E64.27779
G1 X105.71 Y130.471 E64.35201
G1 X130.471 Y105.71 E67.65014
G1 X130.471 Y106.498 E67.72436
G1 X106.498 Y130.471 E70.91753
G1 X107.286 Y130.471 E70.99175
G1 X130.471 Y107.286 E74.07996
G1 X130.471 Y108.074 E74.15418
G1 X108.074 Y130.471 E77.13743
G1 X108.862 Y130.471 E77.21165
G1 X130.471 Y108.862 E80.08994
G1 X130.471 Y109.649 E80.16406
G1 X109.649 Y130.471 E82.93752
G1 X110.437 Y130.471 E83.01174
G1 X130.471 Y110.437 E85.68024
G1 X130.471 Y111.225 E85.75446
G1 X111.225 Y130.471 E88.318
G1 X112.013 Y130.471 E88.39222
G1 X130.471 Y112.013 E90.8508
G1 X130.471 Y112.801 E90.92502
G1 X112.801 Y130.471 E93.27864
G1 X113.588 Y130.471 E93.35276
G1 X130.471 Y113.588 E95.60155
G1 X130.471 Y114.376 E95.67577
M73 P23 R10
G1 X114.376 Y130.471 E97.8196
G1 X115.164 Y130.471 E97.89382
G1 X130.471 Y115.164 E99.93269
G1 X130.471 Y115.952 E100.00691
G1 X115.952 Y130.471 E101.94082
G1 X116.74 Y130.471 E102.01504
G1 X130.471 Y116.74 E103.84399
G1 X130.471 Y117.528 E103.91821
G1 X117.528 Y130.471 E105.6422
G1 X118.315 Y130.471 E105.71632
G1 X130.471 Y118.315 E107.33548
G1 X130.471 Y119.103 E107.4097
G1 X119.103 Y130.471 E108.9239
G1 X119.891 Y130.471 E108.99812
G1 X130.471 Y119.891 E110.40736
G1 X130.471 Y120.679 E110.48158
G1 X120.679 Y130.471 E111.78586
G1 X121.467 Y130.471 E111.86008
G1 X130.471 Y121.467 E113.0594
G1 X130.471 Y122.255 E113.13362
G1 X122.255 Y130.471 E114.22798
G1 X123.042 Y130.471 E114.3021
G1 X130.471 Y123.042 E115.29163
G1 X130.471 Y123.83 E115.36585
G1 X123.83 Y130.471 E116.25042
G1 X124.618 Y130.471 E116.32464
G1 X130.471 Y124.618 E117.10425
G1 X130.471 Y125.406 E117.17847
G1 X125.406 Y130.471 E117.85312
G1 X126.194 Y130.471 E117.92734
G1 X130.471 Y126.194 E118.49703
G1 X130.471 Y126.982 E118.57125
G1 X126.982 Y130.471 E119.03598
G1 X127.769 Y130.471 E119.1101
G1 X130.471 Y127.769 E119.47
G1 X130.471 Y128.557 E119.54422
G1 X128.557 Y130.471 E119.79916
G1 X129.345 Y130.471 E119.87338
G1 X130.471 Y129.345 E120.02336
G1 X130.471 Y130.133 E120.09758
G1 X129.882 Y130.722 E120.17603
; stop printing object Forma-Caixa id:0 copy 0
EXCLUDE_OBJECT_END NAME=Forma_Caixa_id_0_copy_0
;LAYER_CHANGE
;Z:1.54
;HEIGHT:0.44
;BEFORE_LAYER_CHANGE
;1.54
M117 Layer 4/121 : klipper-PLA-0.6

G1 Z1.54 F9000
SET_PRINT_STATS_INFO CURRENT_LAYER=4
