; generated by PrusaSlicer 2.6.0+win64 on 2023-06-27 at 21:03:47 UTC
; Postprocessed by [ArcWelder](https://github.com/FormerLurker/ArcWelderLib)
; Copyright(C) 2021 - Brad Hochgesang
; Version: 1.2.0, Branch: HEAD, BuildDate: 2021-11-21T20:25:43Z
; resolution=0.05mm
; path_tolerance=5.0%
; max_radius=9999.00mm
; default_xyz_precision=3
; default_e_precision=5
; extrusion_rate_variance_percent=5.0%








; 

; external perimeters extrusion width = 0.40mm
; perimeters extrusion width = 0.40mm
; infill extrusion width = 0.40mm
; solid infill extrusion width = 0.40mm
; top infill extrusion width = 0.38mm
; first layer extrusion width = 0.40mm

M73 P0 R136


; Pre-Processed for Cancel-Object support by preprocess_cancellation v0.2.0
; 1 known objects
EXCLUDE_OBJECT_DEFINE NAME=GhostBody_stl_id_0_copy_0 CENTER=117.509,116.420 POLYGON=[[87.567,91.503],[87.567,143.484],[147.433,143.484],[147.433,91.503]]
;TYPE:Custom
G90 ; use absolute coordinates
M83 ; extruder relative mode
M104 S205 ; set temporary nozzle temp to prevent oozing during homing
M140 S65 ; set final bed temp
G4 S30 ; allow partial nozzle warmup
G28 ; home all axis
BED_MESH_CALIBRATE
G1 Z50 F240
G1 X2.0 Y10 F3000
M104 S210 ; set final nozzle temp
M190 S65 ; wait for bed temp to stabilize
M109 S210 ; wait for nozzle temp to stabilize
G1 Z0.28 F240
G92 E0
G1 X2.0 Y140 E10 F1500 ; prime the nozzle
G1 X2.3 Y140 F5000
G92 E0
G1 X2.3 Y10 E10 F1200 ; prime the nozzle
G21 ; set units to millimeters
G90 ; use absolute coordinates
M82 ; use absolute distances for extrusion
G92 E0
; Filament gcode
M107
;LAYER_CHANGE
;Z:0.2
;HEIGHT:0.2
;BEFORE_LAYER_CHANGE
;0.2
M117 Layer 1/250 : klipper-PLA-0.6

G1 Z.2 F9000
SET_PRINT_STATS_INFO CURRENT_LAYER=1
;AFTER_LAYER_CHANGE
;0.2
G1 E-1.5 F3000
G92 E0
G1 Z.44 F9000
G1 X99.708 Y98.772
G1 Z.2
G1 E1.5 F3000
;TYPE:Skirt/Brim
;WIDTH:0.4
G1 F1200
G1 X101.908 Y96.866 E1.58643
G1 X103.847 Y95.479 E1.65721
G1 X105.856 Y94.307 E1.72627
G1 X108.101 Y93.298 E1.79935
G1 X110.21 Y92.608 E1.86524
G1 X112.718 Y92.061 E1.94146
G1 X115.152 Y91.766 E2.01426
G1 X118.035 Y91.679 E2.0999
G1 X121.06 Y91.887 E2.18993
G1 X123.528 Y92.299 E2.26422
G1 X125.615 Y92.851 E2.32832
G1 X127.974 Y93.743 E2.4032
G1 X130.352 Y94.98 E2.48279
G1 X132.319 Y96.281 E2.55281
G1 X134.396 Y97.949 E2.6319
G1 X136.235 Y99.715 E2.7076
G1 X138.139 Y101.913 E2.79394
G1 X139.588 Y103.95 E2.86816
G1 X140.669 Y105.81 E2.93204
G1 X141.705 Y108.107 E3.00686
G1 X142.511 Y110.661 E3.08638
G1 X142.982 Y112.965 E3.1562
G1 X143.273 Y115.614 E3.23533
G1 X143.325 Y118.172 E3.3113
G1 X143.117 Y121.072 E3.39763
G1 X142.7 Y123.538 E3.47189
G1 X142.149 Y125.616 E3.53572
G1 X141.257 Y127.973 E3.61055
G1 X140.021 Y130.349 E3.69007
G1 X138.723 Y132.313 E3.75997
G1 X137.058 Y134.388 E3.83896
G1 X135.289 Y136.23 E3.91479
G1 X133.092 Y138.133 E4.00109
G1 X131.053 Y139.585 E4.07541
G1 X129.191 Y140.668 E4.13937
G1 X126.893 Y141.704 E4.21421
G1 X124.333 Y142.511 E4.29391
G1 X122.013 Y142.981 E4.36419
G1 X119.375 Y143.267 E4.44297
G1 X116.837 Y143.317 E4.51834
G1 X113.94 Y143.113 E4.60457
G1 X111.536 Y142.714 E4.67692
G1 X109.336 Y142.133 E4.74448
G1 X107.033 Y141.259 E4.81762
G1 X105.056 Y140.257 E4.88343
G1 X102.897 Y138.874 E4.95956
G1 X100.606 Y137.052 E5.04647
G1 X98.765 Y135.284 E5.12226
G1 X96.861 Y133.086 E5.2086
G1 X95.476 Y131.149 E5.2793
G1 X94.307 Y129.142 E5.34826
G1 X93.298 Y126.899 E5.42129
G1 X92.609 Y124.795 E5.48702
G1 X92.061 Y122.295 E5.56301
G1 X91.727 Y119.388 E5.64989
G1 X91.674 Y116.831 E5.72583
G1 X91.883 Y113.927 E5.81228
G1 X92.276 Y111.576 E5.88305
G1 X92.867 Y109.332 E5.95195
G1 X93.74 Y107.033 E6.02497
G1 X94.979 Y104.65 E6.10472
G1 X96.276 Y102.687 E6.17458
G1 X97.942 Y100.611 E6.25361
G1 X99.645 Y98.837 E6.32662
G1 X99.903 Y99.084 F9000
G1 F1200
G1 X102.13 Y97.145 E6.41429
G1 X104.044 Y95.777 E6.48414
G1 X106.019 Y94.625 E6.55203
G1 X108.232 Y93.63 E6.62407
G1 X110.301 Y92.953 E6.68871
G1 X112.774 Y92.414 E6.76386
G1 X115.177 Y92.122 E6.83573
G1 X118.031 Y92.036 E6.92051
G1 X121.02 Y92.241 E7.00947
G1 X123.456 Y92.649 E7.08281
G1 X125.504 Y93.19 E7.1457
G1 X127.831 Y94.071 E7.21958
G1 X130.172 Y95.289 E7.29793
G1 X132.11 Y96.571 E7.36692
G1 X134.162 Y98.219 E7.44506
G1 X135.975 Y99.96 E7.51969
G1 X137.86 Y102.136 E7.60517
G1 X139.29 Y104.146 E7.67841
G1 X140.351 Y105.972 E7.74111
G1 X141.372 Y108.238 E7.8149
G1 X142.166 Y110.752 E7.89318
G1 X142.629 Y113.022 E7.96197
G1 X142.917 Y115.64 E8.04017
G1 X142.968 Y118.161 E8.11504
G1 X142.762 Y121.032 E8.2005
G1 X142.35 Y123.465 E8.27377
G1 X141.809 Y125.506 E8.33646
G1 X140.929 Y127.831 E8.41027
G1 X139.712 Y130.17 E8.48856
G1 X138.433 Y132.104 E8.5574
G1 X136.788 Y134.154 E8.63544
G1 X135.044 Y135.97 E8.7102
G1 X132.87 Y137.854 E8.79561
G1 X130.857 Y139.287 E8.86898
G1 X129.029 Y140.35 E8.93177
G1 X126.761 Y141.372 E9.00563
G1 X124.242 Y142.166 E9.08405
G1 X121.956 Y142.629 E9.1533
G1 X119.35 Y142.91 E9.23112
G1 X116.847 Y142.961 E9.30545
G1 X113.98 Y142.758 E9.39079
G1 X111.611 Y142.365 E9.46209
G1 X109.445 Y141.793 E9.52861
G1 X107.175 Y140.932 E9.60069
G1 X105.236 Y139.948 E9.66525
G1 X103.107 Y138.585 E9.74031
G1 X100.84 Y136.782 E9.82631
G1 X99.025 Y135.039 E9.90103
G1 X97.14 Y132.864 E9.98649
G1 X95.775 Y130.953 E10.05622
G1 X94.625 Y128.979 E10.12405
G1 X93.63 Y126.767 E10.19607
G1 X92.955 Y124.704 E10.26052
G1 X92.413 Y122.239 E10.33546
G1 X92.083 Y119.362 E10.42144
G1 X92.031 Y116.842 E10.49628
G1 X92.238 Y113.968 E10.58183
G1 X92.625 Y111.648 E10.65167
G1 X93.207 Y109.442 E10.71941
G1 X94.068 Y107.175 E10.79141
G1 X95.287 Y104.83 E10.86988
G1 X96.566 Y102.896 E10.93872
G1 X98.212 Y100.845 E11.0168
G1 X99.84 Y99.149 E11.0866
; printing object GhostBody.stl id:0 copy 0
EXCLUDE_OBJECT_START NAME=GhostBody_stl_id_0_copy_0
G1 E9.5866 F3000
G92 E0
G1 Z.44 F9000
G1 X117.016 Y135.333
G1 Z.2
G1 E1.5 F3000
;TYPE:Perimeter
;WIDTH:0.399999
G1 F1200
G3 X109.444 Y133.557 I-0.029 J-16.907 E1.73300
G3 X101.062 Y124.778 I9.698 J-17.650 E2.09918
G3 X99.657 Y117.056 I17.014 J-7.084 E2.33408
G3 X101.443 Y109.443 I17.193 J0.017 E2.56837
G3 X110.222 Y101.062 I17.644 J9.694 E2.93453
G3 X115.727 Y99.731 I6.595 J15.228 E3.10349
M73 P0 R135
G3 X123.978 Y100.730 I1.796 J19.742 E3.35213
G3 X130.433 Y105.202 I-7.001 J17.000 E3.58713
G3 X134.551 Y111.842 I-12.146 J12.130 E3.82122
G3 X134.551 Y123.157 I-19.686 J5.658 E4.16169
G3 X130.433 Y129.798 I-16.279 J-5.497 E4.39582
G3 X123.978 Y134.269 I-13.227 J-12.202 E4.63081
G3 X117.106 Y135.335 I-6.274 J-17.760 E4.83847
G1 X117.002 Y135.69 F9000
G1 F1200
G3 X109.277 Y133.873 I-0.014 J-17.272 E5.07623
G3 X100.736 Y124.925 I9.869 J-17.971 E5.44943
G3 X99.300 Y117.049 I17.359 J-7.234 E5.68900
G3 X100.736 Y110.075 I18.014 J0.074 E5.90180
G3 X110.075 Y100.736 I18.172 J8.833 E6.30138
G3 X117.688 Y99.305 I7.133 J16.980 E6.53313
G3 X124.924 Y100.736 I0.202 J17.991 E6.75369
G3 X134.264 Y110.075 I-8.819 J18.160 E7.15332
G3 X135.664 Y116.149 I-16.190 J6.930 E7.33939
G3 X134.604 Y124.104 I-19.942 J1.391 E7.57931
G3 X129.390 Y131.294 I-17.576 J-7.260 E7.84548
G3 X118.852 Y135.656 I-11.159 J-12.048 E8.19128
G3 X117.092 Y135.692 I-1.330 J-22.006 E8.24355
G1 X116.988 Y136.047 F9000
G1 F1200
G3 X109.111 Y134.189 I0.001 J-17.629 E8.48602
G3 X100.411 Y125.071 I9.911 J-18.167 E8.86627
G3 X98.943 Y117.042 I17.671 J-7.380 E9.11055
G3 X100.410 Y109.929 I18.341 J0.075 E9.32762
G3 X109.928 Y100.410 I18.503 J8.983 E9.73493
G3 X117.692 Y98.948 I7.280 J17.314 E9.97128
G3 X125.071 Y100.410 I0.201 J18.336 E10.19620
G3 X134.590 Y109.929 I-8.971 J18.490 E10.60353
G3 X136.020 Y116.127 I-16.512 J7.074 E10.79341
G3 X134.938 Y124.230 I-20.290 J1.414 E11.03783
G3 X130.300 Y130.940 I-17.629 J-7.227 E11.28194
G3 X123.369 Y135.233 I-12.632 J-12.653 E11.52621
G3 X117.078 Y136.049 I-5.784 J-19.933 E11.71533
G1 X116.974 Y136.404 F9000
;TYPE:External perimeter
G1 F1200
G3 X109.782 Y134.915 I0.055 J-18.378 E11.93483
G3 X100.085 Y125.218 I9.127 J-18.824 E12.34978
G3 X98.586 Y117.034 I18.017 J-7.529 E12.59877
G3 X100.085 Y109.782 I18.703 J0.085 E12.82010
G3 X109.782 Y100.084 I18.811 J9.112 E13.23506
G3 X117.695 Y98.591 I7.417 J17.595 E13.47597
G3 X125.218 Y100.084 I0.195 J18.717 E13.70530
G3 X134.915 Y109.782 I-9.110 J18.806 E14.12027
G3 X136.414 Y117.965 I-17.907 J7.509 E14.36923
G3 X134.915 Y125.218 I-18.712 J-0.086 E14.59058
G3 X125.218 Y134.915 I-18.817 J-9.120 E15.00553
G3 X117.064 Y136.406 I-7.486 J-17.895 E15.25360
G1 X116.685 Y135.878 F9000
G1 E13.7536 F3000
G92 E0
G1 Z.44 F9000
G1 X128.075 Y103.224
G1 Z.2
G1 E1.5 F3000
;TYPE:Solid infill
;WIDTH:0.401537
G1 F1200
G3 X130.833 Y106.031 I-33.250 J35.428 E1.61736
G3 X132.432 Y108.087 I-14.825 J13.180 E1.69508
G1 X126.914 Y102.57 E1.92776
G2 X125.626 Y101.790 I-7.644 J11.169 E1.97268
G1 X133.211 Y109.374 E2.29252
G1 X133.717 Y110.387 E2.32629
G1 X124.613 Y101.283 E2.71021
G1 X123.762 Y100.939 E2.73758
G1 X134.061 Y111.238 E3.1719
G1 X134.317 Y112.002 E3.19593
M73 P1 R135
G1 X122.998 Y100.682 E3.67328
G1 X122.295 Y100.487 E3.69503
G1 X134.514 Y112.705 E4.21029
G1 X134.662 Y113.361 E4.23034
G1 X121.641 Y100.34 E4.77944
G1 X121.017 Y100.223 E4.79837
G1 X134.783 Y113.989 E5.37889
G1 X134.873 Y114.587 E5.39692
G1 X120.414 Y100.127 E6.00669
G1 X119.836 Y100.056 E6.02406
G1 X134.949 Y115.17 E6.66141
G1 X135.002 Y115.729 E6.67815
G1 X119.277 Y100.005 E7.34126
G1 X118.73 Y99.965 E7.35761
G1 X135.043 Y116.278 E8.04554
G1 X135.065 Y116.807 E8.06133
G1 X118.205 Y99.947 E8.77233
G1 X117.681 Y99.93 E8.78796
G1 X135.075 Y117.324 E9.52148
G1 X135.075 Y117.831 E9.5366
G1 X117.181 Y99.937 E10.2912
G1 X116.681 Y99.945 E10.30611
G1 X135.06 Y118.323 E11.08114
G1 X135.04 Y118.81 E11.09567
G1 X116.2 Y99.971 E11.89014
G1 X115.723 Y100.001 E11.90439
G1 X135.001 Y119.279 E12.71736
G1 X134.96 Y119.745 E12.73131
G1 X115.263 Y100.047 E13.56197
G1 X114.805 Y100.097 E13.57571
G1 X134.904 Y120.196 E14.4233
G1 X134.844 Y120.643 E14.43675
G1 X114.362 Y100.162 E15.30047
G1 X113.924 Y100.23 E15.31369
G1 X134.77 Y121.076 E16.19278
G1 X134.691 Y121.505 E16.20579
G1 X113.499 Y100.312 E17.09949
G1 X113.078 Y100.399 E17.11231
G1 X134.599 Y121.92 E18.01986
G1 X134.503 Y122.331 E18.03245
G1 X112.672 Y100.5 E18.95308
G1 X112.27 Y100.605 E18.96547
G1 X134.393 Y122.728 E19.89841
G1 X134.28 Y123.122 E19.91063
G1 X111.888 Y100.73 E20.85491
G1 X111.506 Y100.855 E20.8669
G1 X134.15 Y123.5 E21.82183
G1 X134.021 Y123.877 E21.83371
G1 X111.123 Y100.98 E22.79931
G1 X110.764 Y101.127 E22.81088
G1 X133.872 Y124.236 E23.78538
G1 X133.724 Y124.595 E23.79696
G1 X110.405 Y101.276 E24.78034
G1 X110.06 Y101.438 E24.79171
M73 P1 R134
G1 X133.561 Y124.939 E25.78276
G1 X133.394 Y125.279 E25.79406
G1 X109.719 Y101.604 E26.79245
G1 X109.387 Y101.779 E26.80364
G1 X133.219 Y125.611 E27.80865
G1 X133.036 Y125.935 E27.81975
G1 X109.064 Y101.963 E28.83066
G1 X108.748 Y102.154 E28.84167
G1 X132.849 Y126.256 E29.85804
G1 X132.652 Y126.566 E29.86899
G1 X108.432 Y102.346 E30.89036
G1 X108.129 Y102.549 E30.90124
G1 X132.455 Y126.876 E31.9271
G1 X132.247 Y127.175 E31.93796
G1 X107.828 Y102.756 E32.96772
G1 X107.528 Y102.963 E32.97859
G1 X132.038 Y127.473 E34.01219
G1 X131.817 Y127.759 E34.02297
G1 X107.241 Y103.183 E35.05935
G1 X106.954 Y103.404 E35.07015
G1 X131.596 Y128.046 E36.10932
G1 X131.374 Y128.33 E36.12007
G1 X106.67 Y103.626 E37.16185
G1 X106.395 Y103.859 E37.1726
G1 X131.141 Y128.605 E38.21615
G1 X130.908 Y128.88 E38.2269
G1 X106.121 Y104.092 E39.2722
G1 X105.853 Y104.331 E39.28291
G1 X130.669 Y129.147 E40.32942
G1 X130.425 Y129.411 E40.34014
G1 X105.589 Y104.575 E41.38749
G1 X105.328 Y104.82 E41.39816
G1 X130.18 Y129.672 E42.44618
G1 X129.926 Y129.926 E42.45689
G1 X105.074 Y105.074 E43.50491
G1 X104.82 Y105.327 E43.5156
G1 X129.672 Y130.179 E44.56362
G1 X129.411 Y130.425 E44.57431
G1 X104.575 Y105.589 E45.62166
G1 X104.331 Y105.852 E45.63236
G1 X129.147 Y130.668 E46.67887
G1 X128.879 Y130.908 E46.6896
G1 X104.091 Y106.12 E47.73493
G1 X103.859 Y106.394 E47.74564
G1 X128.605 Y131.141 E48.78922
G1 X128.331 Y131.373 E48.79993
G1 X103.626 Y106.669 E49.84173
G1 X103.404 Y106.953 E49.85248
G1 X128.047 Y131.596 E50.89169
G1 X127.761 Y131.818 E50.90249
G1 X103.183 Y107.24 E51.93896
G1 X102.962 Y107.526 E51.94974
M73 P2 R134
G1 X127.471 Y132.035 E52.9833
G1 X127.174 Y132.245 E52.99415
G1 X102.753 Y107.824 E54.024
G1 X102.545 Y108.124 E54.03489
G1 X126.876 Y132.454 E55.06092
G1 X126.566 Y132.652 E55.07189
G1 X102.348 Y108.433 E56.0932
G1 X102.15 Y108.743 E56.10417
G1 X126.256 Y132.849 E57.12073
G1 X125.936 Y133.036 E57.13178
G1 X101.964 Y109.064 E58.14269
G1 X101.781 Y109.388 E58.15379
G1 X125.611 Y133.218 E59.15872
G1 X125.28 Y133.394 E59.1699
G1 X101.605 Y109.72 E60.16827
G1 X101.439 Y110.06 E60.17955
M73 P2 R133
G1 X124.939 Y133.561 E61.17058
G1 X124.595 Y133.724 E61.18193
G1 X101.276 Y110.405 E62.16531
G1 X101.127 Y110.763 E62.17687
G1 X124.236 Y133.872 E63.15139
G1 X123.878 Y134.02 E63.16294
G1 X100.979 Y111.122 E64.12858
G1 X100.85 Y111.5 E64.14049
G1 X123.5 Y134.15 E65.09565
G1 X123.122 Y134.279 E65.10756
G1 X100.72 Y111.877 E66.05227
G1 X100.607 Y112.272 E66.06452
G1 X122.728 Y134.392 E66.99736
G1 X122.331 Y134.502 E67.00964
G1 X100.497 Y112.668 E67.93039
G1 X100.401 Y113.079 E67.94298
G1 X121.919 Y134.598 E68.85043
G1 X121.503 Y134.689 E68.86313
G1 X100.309 Y113.494 E69.75692
G1 X100.23 Y113.923 E69.76993
G1 X121.075 Y134.768 E70.64898
G1 X120.64 Y134.84 E70.66213
G1 X100.156 Y114.356 E71.52595
G1 X100.096 Y114.803 E71.5394
G1 X120.19 Y134.897 E72.38678
G1 X119.74 Y134.955 E72.40031
G1 X100.04 Y115.254 E73.23109
G1 X99.999 Y115.72 E73.24504
G1 X119.273 Y134.995 E74.05786
G1 X118.804 Y135.033 E74.07189
G1 X99.96 Y116.189 E74.86655
G1 X99.94 Y116.676 E74.88108
G1 X118.316 Y135.052 E75.65601
G1 X117.824 Y135.067 E75.67069
G1 X99.925 Y117.168 E76.4255
G1 X99.925 Y117.675 E76.44062
G1 X117.317 Y135.067 E77.17405
G1 X116.799 Y135.057 E77.1895
G1 X99.935 Y118.193 E77.90067
G1 X99.957 Y118.721 E77.91643
G1 X116.271 Y135.036 E78.60442
G1 X115.723 Y134.995 E78.62081
G1 X99.998 Y119.27 E79.28394
G1 X100.05 Y119.829 E79.30068
G1 X115.164 Y134.943 E79.93805
G1 X114.582 Y134.868 E79.95555
G1 X100.123 Y120.409 E80.56529
G1 X100.219 Y121.013 E80.58353
G1 X113.981 Y134.774 E81.16386
G1 X113.36 Y134.66 E81.18269
G1 X100.338 Y121.639 E81.73181
G1 X100.486 Y122.294 E81.75183
G1 X112.696 Y134.504 E82.26673
G1 X112.002 Y134.317 E82.28816
G1 X100.683 Y122.997 E82.76551
G1 X100.94 Y123.761 E82.78955
G1 X111.239 Y134.061 E83.22389
G1 X110.387 Y133.716 E83.2513
G1 X101.283 Y124.613 E83.6352
G1 X101.783 Y125.619 E83.6687
G1 X109.374 Y133.21 E83.98882
G3 X108.086 Y132.429 I6.543 J-12.242 E84.03375
G1 X102.597 Y126.94 E84.26522
G2 X104.748 Y129.598 I15.971 J-10.725 E84.36732
G1 X106.935 Y131.786 E84.45957
; stop printing object GhostBody.stl id:0 copy 0
EXCLUDE_OBJECT_END NAME=GhostBody_stl_id_0_copy_0
;LAYER_CHANGE
;Z:0.4
;HEIGHT:0.2
;BEFORE_LAYER_CHANGE
;0.4
M117 Layer 2/250 : klipper-PLA-0.6

G1 Z.4 F9000
SET_PRINT_STATS_INFO CURRENT_LAYER=2
;AFTER_LAYER_CHANGE
;0.4
M104 S208 ; set temperature
M140 S60 ; set bed temperature
; printing object GhostBody.stl id:0 copy 0
EXCLUDE_OBJECT_START NAME=GhostBody_stl_id_0_copy_0
G1 E82.95957 F3000
G92 E0
G1 Z.64 F9000
G1 X117.05 Y135.63
G1 Z.4
G1 E1.5 F3000
;TYPE:Perimeter
;WIDTH:0.399999
G3 X111.627 Y135.051 I-0.374 J-22.183 E1.66234
G3 X107.754 Y133.073 I3.374 J-11.386 E1.79226
G3 X101.389 Y126.490 I19.701 J-25.417 E2.06509
G3 X99.662 Y122.056 I8.826 J-5.991 E2.20748
G3 X99.746 Y112.484 I30.925 J-4.515 E2.49285
G3 X102.198 Y107.400 I11.451 J2.389 E2.66217
G3 X108.482 Y101.408 I25.273 J20.213 E2.92078
G3 X112.931 Y99.668 I5.981 J8.735 E3.06379
G3 X122.511 Y99.747 I4.516 J33.291 E3.34928
G3 X127.848 Y102.399 I-2.444 J11.614 E3.52822
G3 X133.597 Y108.488 I-19.848 J24.498 E3.77759
G3 X135.430 Y113.550 I-9.398 J6.266 E3.93896
G3 X135.255 Y122.507 I-31.632 J3.862 E4.20586
G3 X132.968 Y127.386 I-11.087 J-2.222 E4.36737
G3 X126.882 Y133.340 I-26.123 J-20.615 E4.62088
G3 X121.453 Y135.421 I-6.581 J-9.047 E4.79546
G3 X117.140 Y135.632 I-3.831 J-34.118 E4.92375
G1 X117.045 Y135.988 F9000
G1 F3000
