; generated by PrusaSlicer 2.6.0+win64 on 2023-06-29 at 23:20:14 UTC
; Postprocessed by [ArcWelder](https://github.com/FormerLurker/ArcWelderLib)
; Copyright(C) 2021 - Brad Hochgesang
; Version: 1.2.0, Branch: HEAD, BuildDate: 2021-11-21T20:25:43Z
; resolution=0.05mm
; path_tolerance=5.0%
; max_radius=9999.00mm
; default_xyz_precision=3
; default_e_precision=5
; extrusion_rate_variance_percent=5.0%








; 

; external perimeters extrusion width = 0.60mm
; perimeters extrusion width = 0.60mm
; infill extrusion width = 0.60mm
; solid infill extrusion width = 0.60mm
; top infill extrusion width = 0.38mm
; first layer extrusion width = 0.60mm

M73 P0 R31


; Pre-Processed for Cancel-Object support by preprocess_cancellation v0.2.0
; 1 known objects
EXCLUDE_OBJECT_DEFINE NAME=Helicopter___Rotor_stl_id_0_copy_0 CENTER=117.370,117.823 POLYGON=[[56.3,56.3],[56.3,178.7],[178.7,178.7],[178.7,56.3]]
;TYPE:Custom
G90 ; use absolute coordinates
M83 ; extruder relative mode
M104 S205 ; set temporary nozzle temp to prevent oozing during homing
M140 S65 ; set final bed temp
G4 S30 ; allow partial nozzle warmup
G28 ; home all axis
BED_MESH_CALIBRATE
G1 Z50 F240
G1 X2.0 Y10 F3000
M104 S210 ; set final nozzle temp
M190 S65 ; wait for bed temp to stabilize
M109 S210 ; wait for nozzle temp to stabilize
G1 Z0.28 F240
G92 E0
G1 X2.0 Y140 E10 F1500 ; prime the nozzle
M73 P1 R30
G1 X2.3 Y140 F5000
G92 E0
G1 X2.3 Y10 E10 F1200 ; prime the nozzle
G21 ; set units to millimeters
G90 ; use absolute coordinates
M82 ; use absolute distances for extrusion
G92 E0
; Filament gcode
M107
;LAYER_CHANGE
;Z:0.2
;HEIGHT:0.2
;BEFORE_LAYER_CHANGE
;0.2
M117 Layer 1/99 : klipper-PLA-0.6

G1 Z.2 F9000
SET_PRINT_STATS_INFO CURRENT_LAYER=1
;AFTER_LAYER_CHANGE
;0.2
G1 E-1.5 F3300
G92 E0
G1 Z.5 F9000
G1 X68.832 Y69.137
G1 Z.2
M73 P2 R30
G1 E1.5 F3300
;TYPE:Skirt/Brim
;WIDTH:0.6
G1 F1200
G3 X49.903 Y129.262 I48.668 J48.364 E18.43436
M73 P3 R30
G3 X68.770 Y69.203 I67.583 J-11.762 E21.46366
G1 X69.173 Y69.587 F9000
G1 F1200
G3 X108.759 Y184.992 I48.329 J47.914 E34.26185
M73 P3 R29
G3 X81.054 Y174.974 I8.745 J-67.502 E35.63728
M73 P4 R29
G3 X69.111 Y69.652 I36.440 J-57.470 E41.26531
; printing object Helicopter_-_Rotor.stl id:0 copy 0
EXCLUDE_OBJECT_START NAME=Helicopter___Rotor_stl_id_0_copy_0
G1 E39.76531 F3300
G92 E0
G1 Z.5 F9000
G1 X116.101 Y120.954
G1 Z.2
G1 E1.5 F3300
;TYPE:Perimeter
;WIDTH:0.599999
G1 F1200
G1 X114.934 Y118.911 E1.60899
G1 X114.69 Y118.336 E1.63792
G2 X114.045 Y116.102 I-10.591 J1.848 E1.74578
G1 X116.089 Y114.934 E1.85483
G1 X116.665 Y114.69 E1.88381
G2 X118.898 Y114.044 I-1.835 J-10.524 E1.99165
G1 X120.044 Y116.047 E2.09854
G3 X120.581 Y117.831 I-7.039 J3.092 E2.18511
G2 X120.963 Y118.901 I6.671 J-1.779 E2.23778
G3 X118.629 Y120.203 I-13.135 J-20.803 E2.36161
G3 X117.285 Y120.553 I-3.261 J-9.765 E2.42598
G1 X116.186 Y120.925 E2.47972
G1 X115.848 Y121.689 F9000
G1 F1200
G2 X114.622 Y119.512 I-18.365 J8.909 E2.59548
G3 X114.160 Y118.508 I4.024 J-2.460 E2.64676
G2 X113.306 Y115.853 I-9.554 J1.608 E2.77639
G2 X115.488 Y114.622 I-9.746 J-19.825 E2.89246
G3 X116.492 Y114.160 I2.460 J4.024 E2.94374
G2 X119.148 Y113.303 I-1.587 J-9.461 E3.07347
G1 X119.371 Y113.749 E3.09657
G1 X120.558 Y115.828 E3.20746
G3 X121.113 Y117.666 I-7.509 J3.270 E3.29667
G2 X121.697 Y119.164 I8.340 J-2.389 E3.37122
G2 X119.385 Y120.446 I8.633 J18.295 E3.49373
G3 X118.184 Y120.917 I-1.930 J-3.156 E3.55371
G2 X115.930 Y121.651 I1.649 J8.891 E3.66383
G1 X115.607 Y122.473 F9000
G1 F1200
G1 X115.147 Y121.53 E3.71243
G1 X113.949 Y119.432 E3.82434
G3 X113.350 Y117.483 I7.206 J-3.281 E3.91909
G2 X112.525 Y115.612 I-6.848 J1.902 E4.01412
G1 X113.47 Y115.147 E4.06291
G1 X115.568 Y113.949 E4.17482
G3 X117.517 Y113.350 I3.281 J7.206 E4.26957
G2 X119.391 Y112.523 I-1.971 J-7.004 E4.36476
G2 X120.866 Y115.218 I19.594 J-8.973 E4.50715
G3 X121.371 Y116.319 I-4.486 J2.724 E4.56335
G2 X122.489 Y119.399 I8.539 J-1.357 E4.71617
G2 X120.099 Y120.676 I7.946 J17.747 E4.84176
G3 X117.614 Y121.617 I-3.370 J-5.149 E4.96569
G2 X115.685 Y122.427 I1.536 J6.359 E5.06295
G1 X115.354 Y123.398 F9000
G1 F1200
G2 X114.665 Y121.809 I-8.068 J2.554 E5.14327
G3 X113.332 Y119.457 I30.077 J-18.600 E5.26852
G1 X113.099 Y118.854 E5.29846
G2 X112.236 Y116.200 I-9.064 J1.480 E5.42824
G2 X111.622 Y115.354 I-5.332 J3.224 E5.47671
G2 X113.190 Y114.665 I-2.562 J-7.960 E5.55614
G3 X115.543 Y113.332 I18.714 J30.290 E5.68143
G1 X116.146 Y113.099 E5.71137
G2 X119.116 Y112.035 I-1.309 J-8.332 E5.85844
G1 X119.649 Y111.61 E5.89002
G1 X119.791 Y112.042 E5.91108
G1 X120.335 Y113.191 E5.96997
G3 X121.668 Y115.543 I-30.077 J18.600 E6.09522
G1 X121.901 Y116.146 E6.12516
G2 X122.695 Y118.674 I9.300 J-1.532 E6.24831
G2 X123.394 Y119.651 I3.964 J-2.098 E6.30408
G1 X122.94 Y119.8 E6.32621
G2 X120.378 Y121.158 I8.178 J18.525 E6.46061
G3 X117.779 Y122.149 I-3.578 J-5.480 E6.59031
G2 X115.422 Y123.340 I1.201 J5.305 E6.71397
G1 X115.06 Y124.823 F9000
;WIDTH:0.605607
G1 F1200
G2 X114.957 Y124.017 I-3.419 J0.027 E6.75204
;WIDTH:0.599999
G2 X114.183 Y122.089 I-7.814 J2.017 E6.84849
G3 X112.824 Y119.688 I31.351 J-19.330 E6.97631
G1 X112.569 Y119.027 E7.00913
G2 X111.658 Y116.314 I-8.475 J1.336 E7.14237
G2 X110.837 Y115.400 I-2.811 J1.699 E7.19953
;WIDTH:0.626697
G1 X110.403 Y115.105 E7.225
G1 X110.642 Y115.002 E7.23763
;WIDTH:0.599999
G2 X112.911 Y114.183 I-1.187 J-6.841 E7.34998
G3 X115.312 Y112.824 I19.330 J31.351 E7.47780
G1 X115.973 Y112.569 E7.51062
G2 X118.739 Y111.623 I-1.299 J-8.316 E7.64677
G2 X119.589 Y110.852 I-1.813 J-2.852 E7.70012
;WIDTH:0.621331
G1 X119.92 Y110.329 E7.72989
G1 X119.978 Y110.536 E7.74023
;WIDTH:0.599999
G2 X120.320 Y111.868 I4.526 J-0.452 E7.80411
G1 X120.817 Y112.911 E7.85763
G3 X122.176 Y115.312 I-31.351 J19.330 E7.98545
G1 X122.431 Y115.973 E8.01827
G2 X123.271 Y118.567 I8.760 J-1.404 E8.14505
G2 X124.083 Y119.538 I2.989 J-1.675 E8.20393
;WIDTH:0.626588
G1 X124.655 Y119.918 E8.23726
G1 X124.333 Y119.984 E8.25321
;WIDTH:0.599999
G1 X123.183 Y120.301 E8.30847
G2 X120.223 Y121.892 I9.444 J21.119 E8.46423
G3 X117.943 Y122.682 I-3.308 J-5.862 E8.57654
G2 X115.531 Y123.996 I1.045 J4.789 E8.70558
G1 X115.216 Y124.459 E8.73152
;WIDTH:0.605607
G1 X115.096 Y124.74 E8.74582
G1 E7.24582 F3300
G92 E0
G1 Z.5 F9000
G1 X176.679 Y120.367
G1 Z.2
G1 E1.5 F3300
;WIDTH:0.65329
G1 F1200
G2 X177.508 Y119.806 I-1.455 J-3.043 E1.55094
G1 X177.426 Y121.273 E1.62551
G2 X176.741 Y120.433 I-2.787 J1.573 E1.68071
G1 X174.963 Y120.06 F9000
;WIDTH:0.599999
G1 F1200
G2 X176.299 Y119.906 I0.265 J-3.575 E1.74329
G2 X177.938 Y118.173 I-1.430 J-2.994 E1.85632
G1 X178.141 Y117.58 E1.88535
G3 X177.769 Y124.087 I-49.844 J0.415 E2.18741
G1 X177.73 Y123.68 E2.20635
G2 X176.550 Y121.061 I-5.386 J0.851 E2.34102
G2 X175.453 Y120.223 I-2.434 J2.049 E2.40534
G1 X175.049 Y120.088 E2.42507
G1 E.92507 F3300
G92 E0
G1 Z.5 F9000
G1 X113.735 Y177.431
G1 Z.2
M73 P5 R29
G1 E1.5 F3300
;WIDTH:0.644223
G1 F1200
G2 X114.632 Y176.669 I-1.912 J-3.160 E1.55903
G2 X115.204 Y177.513 I2.684 J-1.203 E1.61020
G1 X113.825 Y177.437 E1.67925
G1 E.17925 F3300
G92 E0
G1 Z.5 F9000
G1 X111.037 Y177.778
G1 Z.2
G1 E1.5 F3300
;WIDTH:0.599999
G1 F1200
G2 X113.984 Y176.523 I-0.591 J-5.476 E1.65042
G2 X114.680 Y175.655 I-4.770 J-4.538 E1.70200
;WIDTH:0.610146
G1 X114.926 Y175.117 E1.7299
G1 X114.941 Y175.552 E1.75043
;WIDTH:0.599999
G2 X116.437 Y177.747 I2.724 J-0.249 E1.87892
G2 X117.412 Y178.141 I1.992 J-3.525 E1.92774
G3 X111.126 Y177.788 I-0.064 J-55.013 E2.21951
G1 E.71951 F3300
G92 E0
G1 Z.5 F9000
G1 X118.836 Y177.86
G1 Z.2
G1 E1.5 F3300
;TYPE:External perimeter
;WIDTH:0.787776
G1 F1200
G1 X118.281 Y177.845 E1.53439
G1 X118.146 Y177.801 E1.54318
;WIDTH:0.747492
G1 X118.01 Y177.758 E1.55154
;WIDTH:0.707207
G1 X117.875 Y177.714 E1.55938
;WIDTH:0.666922
G1 X117.74 Y177.67 E1.56675
;WIDTH:0.626637
G1 X117.237 Y177.505 E1.59244
;WIDTH:0.599999
G3 X115.568 Y175.959 I0.795 J-2.533 E1.70146
;WIDTH:0.610146
G1 X115.493 Y175.448 E1.72582
;WIDTH:0.659751
G1 X115.469 Y175.335 E1.73175
;WIDTH:0.709356
G1 X115.444 Y175.221 E1.73822
;WIDTH:0.75896
G1 X115.419 Y175.107 E1.74517
;WIDTH:0.808565
G1 X115.394 Y174.994 E1.75254
;WIDTH:0.858169
G1 X115.37 Y174.88 E1.76044
G1 X115.386 Y174.357 E1.79591
;WIDTH:0.825176
G1 X115.388 Y174.26 E1.80222
;WIDTH:0.828234
G1 X115.394 Y125.338 E4.99678
;WIDTH:0.845122
G3 X115.458 Y125.132 I0.237 J-0.039 E5.01156
;WIDTH:0.796098
G1 X115.514 Y125.041 E5.01825
;WIDTH:0.747073
G1 X115.569 Y124.949 E5.02453
;WIDTH:0.698049
G1 X115.624 Y124.858 E5.03032
;WIDTH:0.649024
G1 X115.68 Y124.767 E5.03571
;WIDTH:0.599999
G3 X117.353 Y123.447 I2.617 J1.597 E5.13645
G3 X118.652 Y123.096 I2.692 J7.382 E5.19883
G2 X120.502 Y122.374 I-1.494 J-6.559 E5.29113
G3 X123.426 Y120.802 I12.204 J19.195 E5.44501
G1 X124.399 Y120.537 E5.49172
;WIDTH:0.649456
G1 X124.532 Y120.506 E5.49861
;WIDTH:0.698913
G1 X124.665 Y120.474 E5.50607
;WIDTH:0.748369
G1 X124.797 Y120.442 E5.51404
;WIDTH:0.797826
G1 X124.93 Y120.411 E5.52261
;WIDTH:0.847282
G3 X125.507 Y120.392 I0.323 J1.052 E5.56147
;WIDTH:0.824349
G1 X174.409 Y120.396 E8.73893
;WIDTH:0.835096
G3 X174.615 Y120.453 I0.026 J0.306 E8.75323
;WIDTH:0.788077
G1 X174.729 Y120.504 E8.76097
;WIDTH:0.741058
G1 X174.843 Y120.555 E8.76822
;WIDTH:0.694038
G1 X174.956 Y120.607 E8.77495
;WIDTH:0.647019
G1 X175.07 Y120.658 E8.78122
;WIDTH:0.599999
G3 X176.157 Y121.456 I-0.981 J2.475 E8.84420
G3 X177.196 Y123.857 I-3.882 J3.105 E8.96678
;WIDTH:0.649068
G1 X177.24 Y124.155 E8.98196
;WIDTH:0.698136
G1 X177.285 Y124.453 E8.99838
;WIDTH:0.747204
G1 X177.329 Y124.751 E9.01602
;WIDTH:0.796272
G1 X177.374 Y125.049 E9.0349
G1 X177.277 Y126.029 E9.09659
;WIDTH:0.766683
G1 X177.274 Y126.054 E9.09811
;WIDTH:0.769124
G1 X177.005 Y127.767 E9.20282
;WIDTH:0.773448
G1 X176.505 Y130.334 E9.36168
;WIDTH:0.773613
G1 X175.893 Y132.878 E9.52066
;WIDTH:0.772586
G1 X175.173 Y135.391 E9.67926
;WIDTH:0.773931
G1 X174.343 Y137.874 E9.8384
;WIDTH:0.774088
G1 X173.407 Y140.318 E9.99751
;WIDTH:0.774242
G1 X172.366 Y142.718 E10.15659
;WIDTH:0.774391
G1 X171.222 Y145.071 E10.31572
;WIDTH:0.774542
G1 X169.977 Y147.372 E10.47488
;WIDTH:0.774685
G1 X168.634 Y149.618 E10.63411
;WIDTH:0.774826
G1 X167.194 Y151.803 E10.79337
;WIDTH:0.774966
G1 X165.662 Y153.923 E10.95258
;WIDTH:0.775101
G1 X164.039 Y155.975 E11.11186
;WIDTH:0.775239
G1 X162.328 Y157.955 E11.27121
;WIDTH:0.775367
G1 X160.534 Y159.859 E11.43054
;WIDTH:0.774415
G1 X158.658 Y161.683 E11.58969
;WIDTH:0.77562
G1 X156.705 Y163.425 E11.74913
;WIDTH:0.775747
G1 X154.679 Y165.08 E11.90854
;WIDTH:0.775864
G1 X152.583 Y166.646 E12.068
;WIDTH:0.77598
G1 X150.421 Y168.12 E12.2275
;WIDTH:0.776095
G1 X148.197 Y169.498 E12.387
;WIDTH:0.776207
G1 X145.916 Y170.779 E12.54651
;WIDTH:0.776317
G1 X143.581 Y171.96 E12.70608
;WIDTH:0.776422
G1 X141.197 Y173.039 E12.86568
;WIDTH:0.776524
G1 X138.769 Y174.013 E13.02526
;WIDTH:0.776626
G1 X136.301 Y174.881 E13.18487
;WIDTH:0.776727
G3 X131.264 Y176.293 I-18.669 J-56.906 E13.50414
;WIDTH:0.776912
G3 X126.123 Y177.264 I-13.808 J-59.010 E13.82352
;WIDTH:0.776145
G1 X123.526 Y177.581 E13.98303
;WIDTH:0.777169
G1 X120.918 Y177.786 E14.14275
;WIDTH:0.775175
G1 X118.972 Y177.864 E14.26133
;WIDTH:0.787776
G1 X118.926 Y177.863 E14.26418
G1 E12.76418 F3300
G92 E0
G1 Z.5 F9000
G1 X58.29 Y114.617
G1 Z.2
G1 E1.5 F3300
;TYPE:Perimeter
;WIDTH:0.646161
G1 F1200
G2 X57.488 Y115.208 I2.033 J3.599 E1.55006
G1 X57.57 Y113.729 E1.62436
G2 X58.229 Y114.550 I3.269 J-1.949 E1.67729
G1 X59.988 Y114.94 F9000
;WIDTH:0.599999
G1 F1200
G2 X58.232 Y115.343 I-0.250 J2.939 E1.76212
G1 X57.846 Y115.663 E1.78535
G2 X56.859 Y117.437 I2.699 J2.663 E1.88043
G3 X57.221 Y110.999 I49.545 J-0.443 E2.17927
G2 X58.580 Y114.091 I5.447 J-0.549 E2.33832
G2 X59.903 Y114.910 I2.102 J-1.918 E2.41113
G1 E.91113 F3300
G92 E0
G1 Z.5 F9000
G1 X110.319 Y177.377
G1 Z.2
G1 E1.5 F3300
;TYPE:External perimeter
;WIDTH:0.838733
G1 F1200
G1 X110.153 Y177.381 E1.51099
;WIDTH:0.806264
G1 X109.601 Y177.336 E1.54614
;WIDTH:0.791929
G1 X108.976 Y177.278 E1.58523
;WIDTH:0.767053
G1 X108.946 Y177.274 E1.58705
;WIDTH:0.769125
G1 X107.233 Y177.005 E1.69176
;WIDTH:0.773448
G1 X104.666 Y176.505 E1.85062
;WIDTH:0.773613
G1 X102.122 Y175.893 E2.0096
;WIDTH:0.772586
G1 X99.609 Y175.173 E2.1682
;WIDTH:0.773931
G1 X97.126 Y174.343 E2.32734
;WIDTH:0.774088
G1 X94.682 Y173.407 E2.48645
;WIDTH:0.774242
G1 X92.282 Y172.366 E2.64553
;WIDTH:0.774391
G1 X89.929 Y171.222 E2.80466
;WIDTH:0.774541
G1 X87.628 Y169.977 E2.96382
;WIDTH:0.774685
G1 X85.382 Y168.634 E3.12305
;WIDTH:0.774826
G1 X83.197 Y167.194 E3.28231
;WIDTH:0.774966
G1 X81.077 Y165.662 E3.44152
;WIDTH:0.775103
G1 X79.025 Y164.039 E3.6008
;WIDTH:0.775239
G1 X77.045 Y162.328 E3.76015
;WIDTH:0.775367
G1 X75.141 Y160.534 E3.91948
;WIDTH:0.774417
G1 X73.317 Y158.658 E4.07863
;WIDTH:0.775619
G1 X71.575 Y156.705 E4.23807
;WIDTH:0.775747
G1 X69.957 Y154.725 E4.39388
;WIDTH:0.776867
G1 X68.354 Y152.583 E4.55715
;WIDTH:0.775981
G1 X66.88 Y150.421 E4.71665
;WIDTH:0.776096
G1 X65.502 Y148.197 E4.87615
;WIDTH:0.775184
G1 X64.221 Y145.916 E5.03544
;WIDTH:0.776317
M73 P6 R29
G1 X63.067 Y143.634 E5.19138
;WIDTH:0.777383
G1 X61.961 Y141.197 E5.35482
;WIDTH:0.776526
G1 X60.987 Y138.769 E5.5144
;WIDTH:0.776627
G1 X60.119 Y136.301 E5.67401
;WIDTH:0.766042
G1 X60.115 Y136.29 E5.67471
;WIDTH:0.776728
G3 X58.721 Y131.321 I56.776 J-18.608 E5.98968
;WIDTH:0.77783
G1 X58.166 Y128.704 E6.15316
;WIDTH:0.777208
G1 X57.731 Y126.082 E6.31544
;WIDTH:0.776045
G1 X57.419 Y123.526 E6.47241
;WIDTH:0.77717
G1 X57.214 Y120.918 E6.63213
;WIDTH:0.775176
G1 X57.136 Y118.972 E6.75071
;WIDTH:0.794126
G1 X57.167 Y118.431 E6.78456
;WIDTH:0.823835
G1 X57.197 Y117.889 E6.81981
G1 X57.257 Y117.759 E6.82911
;WIDTH:0.779068
G1 X57.316 Y117.63 E6.83779
;WIDTH:0.734301
G1 X57.375 Y117.5 E6.846
;WIDTH:0.689534
G1 X57.434 Y117.371 E6.85363
;WIDTH:0.644767
G1 X57.494 Y117.241 E6.8608
;WIDTH:0.599999
G3 X58.948 Y115.600 I2.644 J0.878 E6.96537
G1 X59.449 Y115.502 E6.98902
;WIDTH:0.643349
G1 X59.612 Y115.48 E6.99723
;WIDTH:0.686698
G1 X59.775 Y115.457 E7.00604
;WIDTH:0.730047
G1 X59.937 Y115.434 E7.01539
;WIDTH:0.773396
G1 X60.1 Y115.411 E7.02539
;WIDTH:0.808227
G1 X60.186 Y115.393 E7.03098
;WIDTH:0.843057
G3 X60.740 Y115.387 I0.290 J1.231 E7.06796
;WIDTH:0.82269
G1 X109.493 Y115.386 E10.22901
;WIDTH:0.848516
G1 X109.884 Y115.421 E10.25531
G1 X110.014 Y115.51 E10.26586
;WIDTH:0.798813
G1 X110.144 Y115.599 E10.27576
;WIDTH:0.74911
G1 X110.274 Y115.689 E10.28504
;WIDTH:0.699406
G1 X110.403 Y115.778 E10.2936
;WIDTH:0.649703
G1 X110.533 Y115.867 E10.30155
;WIDTH:0.599999
G3 X111.552 Y117.350 I-2.236 J2.628 E10.38581
G3 X112.038 Y119.199 I-11.018 J3.885 E10.47444
G2 X112.672 Y120.592 I6.253 J-2.005 E10.54545
G1 X113.701 Y122.368 E10.64053
G3 X114.463 Y124.493 I-5.553 J3.190 E10.74565
;WIDTH:0.649024
G1 X114.494 Y124.616 E10.75204
;WIDTH:0.698049
G1 X114.525 Y124.739 E10.75895
;WIDTH:0.747073
G1 X114.556 Y124.862 E10.76638
;WIDTH:0.796098
G1 X114.586 Y124.985 E10.77431
;WIDTH:0.845122
G3 X114.609 Y125.338 I-0.598 J0.216 E10.79812
;WIDTH:0.828234
G1 X114.608 Y174.26 E13.99268
;WIDTH:0.855164
G1 X114.562 Y174.789 E14.02854
G1 X114.506 Y174.878 E14.03564
;WIDTH:0.806161
G1 X114.449 Y174.967 E14.04235
;WIDTH:0.757157
G1 X114.393 Y175.055 E14.04854
;WIDTH:0.708154
G1 X114.336 Y175.144 E14.05439
;WIDTH:0.65915
G1 X114.28 Y175.233 E14.05978
;WIDTH:0.610146
G1 X114.083 Y175.56 E14.07779
;WIDTH:0.599999
G3 X112.457 Y176.826 I-2.996 J-2.170 E14.17447
G3 X110.932 Y177.226 I-2.170 J-5.165 E14.24768
;WIDTH:0.6452
G1 X110.928 Y177.249 E14.24885
;WIDTH:0.6904
G1 X110.923 Y177.272 E14.25012
;WIDTH:0.735601
G1 X110.919 Y177.296 E14.25152
;WIDTH:0.780801
G1 X110.915 Y177.319 E14.25295
;WIDTH:0.826002
G1 X110.91 Y177.342 E14.25448
;WIDTH:0.871202
G1 X110.906 Y177.366 E14.25616
G1 X110.53 Y177.373 E14.28206
;WIDTH:0.838733
G1 X110.409 Y177.375 E14.29007
G1 E12.79007 F3300
G92 E0
G1 Z.5 F9000
G1 X120.36 Y58.319
G1 Z.2
G1 E1.5 F3300
;TYPE:Perimeter
;WIDTH:0.646709
G1 F1200
G2 X119.787 Y57.488 I-2.287 J0.964 E1.55093
G1 X121.261 Y57.571 E1.62505
G2 X120.428 Y58.259 I2.182 J3.490 E1.67937
