; generated by PrusaSlicer 2.6.0+win64 on 2023-06-30 at 01:37:34 UTC
; Postprocessed by [ArcWelder](https://github.com/FormerLurker/ArcWelderLib)
; Copyright(C) 2021 - Brad Hochgesang
; Version: 1.2.0, Branch: HEAD, BuildDate: 2021-11-21T20:25:43Z
; resolution=0.05mm
; path_tolerance=5.0%
; max_radius=9999.00mm
; default_xyz_precision=3
; default_e_precision=5
; extrusion_rate_variance_percent=5.0%








; 

; external perimeters extrusion width = 0.60mm
; perimeters extrusion width = 0.60mm
; infill extrusion width = 0.60mm
; solid infill extrusion width = 0.60mm
; top infill extrusion width = 0.38mm
; first layer extrusion width = 0.60mm

M73 P0 R59


; Pre-Processed for Cancel-Object support by preprocess_cancellation v0.2.0
; 1 known objects
EXCLUDE_OBJECT_DEFINE NAME=Helicopter___Rear_stl_id_0_copy_0 CENTER=114.434,138.916 POLYGON=[[93.222,22.576],[93.222,212.425],[141.756,212.425],[141.756,22.576]]
;TYPE:Custom
G90 ; use absolute coordinates
M83 ; extruder relative mode
M104 S205 ; set temporary nozzle temp to prevent oozing during homing
M140 S65 ; set final bed temp
G4 S30 ; allow partial nozzle warmup
G28 ; home all axis
BED_MESH_CALIBRATE
G1 Z50 F240
G1 X2.0 Y10 F3000
M104 S210 ; set final nozzle temp
M190 S65 ; wait for bed temp to stabilize
M109 S210 ; wait for nozzle temp to stabilize
G1 Z0.28 F240
G92 E0
G1 X2.0 Y140 E10 F1500 ; prime the nozzle
G1 X2.3 Y140 F5000
G92 E0
G1 X2.3 Y10 E10 F1200 ; prime the nozzle
G21 ; set units to millimeters
G90 ; use absolute coordinates
M82 ; use absolute distances for extrusion
G92 E0
; Filament gcode
M107
;LAYER_CHANGE
;Z:0.2
;HEIGHT:0.2
;BEFORE_LAYER_CHANGE
;0.2
M117 Layer 1/105 : klipper-PLA-0.6

G1 Z.2 F9000
SET_PRINT_STATS_INFO CURRENT_LAYER=1
;AFTER_LAYER_CHANGE
;0.2
M73 P1 R59
G1 E-1.5 F3300
G92 E0
G1 Z.5 F9000
G1 X101.877 Y22.067
G1 Z.2
M73 P1 R58
G1 E1.5 F3300
;TYPE:Skirt/Brim
;WIDTH:0.6
G1 F1200
G1 X102.344 Y20.319 E1.58381
G1 X103.163 Y18.753 E1.66567
G1 X104.303 Y17.4 E1.74762
G1 X105.708 Y16.328 E1.82948
G1 X107.267 Y15.6 E1.90918
G1 X108.987 Y15.213 E1.99084
G1 X110.3 Y15.161 E2.05171
G1 X112.644 Y15.558 E2.16183
G1 X114.726 Y16.705 E2.27194
G1 X116.314 Y18.474 E2.38206
G1 X117.202 Y20.55 E2.48665
G1 X118.321 Y25.13 E2.70504
G1 X148.238 Y208.565 E11.31426
G1 X148.323 Y210.043 E11.38284
G1 X147.656 Y212.771 E11.51293
G1 X146.026 Y215.009 E11.64118
G1 X143.674 Y216.469 E11.76941
G1 X141.758 Y216.91 E11.86048
G1 X118.363 Y218.939 E12.94824
G1 X116.024 Y218.912 E13.05659
G1 X93.251 Y216.912 E14.11553
G1 X91.877 Y216.653 E14.1803
G1 X89.445 Y215.411 E14.30679
G1 X87.816 Y213.628 E14.41866
G1 X87.093 Y212.144 E14.49513
G1 X86.691 Y209.148 E14.63515
G1 X101.869 Y22.156 E23.32536
G1 X102.422 Y22.255 F9000
G1 F1200
G3 X102.847 Y20.562 I6.817 J0.812 E23.40638
G1 X103.602 Y19.098 E23.48268
G1 X104.657 Y17.832 E23.55902
G1 X105.96 Y16.826 E23.63527
G1 X107.447 Y16.127 E23.71138
G1 X109.092 Y15.762 E23.78943
G1 X110.3 Y15.718 E23.84542
G1 X112.547 Y16.115 E23.95112
G1 X114.522 Y17.258 E24.05682
G1 X115.985 Y19.008 E24.16248
G1 X116.661 Y20.685 E24.24623
G1 X117.772 Y25.22 E24.46251
G1 X147.688 Y208.655 E33.07173
G1 X147.771 Y209.91 E33.12999
M73 P2 R58
G1 X147.332 Y212.108 E33.23382
G1 X146.167 Y214.061 E33.33916
G1 X144.382 Y215.525 E33.4461
G1 X141.726 Y216.351 E33.57494
G1 X118.937 Y218.356 E34.63464
G1 X116.648 Y218.382 E34.74068
G1 X93.3 Y216.357 E35.82625
G1 X92.17 Y216.157 E35.87941
G1 X90.105 Y215.205 E35.98474
G1 X88.48 Y213.613 E36.09012
G1 X87.381 Y211.145 E36.21526
G1 X87.246 Y209.193 E36.3059
G1 X102.406 Y22.344 E44.98944
; printing object Helicopter_-_Rear.stl id:0 copy 0
EXCLUDE_OBJECT_START NAME=Helicopter___Rear_stl_id_0_copy_0
G1 E43.48944 F3300
G92 E0
G1 Z.5 F9000
G1 X117.5 Y207.956
G1 Z.2
G1 E1.5 F3300
;TYPE:Perimeter
;WIDTH:0.599999
G1 F1200
G2 X111.356 Y206.183 I-6.157 J9.805 E1.79999
G1 X98.788 Y206.183 E2.38216
G1 X99.157 Y205.062 E2.43683
G1 X108.538 Y201.245 E2.90596
G2 X116.915 Y190.742 I-5.941 J-13.331 E3.55249
;WIDTH:0.640181
G1 X116.997 Y190.325 E3.5736
;WIDTH:0.680363
G1 X117.079 Y189.908 E3.59613
;WIDTH:0.720544
G2 X117.177 Y188.887 I-2.967 J-0.800 E3.65412
;WIDTH:0.683282
G1 X117.193 Y188.282 E3.68635
;WIDTH:0.64602
G1 X117.206 Y187.772 E3.71193
;WIDTH:0.661143
G2 X117.107 Y186.423 I-6.577 J-0.195 E3.78155
;WIDTH:0.630571
G1 X117.027 Y185.817 E3.81142
;WIDTH:0.599999
G2 X115.573 Y181.298 I-14.701 J2.237 E4.03221
G1 X113.142 Y161.502 E4.95607
G1 X113.142 Y139.015 E5.9977
G2 X115.299 Y139.267 I2.209 J-9.547 E6.09848
G1 X121.858 Y139.267 E6.4023
G1 X121.858 Y161.502 E7.43225
G1 X119.426 Y181.302 E8.3563
G2 X117.929 Y186.136 I13.614 J6.865 E8.59177
;WIDTH:0.647843
G2 X117.800 Y188.112 I9.805 J1.632 E8.69149
;WIDTH:0.661605
G1 X117.799 Y188.613 E8.71726
;WIDTH:0.691075
G1 X117.818 Y189.049 E8.74078
;WIDTH:0.720544
G2 X117.874 Y189.677 I2.151 J0.125 E8.77639
;WIDTH:0.690659
G1 X117.912 Y189.87 E8.78698
;WIDTH:0.660773
G1 X118.033 Y190.471 E8.81848
;WIDTH:0.630386
G1 X118.153 Y191.071 E8.84837
;WIDTH:0.599999
G2 X118.911 Y193.482 I14.334 J-3.182 E8.96555
G1 X119.696 Y195.105 E9.04906
G2 X126.396 Y201.217 I12.710 J-7.204 E9.47610
G1 X135.844 Y205.063 E9.94861
G1 X136.214 Y206.181 E10.00316
G2 X123.490 Y206.186 I-5.982 J966.258 E10.59255
G2 X117.579 Y207.913 I0.145 J11.474 E10.88127
G1 X117.5 Y208.628 F9000
G1 F1200
G2 X112.882 Y206.848 I-6.119 J8.996 E11.11249
G1 X111.356 Y206.74 E11.18335
G1 X98.019 Y206.74 E11.80114
G1 X98.708 Y204.644 E11.90334
M73 P2 R57
G1 X108.328 Y200.729 E12.38444
G2 X115.032 Y181.462 I-5.743 J-12.798 E13.44292
G1 X112.585 Y161.536 E14.37285
G1 X112.585 Y138.282 E15.45001
G2 X115.299 Y138.710 I2.751 J-8.624 E15.57774
G1 X122.415 Y138.71 E15.90736
G1 X122.415 Y161.536 E16.96469
G1 X119.968 Y181.462 E17.89462
G2 X119.415 Y193.245 I12.455 J6.489 E18.45847
G1 X120.172 Y194.816 E18.53925
G2 X126.616 Y200.706 I12.234 J-6.915 E18.95030
G1 X136.292 Y204.643 E19.43419
G1 X136.985 Y206.738 E19.5364
G2 X123.514 Y206.742 I-6.133 J2030.528 E20.16039
M73 P3 R57
G2 X117.575 Y208.578 I0.117 J10.901 E20.45230
G1 X117.477 Y209.285 F9000
G1 F1200
G2 X111.356 Y207.297 I-6.128 J8.450 E20.75523
G1 X97.249 Y207.297 E21.40868
G1 X98.26 Y204.225 E21.55849
G1 X108.118 Y200.213 E22.05149
G2 X114.492 Y181.636 I-5.530 J-12.280 E23.07142
G1 X112.028 Y161.57 E24.00788
G1 X112.028 Y137.48 E25.12376
G2 X115.299 Y138.153 I3.253 J-7.525 E25.27946
G1 X122.972 Y138.153 E25.63488
G1 X122.972 Y161.57 E26.71959
G1 X120.52 Y181.538 E27.65148
G1 X119.688 Y183.508 E27.75054
G1 X119.234 Y185.117 E27.82798
G2 X119.919 Y193.008 I13.050 J2.842 E28.20037
G1 X120.648 Y194.527 E28.27842
G2 X126.836 Y200.194 I11.752 J-6.621 E28.67349
G1 X136.74 Y204.224 E29.16878
G1 X137.756 Y207.296 E29.31866
G1 X124.09 Y207.297 E29.95169
G2 X117.559 Y209.260 I-0.406 J10.496 E30.27325
G1 X117.309 Y209.852 F9000
G1 F1200
G2 X111.356 Y207.854 I-5.960 J7.891 E30.56909
G1 X96.479 Y207.854 E31.25821
G1 X97.811 Y203.806 E31.45561
G1 X108.093 Y199.61 E31.97002
G1 X109.536 Y198.82 E32.04622
G2 X113.952 Y181.812 I-6.908 J-10.871 E32.94186
G1 X111.471 Y161.604 E33.88495
G1 X111.471 Y136.596 E35.04335
G2 X115.299 Y137.596 I3.828 J-6.828 E35.22851
G1 X123.529 Y137.596 E35.60973
G1 X123.529 Y161.604 E36.72181
G1 X121.048 Y181.812 E37.6649
G1 X120.867 Y182.155 E37.68286
G1 X120.222 Y183.665 E37.75892
G2 X119.498 Y187.384 I12.289 J4.322 E37.93497
G2 X120.424 Y192.772 I12.842 J0.567 E38.19010
G1 X121.124 Y194.237 E38.26531
G2 X127.521 Y199.882 I11.460 J-6.540 E38.66790
G1 X137.188 Y203.805 E39.15116
G1 X138.527 Y207.853 E39.34866
G1 X123.561 Y207.856 E40.0419
G2 X117.718 Y209.832 I0.079 J9.861 E40.33232
G1 X117.399 Y209.848 E40.34712
G1 X117.121 Y210.41 F9000
G1 F1200
G2 X111.356 Y208.411 I-5.770 J7.328 E40.63494
G1 X95.709 Y208.411 E41.35973
G1 X97.362 Y203.387 E41.60472
G1 X107.698 Y199.181 E42.12162
G1 X109.212 Y198.367 E42.20124
G2 X113.413 Y181.987 I-6.589 J-10.419 E43.06436
G1 X110.914 Y161.638 E44.01403
G1 X110.914 Y135.566 E45.22172
G2 X115.299 Y137.039 I4.386 J-5.794 E45.43970
G1 X124.086 Y137.039 E45.84673
G1 X124.086 Y161.638 E46.98619
G1 X121.587 Y181.987 E47.93586
G1 X121.377 Y182.379 E47.95646
G1 X120.756 Y183.823 E48.02927
G2 X127.731 Y199.366 I11.645 J4.111 E48.90032
G1 X137.636 Y203.385 E49.39546
G1 X139.298 Y208.41 E49.64063
G2 X123.585 Y208.412 I-7.334 J4103.806 E50.36847
G2 X117.889 Y210.408 I0.052 J9.273 E50.65312
G1 X117.211 Y210.409 E50.68453
G1 X116.932 Y210.967 F9000
G1 F1200
G2 X111.356 Y208.968 I-5.590 J6.817 E50.96417
G1 X94.94 Y208.968 E51.72458
G1 X96.914 Y202.968 E52.01716
G1 X107.488 Y198.665 E52.54596
G1 X108.889 Y197.913 E52.61961
G2 X113.016 Y193.481 I-6.208 J-9.918 E52.90320
M73 P4 R57
G2 X112.873 Y182.162 I-10.342 J-5.530 E53.45018
G1 X110.357 Y161.673 E54.40639
G1 X110.361 Y134.34 E55.67249
G2 X115.299 Y136.482 I4.948 J-4.643 E55.92870
G1 X124.643 Y136.482 E56.36153
G1 X124.643 Y161.673 E57.52841
G1 X122.127 Y182.162 E58.48462
G1 X121.887 Y182.603 E58.50788
G2 X127.449 Y198.636 I10.507 J5.336 E59.38566
G1 X138.084 Y202.966 E59.91755
G1 X140.07 Y208.967 E60.21035
G1 X123.609 Y208.969 E60.97285
G2 X118.083 Y210.964 I0.031 J8.736 E61.25028
G1 X117.022 Y210.967 E61.29943
G1 E59.79943 F3300
G92 E0
G1 Z.5 F9000
G1 X109.814 Y129.587
G1 Z.2
G1 E1.5 F3300
;WIDTH:0.71438
G1 F1200
G1 X109.789 Y127.291 E1.6282
;WIDTH:0.66438
G1 X109.789 Y126.259 E1.68153
;WIDTH:0.71438
G2 X109.789 Y124.291 I-14.393 J-0.984 E1.79145
;WIDTH:0.66438
G1 X109.789 Y123.259 E1.84478
;WIDTH:0.71438
G2 X109.789 Y121.291 I-14.393 J-0.984 E1.95470
;WIDTH:0.66438
G1 X109.789 Y120.259 E2.00803
;WIDTH:0.71438
G2 X109.789 Y118.291 I-14.393 J-0.984 E2.11795
;WIDTH:0.66438
G1 X109.789 Y117.259 E2.17128
;WIDTH:0.71438
G2 X109.789 Y115.291 I-14.393 J-0.984 E2.28120
;WIDTH:0.66438
G1 X109.789 Y114.259 E2.33453
;WIDTH:0.71438
G2 X109.789 Y112.291 I-14.393 J-0.984 E2.44445
;WIDTH:0.66438
G1 X109.789 Y111.259 E2.49778
;WIDTH:0.71438
G2 X109.789 Y109.291 I-14.393 J-0.984 E2.60770
;WIDTH:0.66438
G1 X109.789 Y108.259 E2.66103
;WIDTH:0.71438
G2 X109.789 Y106.291 I-14.393 J-0.984 E2.77095
;WIDTH:0.66438
G1 X109.789 Y105.259 E2.82428
;WIDTH:0.71438
G2 X109.789 Y103.291 I-14.393 J-0.984 E2.93420
;WIDTH:0.66438
G1 X109.789 Y102.259 E2.98753
;WIDTH:0.71438
G2 X109.789 Y100.291 I-14.393 J-0.984 E3.09745
;WIDTH:0.66438
G1 X109.789 Y99.259 E3.15078
;WIDTH:0.71438
G2 X109.789 Y97.291 I-14.393 J-0.984 E3.26070
;WIDTH:0.66438
G1 X109.789 Y96.259 E3.31403
;WIDTH:0.71438
G2 X109.789 Y94.291 I-14.393 J-0.984 E3.42395
;WIDTH:0.66438
G1 X109.789 Y93.259 E3.47728
;WIDTH:0.71438
G2 X109.789 Y91.291 I-14.393 J-0.984 E3.58720
;WIDTH:0.66438
G1 X109.789 Y90.259 E3.64053
;WIDTH:0.71438
G2 X109.789 Y88.291 I-14.393 J-0.984 E3.75045
;WIDTH:0.66438
G1 X109.789 Y87.259 E3.80378
;WIDTH:0.71438
G2 X109.789 Y85.291 I-14.393 J-0.984 E3.91370
;WIDTH:0.66438
G1 X109.789 Y84.259 E3.96703
;WIDTH:0.71438
G2 X109.789 Y82.291 I-14.393 J-0.984 E4.07695
;WIDTH:0.66438
G1 X109.789 Y81.259 E4.13028
;WIDTH:0.71438
G2 X109.789 Y79.291 I-14.393 J-0.984 E4.24020
;WIDTH:0.66438
G1 X109.789 Y78.259 E4.29353
;WIDTH:0.71438
G2 X109.789 Y76.291 I-14.393 J-0.984 E4.40345
;WIDTH:0.66438
G1 X109.789 Y75.259 E4.45678
;WIDTH:0.71438
G2 X109.789 Y73.291 I-14.393 J-0.984 E4.56670
;WIDTH:0.66438
G1 X109.789 Y72.259 E4.62003
;WIDTH:0.71438
G2 X109.789 Y70.291 I-14.393 J-0.984 E4.72995
;WIDTH:0.66438
G1 X109.789 Y69.259 E4.78328
;WIDTH:0.71438
G2 X109.789 Y67.291 I-14.393 J-0.984 E4.89320
;WIDTH:0.66438
G1 X109.789 Y66.259 E4.94653
;WIDTH:0.71438
G2 X109.789 Y64.291 I-14.393 J-0.984 E5.05645
;WIDTH:0.66438
G1 X109.789 Y63.259 E5.10978
;WIDTH:0.71438
G2 X109.789 Y61.291 I-14.393 J-0.984 E5.21970
;WIDTH:0.66438
G1 X109.789 Y60.259 E5.27303
;WIDTH:0.71438
G2 X109.789 Y58.291 I-14.393 J-0.984 E5.38295
;WIDTH:0.66438
G1 X109.789 Y57.259 E5.43628
;WIDTH:0.71438
G2 X109.789 Y55.291 I-14.393 J-0.984 E5.54620
;WIDTH:0.66438
G1 X109.789 Y54.259 E5.59953
;WIDTH:0.71438
G2 X109.789 Y52.291 I-14.393 J-0.984 E5.70945
;WIDTH:0.66438
G1 X109.789 Y51.259 E5.76278
;WIDTH:0.71438
G2 X109.789 Y49.291 I-14.393 J-0.984 E5.87270
;WIDTH:0.66438
G1 X109.789 Y48.259 E5.92603
;WIDTH:0.71438
G2 X109.789 Y46.291 I-14.393 J-0.984 E6.03595
;WIDTH:0.66438
G1 X109.789 Y45.259 E6.08928
;WIDTH:0.71438
G1 X109.814 Y44.773 E6.11645
M73 P4 R56
G1 X109.789 Y43.291 E6.1992
;WIDTH:0.66438
G1 X109.789 Y42.259 E6.25253
;WIDTH:0.71438
G2 X109.789 Y40.291 I-14.393 J-0.984 E6.36245
;WIDTH:0.66438
G1 X109.789 Y39.259 E6.41578
;WIDTH:0.71438
G2 X109.789 Y37.291 I-14.393 J-0.984 E6.52570
;WIDTH:0.66438
G1 X109.789 Y36.259 E6.57903
;WIDTH:0.71438
G2 X109.789 Y34.291 I-14.393 J-0.984 E6.68895
;WIDTH:0.66438
G1 X109.789 Y33.259 E6.74228
;WIDTH:0.71438
G2 X109.789 Y31.291 I-14.393 J-0.984 E6.85220
;WIDTH:0.66438
G1 X109.789 Y30.259 E6.90553
;WIDTH:0.71438
G2 X109.789 Y28.291 I-14.393 J-0.984 E7.01545
;WIDTH:0.66438
G1 X109.789 Y23.899 E7.2424
G1 X110.411 Y26.384 E7.37477
G1 X110.411 Y28.291 E7.47331
;WIDTH:0.67331
G1 X110.419 Y28.442 E7.48124
;WIDTH:0.71438
G1 X110.486 Y28.668 E7.4944
G1 X110.486 Y29.773 E7.55609
G1 X110.411 Y30.259 E7.58355
;WIDTH:0.66438
G1 X110.411 Y31.291 E7.63688
;WIDTH:0.67331
G1 X110.419 Y31.442 E7.64481
;WIDTH:0.71438
G1 X110.486 Y31.668 E7.65797
G1 X110.486 Y32.773 E7.71966
G1 X110.411 Y33.259 E7.74712
;WIDTH:0.66438
G1 X110.411 Y34.291 E7.80045
;WIDTH:0.67331
G1 X110.419 Y34.442 E7.80838
;WIDTH:0.71438
G1 X110.486 Y34.668 E7.82154
G1 X110.486 Y35.773 E7.88323
G1 X110.411 Y36.259 E7.91069
;WIDTH:0.66438
G1 X110.411 Y37.291 E7.96402
;WIDTH:0.67331
G1 X110.419 Y37.442 E7.97195
;WIDTH:0.71438
G1 X110.486 Y37.668 E7.98511
G1 X110.486 Y38.773 E8.0468
G1 X110.411 Y39.259 E8.07426
;WIDTH:0.66438
G1 X110.411 Y40.291 E8.12759
;WIDTH:0.67331
G1 X110.419 Y40.442 E8.13552
;WIDTH:0.71438
G1 X110.486 Y40.668 E8.14868
G1 X110.486 Y41.773 E8.21037
G1 X110.411 Y42.259 E8.23783
;WIDTH:0.66438
G1 X110.411 Y43.291 E8.29116
;WIDTH:0.67331
G1 X110.419 Y43.442 E8.29909
;WIDTH:0.71438
G1 X110.486 Y43.668 E8.31225
G1 X110.486 Y44.773 E8.37394
G1 X110.411 Y45.259 E8.4014
;WIDTH:0.66438
G1 X110.411 Y46.291 E8.45473
;WIDTH:0.67331
G1 X110.419 Y46.442 E8.46266
;WIDTH:0.71438
G1 X110.486 Y46.668 E8.47582
G1 X110.486 Y47.773 E8.53751
G1 X110.411 Y48.259 E8.56497
;WIDTH:0.66438
G1 X110.411 Y49.291 E8.6183
;WIDTH:0.67331
G1 X110.419 Y49.442 E8.62623
;WIDTH:0.71438
G1 X110.486 Y49.668 E8.63939
G1 X110.486 Y50.773 E8.70108
G1 X110.411 Y51.259 E8.72854
;WIDTH:0.66438
G1 X110.411 Y52.291 E8.78187
;WIDTH:0.67331
G1 X110.419 Y52.442 E8.7898
;WIDTH:0.71438
G1 X110.486 Y52.668 E8.80296
G1 X110.486 Y53.773 E8.86465
G1 X110.411 Y54.259 E8.89211
;WIDTH:0.66438
G1 X110.411 Y55.291 E8.94544
;WIDTH:0.67331
G1 X110.419 Y55.442 E8.95337
;WIDTH:0.71438
G1 X110.486 Y55.668 E8.96653
G1 X110.486 Y56.773 E9.02822
G1 X110.411 Y57.259 E9.05568
;WIDTH:0.66438
G1 X110.411 Y58.291 E9.10901
;WIDTH:0.67331
G1 X110.419 Y58.442 E9.11694
;WIDTH:0.71438
G1 X110.486 Y58.668 E9.1301
G1 X110.486 Y59.773 E9.19179
G1 X110.411 Y60.259 E9.21925
;WIDTH:0.66438
G1 X110.411 Y61.291 E9.27258
;WIDTH:0.67331
G1 X110.419 Y61.442 E9.28051
;WIDTH:0.71438
G1 X110.486 Y61.668 E9.29367
G1 X110.486 Y62.773 E9.35536
G1 X110.411 Y63.259 E9.38282
;WIDTH:0.66438
G1 X110.411 Y64.291 E9.43615
;WIDTH:0.67331
G1 X110.419 Y64.442 E9.44408
;WIDTH:0.71438
G1 X110.486 Y64.668 E9.45724
G1 X110.486 Y65.773 E9.51893
G1 X110.411 Y66.259 E9.54639
;WIDTH:0.66438
G1 X110.411 Y67.291 E9.59972
;WIDTH:0.67331
G1 X110.419 Y67.442 E9.60765
;WIDTH:0.71438
G1 X110.486 Y67.668 E9.62081
G1 X110.486 Y68.773 E9.6825
G1 X110.411 Y69.259 E9.70996
;WIDTH:0.66438
G1 X110.411 Y70.291 E9.76329
;WIDTH:0.67331
G1 X110.419 Y70.442 E9.77122
;WIDTH:0.71438
G1 X110.486 Y70.668 E9.78438
G1 X110.486 Y71.773 E9.84607
G1 X110.411 Y72.259 E9.87353
;WIDTH:0.66438
G1 X110.411 Y73.291 E9.92686
;WIDTH:0.67331
G1 X110.419 Y73.442 E9.93479
;WIDTH:0.71438
G1 X110.486 Y73.668 E9.94795
G1 X110.486 Y74.773 E10.00964
G1 X110.411 Y75.259 E10.0371
;WIDTH:0.66438
G1 X110.411 Y76.291 E10.09043
;WIDTH:0.67331
G1 X110.419 Y76.442 E10.09836
;WIDTH:0.71438
G1 X110.486 Y76.668 E10.11152
G1 X110.486 Y77.773 E10.17321
