; generated by PrusaSlicer 2.6.0+win64 on 2023-06-29 at 18:01:36 UTC


;
;
; 

; external perimeters extrusion width = 0.60mm
; perimeters extrusion width = 0.60mm
; infill extrusion width = 0.60mm
; solid infill extrusion width = 0.60mm
; top infill extrusion width = 0.38mm
; support material extrusion width = 0.60mm
; first layer extrusion width = 0.60mm

M73 P0 R71


; Pre-Processed for Cancel-Object support by preprocess_cancellation v0.2.0
; 1 known objects
EXCLUDE_OBJECT_DEFINE NAME=Helicopter___Bottom_stl_id_0_copy_0 CENTER=130.300,112.859 POLYGON=[[60.89,95.707],[60.89,130.403],[164.387,130.403],[164.387,95.707]]
;TYPE:Custom
G90 ; use absolute coordinates
M83 ; extruder relative mode
M104 S150 ; set temporary nozzle temp to prevent oozing during homing
M140 S65 ; set final bed temp
G4 S30 ; allow partial nozzle warmup
G28 ; home all axis
BED_MESH_CALIBRATE
G1 Z50 F240
G1 X2.0 Y10 F3000
M104 S210 ; set final nozzle temp
M190 S65 ; wait for bed temp to stabilize
M109 S210 ; wait for nozzle temp to stabilize
M73 P0 R70
G1 Z0.28 F240
G92 E0
G1 X2.0 Y140 E10 F1500 ; prime the nozzle
G1 X2.3 Y140 F5000
G92 E0
G1 X2.3 Y10 E10 F1200 ; prime the nozzle
G21 ; set units to millimeters
G90 ; use absolute coordinates
M83 ; use relative distances for extrusion
; Filament gcode
M107
;LAYER_CHANGE
;Z:0.2
;HEIGHT:0.2
;BEFORE_LAYER_CHANGE
G92 E0
;0.2


G1 Z.2 F7800
;AFTER_LAYER_CHANGE
;0.2
G1 E-1.5 F3000
G1 X58.672 Y96.512 F7800
G1 E1.5 F3000
;TYPE:Skirt/Brim
;WIDTH:0.6
G1 F1200
G1 X59.856 Y95.918 E.06136
G1 X61.125 Y95.453 E.0626
G1 X62.273 Y95.166 E.05481
G1 X63.424 Y94.996 E.05389
G1 X126.836 Y88.765 E2.95148
G1 X128.783 Y88.629 E.09041
G1 X131.72 Y88.556 E.13609
G1 X135.396 Y88.659 E.17034
G1 X137.647 Y88.84 E.10461
G1 X142.295 Y89.491 E.2174
G1 X144.438 Y89.921 E.10125
G1 X148.011 Y90.836 E.17085
G1 X149.915 Y91.432 E.09242
G1 X152.858 Y92.52 E.14534
G1 X154.586 Y93.264 E.08715
M73 P1 R70
G1 X157.173 Y94.547 E.13376
G1 X159.209 Y95.723 E.10891
G1 X161.118 Y96.991 E.10616
G1 X162.891 Y98.344 E.10331
G1 X164.503 Y99.764 E.09951
G1 X166.067 Y101.369 E.10381
G1 X167.3 Y102.859 E.08959
G1 X168.562 Y104.684 E.10278
G1 X169.484 Y106.321 E.08703
G1 X170.252 Y108.029 E.08675
G1 X170.853 Y109.799 E.08659
G1 X171.314 Y111.847 E.09724
G1 X171.52 Y113.684 E.08563
G1 X171.536 Y115.495 E.08389
G1 X171.381 Y117.178 E.07829
G1 X171.019 Y119.022 E.08705
G1 X170.515 Y120.677 E.08014
G1 X169.752 Y122.493 E.09124
G1 X168.794 Y124.232 E.09197
G1 X167.651 Y125.886 E.09313
G1 X166.531 Y127.229 E.081
G1 X164.721 Y129.02 E.11795
G1 X163.156 Y130.3 E.09365
G1 X161.956 Y131.156 E.06828
G1 X159.922 Y132.409 E.11066
G1 X158.073 Y133.371 E.09655
G1 X156.545 Y134.062 E.07768
G1 X153.981 Y135.04 E.12711
G1 X152.28 Y135.58 E.08267
G1 X150.225 Y136.132 E.09856
G1 X147.363 Y136.735 E.13548
G1 X142.848 Y137.335 E.21098
G1 X138.236 Y137.557 E.21388
G1 X133.612 Y137.407 E.2143
G1 X131.307 Y137.196 E.10722
G1 X128.641 Y136.839 E.1246
G1 X125.124 Y136.172 E.16582
G1 X123.111 Y135.686 E.09592
G1 X60.771 Y118.255 E2.99843
G1 X59.674 Y117.824 E.0546
G1 X58.712 Y117.337 E.04995
G1 X57.794 Y116.761 E.0502
G1 X56.854 Y116.035 E.05502
G1 X55.324 Y114.215 E.11014
G1 X54.48 Y111.993 E.1101
G1 X54.372 Y109.992 E.09282
G1 X55.062 Y102.1 E.36696
G1 X55.662 Y99.8 E.1101
G1 X56.987 Y97.825 E.11017
G1 X58.601 Y96.567 E.09479
G1 X58.849 Y97.055 F7800
G1 F1200
G1 X60.075 Y96.43 E.06374
G1 X61.388 Y95.955 E.06468
G1 X63.478 Y95.55 E.09861
G1 X126.891 Y89.32 E2.95152
G1 X128.802 Y89.185 E.08874
G1 X131.717 Y89.113 E.13507
G1 X135.371 Y89.216 E.16933
G1 X137.601 Y89.395 E.10363
G1 X142.187 Y90.037 E.2145
G1 X144.309 Y90.463 E.10026
G1 X147.862 Y91.373 E.16989
G1 X149.731 Y91.958 E.09072
G1 X152.656 Y93.039 E.14445
G1 X154.347 Y93.768 E.0853
G1 X156.916 Y95.041 E.13281
G1 X158.92 Y96.199 E.10721
G1 X160.801 Y97.449 E.10462
G1 X162.544 Y98.78 E.10159
G1 X164.125 Y100.174 E.09764
G1 X165.651 Y101.74 E.10128
G1 X166.853 Y103.192 E.08731
G1 X168.093 Y104.984 E.10094
G1 X168.984 Y106.567 E.08414
G1 X169.732 Y108.227 E.08434
G1 X170.319 Y109.959 E.08471
G1 X170.765 Y111.944 E.09424
G1 X170.965 Y113.724 E.08297
G1 X170.98 Y115.474 E.08107
G1 X170.83 Y117.093 E.07532
G1 X170.478 Y118.892 E.08491
G1 X169.993 Y120.483 E.07705
G1 X169.254 Y122.244 E.08846
G1 X168.317 Y123.944 E.08992
G1 X167.213 Y125.541 E.08993
G1 X166.123 Y126.849 E.07887
G1 X164.345 Y128.608 E.11585
G1 X162.814 Y129.86 E.09161
G1 X161.652 Y130.689 E.06612
G1 X159.655 Y131.92 E.10867
G1 X157.823 Y132.873 E.09566
G1 X156.336 Y133.545 E.07559
G1 X153.792 Y134.516 E.12613
G1 X152.114 Y135.049 E.08155
G1 X150.103 Y135.588 E.09644
G1 X147.259 Y136.187 E.13463
G1 X142.808 Y136.78 E.208
G1 X138.242 Y137 E.21175
G1 X133.661 Y136.852 E.21231
G1 X131.378 Y136.644 E.10619
G1 X128.736 Y136.29 E.12347
G1 X125.236 Y135.627 E.16501
G1 X123.26 Y135.149 E.09417
G1 X60.951 Y117.728 E2.99693
G1 X59.9 Y117.315 E.05231
G1 X58.984 Y116.85 E.04758
G1 X58.109 Y116.302 E.04782
G1 X57.214 Y115.61 E.0524
G1 X55.759 Y113.853 E.10567
G1 X54.993 Y111.704 E.10568
G1 X54.927 Y110.041 E.07709
M73 P1 R69
G1 X55.617 Y102.148 E.36701
G1 X56.209 Y99.945 E.10567
G1 X57.519 Y98.077 E.10569
G1 X58.777 Y97.108 E.07356
; printing object Helicopter_-_Bottom.stl id:0 copy 0
EXCLUDE_OBJECT_START NAME=Helicopter___Bottom_stl_id_0_copy_0
G1 E-1.5 F3000
G1 X119.369 Y120.492 F7800
G1 E1.5 F3000
;TYPE:Support material
G1 F1200
G1 X124.449 Y120.937 E.23621
G1 X124.962 Y121.266 E.02823
G1 X125.476 Y121.857 E.03628
G1 X126.221 Y121.639 E.03596
G1 X127.39 Y121.639 E.05415
G1 X128.512 Y121.968 E.05416
G1 X129.569 Y122.645 E.05814
G1 X130.347 Y122.417 E.03755
G1 X131.516 Y122.416 E.05415
G1 X132.639 Y122.745 E.05421
G1 X133.33 Y123.189 E.03805
G1 X134.533 Y122.836 E.05807
G1 X135.703 Y122.836 E.0542
G1 X136.825 Y123.165 E.05416
G1 X137.262 Y123.445 E.02404
G1 X137.614 Y123.219 E.01938
G1 X138.737 Y122.89 E.05421
G1 X139.906 Y122.89 E.05415
G1 X141.2 Y123.269 E.06246
G1 X141.802 Y122.885 E.03308
G1 X142.959 Y122.556 E.05572
G1 X155.961 Y123.694 E.60457
G1 X155.042 Y124.233 E.04935
G1 X153.828 Y124.855 E.06319
G1 X152.423 Y125.475 E.07114
G1 X151.655 Y125.774 E.03818
G1 X150.832 Y126.068 E.04048
G1 X149.987 Y126.341 E.04113
G1 X149.033 Y126.62 E.04604
G1 X148.029 Y126.882 E.04806
G1 X146.963 Y127.127 E.05067
G1 X145.838 Y127.35 E.05313
G1 X144.651 Y127.549 E.05575
G1 X143.406 Y127.72 E.05821
G1 X142.107 Y127.859 E.06051
G1 X140.742 Y127.964 E.06342
G1 X139.328 Y128.03 E.06557
G1 X137.876 Y128.054 E.06727
G1 X136.381 Y128.033 E.06926
G1 X134.858 Y127.965 E.07062
G1 X133.526 Y127.866 E.06187
G1 X131.984 Y127.707 E.07181
G1 X130.458 Y127.502 E.07132
G1 X128.951 Y127.251 E.07077
G1 X127.468 Y126.956 E.07004
G1 X126.026 Y126.62 E.06858
G1 X124.634 Y126.25 E.06672
G1 X123.288 Y125.844 E.06512
G1 X122.012 Y125.415 E.06236
G1 X120.806 Y124.964 E.05964
G1 X119.785 Y124.546 E.0511
G1 X118.823 Y124.12 E.04873
G1 X117.922 Y123.688 E.04628
G1 X117.015 Y123.218 E.04732
G1 X117.269 Y120.309 E.13526
G1 X119.286 Y120.485 E.09379
G1 E-1.5 F3000
G1 X154.109 Y124.437 F7800
G1 E1.5 F3000
G1 F1200
G1 X154.109 Y124.035 E.01862
G1 X153.49 Y123.981 E.02878
G1 X153.49 Y124.459 E.02214
G1 X152.871 Y124.741 E.03151
G1 X152.871 Y123.927 E.03771
G1 X152.252 Y123.873 E.02878
G1 X152.252 Y125.003 E.05234
G1 X151.633 Y125.245 E.03079
G1 X151.633 Y123.818 E.0661
G1 X151.014 Y123.764 E.02878
G1 X151.014 Y125.47 E.07902
G1 X150.395 Y125.682 E.03031
G1 X150.395 Y123.71 E.09135
G1 X149.776 Y123.656 E.02878
G1 X149.776 Y125.881 E.10307
G1 X149.157 Y126.062 E.02987
G1 X149.157 Y123.602 E.11395
G1 X148.538 Y123.548 E.02878
G1 X148.538 Y126.231 E.12428
G1 X147.919 Y126.393 E.02964
G1 X147.919 Y123.493 E.13433
G1 X147.3 Y123.439 E.02878
G1 X147.3 Y126.535 E.14341
G1 X146.681 Y126.671 E.02936
G1 X146.681 Y123.385 E.15221
G1 X146.062 Y123.331 E.02878
G1 X146.062 Y126.794 E.16041
G1 X145.443 Y126.908 E.02916
G1 X145.443 Y123.277 E.16819
G1 X144.824 Y123.223 E.02878
G1 X144.824 Y127.012 E.17551
G1 X144.205 Y127.104 E.02899
G1 X144.205 Y123.169 E.18227
G1 X143.586 Y123.114 E.02879
G1 X143.586 Y127.189 E.18876
G1 X142.967 Y127.263 E.02888
G1 X142.967 Y123.066 E.19441
G1 X142.348 Y123.247 E.02987
G1 X142.348 Y127.329 E.18908
G1 X141.729 Y127.385 E.02879
G1 X141.729 Y123.526 E.17875
G1 X141.278 Y123.814 E.02479
G1 X141.11 Y123.765 E.00811
G1 X141.11 Y127.433 E.16991
G1 X140.491 Y127.474 E.02874
G1 X140.491 Y123.584 E.18019
G1 X139.872 Y123.402 E.02989
G1 X139.872 Y127.503 E.18996
G1 X139.253 Y127.53 E.0287
G1 X139.253 Y123.391 E.19172
G1 X138.808 Y123.391 E.02061
G1 X138.634 Y123.442 E.0084
G1 X138.634 Y127.54 E.18982
G1 X138.015 Y127.55 E.02868
G1 X138.015 Y123.623 E.1819
G1 X137.824 Y123.679 E.00922
G1 X137.396 Y123.954 E.02357
G1 X137.396 Y127.546 E.16639
G1 X136.777 Y127.537 E.02868
G1 X136.777 Y123.73 E.17635
G1 X136.615 Y123.626 E.00892
G1 X136.159 Y123.492 E.02202
G1 X136.159 Y127.521 E.18663
G1 X135.54 Y127.493 E.0287
G1 X135.54 Y123.337 E.19251
G1 X134.921 Y123.337 E.02867
G1 X134.921 Y127.465 E.19121
G1 X134.302 Y127.421 E.02875
G1 X134.302 Y123.426 E.18505
G1 X133.683 Y123.608 E.02989
G1 X133.683 Y127.375 E.17449
G1 X133.064 Y127.315 E.02881
G1 X133.064 Y123.613 E.17148
G1 X132.445 Y123.216 E.03406
G1 X132.445 Y127.251 E.18691
G1 X131.826 Y127.18 E.02886
G1 X131.826 Y123.029 E.19228
G1 X131.444 Y122.918 E.01843
G1 X131.207 Y122.918 E.01098
G1 X131.207 Y127.097 E.19358
G1 X130.588 Y127.013 E.02894
G1 X130.588 Y122.918 E.18969
G1 X130.419 Y122.918 E.00783
G1 X129.969 Y123.05 E.02172
G1 X129.969 Y126.912 E.17889
G1 X129.35 Y126.809 E.02907
G1 X129.35 Y123.1 E.17181
G1 X128.731 Y122.703 E.03406
G1 X128.731 Y126.696 E.18496
G1 X128.112 Y126.573 E.02923
G1 X128.112 Y122.373 E.19455
G1 X127.493 Y122.191 E.02989
G1 X127.493 Y126.447 E.19714
G1 X126.874 Y126.303 E.02944
G1 X126.874 Y122.14 E.19284
G1 X126.255 Y122.151 E.02868
G1 X126.255 Y126.159 E.18566
G1 X125.636 Y125.998 E.02963
G1 X125.636 Y122.333 E.16977
G1 X125.309 Y122.429 E.01579
G1 X125.017 Y122.093 E.02062
G1 X125.017 Y125.833 E.17324
G1 X124.398 Y125.655 E.02983
G1 X124.398 Y121.5 E.19247
G1 X124.282 Y121.426 E.00637
G1 X123.779 Y121.382 E.02339
G1 X123.779 Y125.469 E.18932
G1 X123.16 Y125.272 E.03009
G1 X123.16 Y121.327 E.18274
G1 X122.541 Y121.273 E.02878
G1 X122.541 Y125.064 E.1756
G1 X121.922 Y124.846 E.0304
G1 X121.922 Y121.219 E.16801
G1 X121.303 Y121.165 E.02878
G1 X121.303 Y124.615 E.15981
G1 X120.684 Y124.373 E.03079
G1 X120.684 Y121.111 E.1511
G1 X120.065 Y121.057 E.02878
G1 X120.065 Y124.119 E.14184
G1 X119.446 Y123.848 E.0313
G1 X119.446 Y121.002 E.13183
G1 X118.827 Y120.948 E.02878
G1 X118.827 Y123.565 E.12122
G1 X118.208 Y123.269 E.03178
G1 X118.208 Y120.894 E.11001
G1 X117.725 Y120.852 E.02246
G1 X117.589 Y122.404 E.07217
G1 X117.589 Y123.233 E.0384
G1 E-1.5 F3000
G1 X120.273 Y119.005 F7800
G1 X120.842 Y118.109
G1 X133.553 Y98.085
G1 E1.5 F3000
G1 F1200
G1 X135.116 Y98.165 E.0725
G1 X136.661 Y98.293 E.07181
G1 X138.206 Y98.47 E.07203
G1 X139.734 Y98.694 E.07154
G1 X141.24 Y98.963 E.07086
G1 X142.711 Y99.275 E.06965
G1 X144.131 Y99.623 E.06772
G1 X145.503 Y100.006 E.06598
G1 X146.823 Y100.421 E.06409
G1 X148.068 Y100.858 E.06112
G1 X149.249 Y101.315 E.05866
G1 X150.245 Y101.737 E.05011
G1 X151.182 Y102.167 E.04776
G1 X152.058 Y102.599 E.04524
G1 X152.822 Y103.005 E.04008
M73 P2 R69
G1 X153.588 Y103.439 E.04078
G1 X154.294 Y103.867 E.03824
G1 X155.628 Y104.761 E.07439
G1 X156.714 Y105.587 E.0632
G1 X157.637 Y106.38 E.05637
G1 X158.465 Y107.182 E.0534
G1 X159.141 Y107.924 E.0465
G1 X159.465 Y108.313 E.02345
G1 X159.997 Y109.019 E.04095
G1 X160.242 Y109.377 E.02009
G1 X160.667 Y110.071 E.0377
G1 X161.16 Y111.041 E.0504
G1 X161.515 Y111.948 E.04512
G1 X161.758 Y112.805 E.04126
G1 X161.908 Y113.62 E.03839
G1 X161.962 Y114.145 E.02445
G1 X161.982 Y114.658 E.02378
G1 X161.949 Y115.46 E.03718
G1 X161.887 Y115.962 E.02343
G1 X161.795 Y116.455 E.02323
G1 X161.671 Y116.949 E.02359
G1 X161.512 Y117.446 E.02417
G1 X161.206 Y118.203 E.03782
G1 X160.952 Y118.714 E.02643
G1 X160.655 Y119.231 E.02762
G1 X160.146 Y119.981 E.04199
G1 X158.152 Y119.807 E.09272
G1 X157.965 Y119.686 E.01032
G1 X157.202 Y118.801 E.05413
G1 X156.719 Y117.737 E.05413
G1 X156.554 Y116.577 E.05427
G1 X156.721 Y115.421 E.0541
G1 X157.042 Y114.717 E.03584
G1 X156.716 Y114.002 E.0364
G1 X156.524 Y112.672 E.06225
G1 X156.251 Y112.497 E.01502
G1 X155.486 Y111.615 E.05408
G1 X154.998 Y110.55 E.05426
G1 X154.972 Y110.376 E.00815
G1 X154.398 Y110.207 E.02772
G1 X153.414 Y109.576 E.05415
G1 X152.648 Y108.695 E.05408
G1 X152.184 Y107.684 E.05153
G1 X151.051 Y107.625 E.05255
G1 X150.022 Y107.251 E.05072
G1 X149.564 Y106.958 E.02519
G1 X148.95 Y106.469 E.03636
G1 X148.297 Y105.579 E.05113
G1 X147.744 Y105.741 E.02669
G1 X146.575 Y105.742 E.05415
G1 X145.453 Y105.413 E.05416
G1 X144.679 Y104.917 E.04258
G1 X143.958 Y104.918 E.0334
G1 X142.835 Y104.589 E.05421
G1 X141.851 Y103.958 E.05415
G1 X141.702 Y103.787 E.01051
G1 X141.046 Y103.98 E.03167
G1 X139.876 Y103.98 E.0542
G1 X138.755 Y103.652 E.0541
G1 X137.898 Y103.103 E.04714
G1 X136.882 Y103.401 E.04905
G1 X135.712 Y103.401 E.0542
G1 X134.591 Y103.072 E.05412
G1 X134.023 Y102.709 E.03122
G1 X133.776 Y102.867 E.01358
G1 X132.654 Y103.196 E.05416
G1 X131.484 Y103.196 E.0542
G1 X130.363 Y102.867 E.05412
G1 X130.107 Y102.703 E.01408
G1 X129.606 Y103.025 E.02759
G1 X128.484 Y103.353 E.05415
G1 X127.315 Y103.353 E.05415
G1 X126.757 Y103.19 E.02693
G1 X126.387 Y103.428 E.02038
G1 X125.265 Y103.756 E.05415
G1 X124.096 Y103.756 E.05415
G1 X123.023 Y103.442 E.05179
G1 X122.657 Y103.863 E.02584
G1 X121.676 Y104.492 E.05398
G1 X120.559 Y104.819 E.05391
G1 X119.394 Y104.818 E.05396
G1 X118.546 Y104.569 E.04094
G1 X118.947 Y99.988 E.21301
G1 X119.861 Y99.697 E.04443
G1 X120.821 Y99.423 E.04624
G1 X121.836 Y99.166 E.0485
G1 X122.911 Y98.928 E.051
G1 X124.056 Y98.709 E.054
G1 X125.265 Y98.515 E.05672
G1 X126.527 Y98.351 E.05895
G1 X127.842 Y98.219 E.06122
G1 X129.215 Y98.124 E.06375
G1 X130.635 Y98.067 E.06583
G1 X132.093 Y98.054 E.06754
G1 X133.47 Y98.083 E.0638
G1 E-1.5 F3000
G1 X160.918 Y118.225 F7800
G1 E1.5 F3000
G1 F1200
G1 X160.918 Y111.77 E.299
G1 X160.702 Y111.246 E.02625
G1 X160.299 Y110.442 E.04166
G1 X160.299 Y118.849 E.38942
G1 X159.906 Y119.457 E.03353
G1 X159.68 Y119.437 E.01051
G1 X159.68 Y109.443 E.46294
G1 X159.074 Y108.628 E.04704
G1 X159.061 Y108.611 E.00099
G1 X159.061 Y119.383 E.49897
G1 X158.442 Y119.329 E.02878
G1 X158.442 Y107.891 E.52982
G1 X157.823 Y107.249 E.04131
G1 X157.823 Y118.753 E.53288
G1 X157.629 Y118.528 E.01376
G1 X157.204 Y117.586 E.04787
G1 X157.204 Y115.584 E.09274
G1 X157.594 Y114.717 E.04404
G1 X157.204 Y113.864 E.04345
G1 X157.204 Y106.666 E.33342
G1 X156.585 Y106.133 E.03784
G1 X156.585 Y112.115 E.27709
G1 X155.966 Y111.403 E.0437
G1 X155.966 Y105.638 E.26704
G1 X155.347 Y105.177 E.03575
G1 X155.347 Y109.963 E.22169
G1 X154.728 Y109.782 E.02987
G1 X154.728 Y104.748 E.23318
G1 X154.109 Y104.344 E.03424
G1 X154.109 Y109.426 E.23541
G1 X153.745 Y109.193 E.02002
G1 X153.49 Y108.899 E.01803
G1 X153.49 Y103.966 E.2285
G1 X152.871 Y103.609 E.0331
G1 X152.871 Y107.98 E.20247
G1 X152.514 Y107.2 E.03974
G1 X152.252 Y107.186 E.01215
G1 X152.252 Y103.27 E.18139
G1 X151.633 Y102.949 E.0323
G1 X151.633 Y107.153 E.19474
G1 X151.152 Y107.128 E.02231
G1 X151.014 Y107.078 E.0068
G1 X151.014 Y102.643 E.20544
G1 X150.395 Y102.357 E.03159
G1 X150.395 Y106.853 E.20826
G1 X150.245 Y106.798 E.0074
G1 X149.776 Y106.485 E.02612
G1 X149.776 Y102.083 E.20391
G1 X149.157 Y101.821 E.03114
G1 X149.157 Y105.904 E.18913
G1 X148.538 Y105.061 E.04845
G1 X148.538 Y101.577 E.16138
G1 X147.919 Y101.338 E.03074
G1 X147.919 Y105.167 E.17736
G1 X147.672 Y105.24 E.01193
G1 X147.3 Y105.24 E.01723
G1 X147.3 Y101.12 E.19084
G1 X146.681 Y100.903 E.03038
G1 X146.681 Y105.24 E.2009
G1 X146.647 Y105.24 E.00157
G1 X146.062 Y105.069 E.02823
G1 X146.062 Y100.708 E.20201
G1 X145.443 Y100.513 E.03006
G1 X145.443 Y104.812 E.19914
G1 X144.824 Y104.416 E.03404
G1 X144.824 Y100.337 E.18894
G1 X144.205 Y100.164 E.02977
G1 X144.205 Y104.416 E.19696
