; generated by PrusaSlicer 2.6.0+win64 on 2023-06-24 at 12:55:52 UTC
; Postprocessed by [ArcWelder](https://github.com/FormerLurker/ArcWelderLib)
; Copyright(C) 2021 - Brad Hochgesang
; Version: 1.2.0, Branch: HEAD, BuildDate: 2021-11-21T20:25:43Z
; resolution=0.05mm
; path_tolerance=5.0%
; max_radius=9999.00mm
; default_xyz_precision=3
; default_e_precision=5
; extrusion_rate_variance_percent=5.0%








; 

; external perimeters extrusion width = 0.66mm
; perimeters extrusion width = 0.66mm
; infill extrusion width = 0.66mm
; solid infill extrusion width = 0.66mm
; top infill extrusion width = 0.60mm
; first layer extrusion width = 0.66mm

M73 P0 R171


; Pre-Processed for Cancel-Object support by preprocess_cancellation v0.2.0
; 1 known objects
EXCLUDE_OBJECT_DEFINE NAME=jbl_go_mount_stl_id_0_copy_0 CENTER=116.600,121.170 POLYGON=[[71.712,97.83],[71.712,137.417],[163.17,137.417],[163.17,97.83]]
;TYPE:Custom
G90 ; use absolute coordinates
M83 ; extruder relative mode
M104 S205 ; set temporary nozzle temp to prevent oozing during homing
M140 S100 ; set final bed temp
G4 S30 ; allow partial nozzle warmup
G28 ; home all axis
BED_MESH_CALIBRATE
G1 Z50 F240
G1 X2.0 Y10 F3000
M104 S235 ; set final nozzle temp
M190 S100 ; wait for bed temp to stabilize
M109 S235 ; wait for nozzle temp to stabilize
G1 Z0.28 F240
G92 E0
G1 X2.0 Y140 E10 F1500 ; prime the nozzle
M73 P0 R170
G1 X2.3 Y140 F5000
G92 E0
G1 X2.3 Y10 E10 F1200 ; prime the nozzle
G21 ; set units to millimeters
G90 ; use absolute coordinates
M82 ; use absolute distances for extrusion
G92 E0
; Filament gcode
M107
;LAYER_CHANGE
;Z:0.2
;HEIGHT:0.2
;BEFORE_LAYER_CHANGE
;0.2
M117 Layer 1/186 : Ender3-V2_ABS

G1 Z.2 F7800
SET_PRINT_STATS_INFO CURRENT_LAYER=1
;AFTER_LAYER_CHANGE
;0.2
G1 E-1 F2400
G92 E0
G1 X67.781 Y91.754 F7800
G1 E1 F2400
;TYPE:Skirt/Brim
;WIDTH:0.66
G1 F1200
G3 X72.493 Y90.266 I4.720 J6.743 E1.25733
G1 X162.816 Y90.273 E5.89184
G1 X164.29 Y90.464 E5.9681
G1 X165.633 Y90.886 E6.04033
G1 X166.96 Y91.58 E6.11717
G1 X168.094 Y92.459 E6.19079
G1 X168.982 Y93.424 E6.25808
G1 X169.42 Y94.039 E6.29682
G1 X170.09 Y95.31 E6.37054
G1 X170.529 Y96.676 E6.44416
G1 X170.723 Y98.097 E6.51775
G1 X170.734 Y137.5 E8.53953
G1 X170.337 Y139.864 E8.66253
G1 X169.189 Y141.969 E8.78556
G1 X167.416 Y143.582 E8.90855
G1 X165.213 Y144.528 E9.03157
G1 X163.5 Y144.734 E9.1201
G1 X71.5 Y144.734 E13.84066
G1 X69.136 Y144.337 E13.96366
G1 X67.031 Y143.189 E14.08669
G1 X65.417 Y141.416 E14.20971
G1 X64.472 Y139.213 E14.33271
G1 X64.266 Y137.5 E14.42124
G1 X64.276 Y98.113 E16.4422
G1 X64.437 Y96.836 E16.50824
G1 X64.655 Y96.001 E16.55252
G1 X65.177 Y94.737 E16.62269
G3 X66.046 Y93.387 I7.420 J3.822 E16.70516
G1 X66.965 Y92.405 E16.77417
G1 X67.711 Y91.81 E16.82313
G1 X68.096 Y92.312 F7800
G1 F1200
G3 X70.766 Y91.084 I4.154 J5.514 E16.97502
G1 X72.493 Y90.883 E17.06423
G1 X162.789 Y90.889 E21.69735
G1 X164.159 Y91.067 E21.76824
G1 X165.396 Y91.456 E21.83478
G1 X166.629 Y92.1 E21.90616
G1 X167.677 Y92.914 E21.97425
G3 X168.900 Y94.371 I-5.232 J5.633 E22.07203
G1 X169.52 Y95.546 E22.1402
G1 X169.926 Y96.809 E22.20827
G1 X170.107 Y98.124 E22.27638
G1 X170.117 Y137.5 E24.29678
G1 X169.72 Y139.757 E24.41437
G1 X168.577 Y141.744 E24.53199
G1 X166.825 Y143.221 E24.64957
G1 X164.673 Y144.012 E24.76721
G1 X163.5 Y144.117 E24.82764
G1 X71.5 Y144.117 E29.5482
G1 X69.243 Y143.72 E29.66579
G1 X67.256 Y142.577 E29.78341
G1 X65.779 Y140.824 E29.90103
G1 X64.988 Y138.673 E30.01862
G1 X64.883 Y137.5 E30.07905
G1 X64.892 Y98.14 E32.09863
G3 X65.248 Y96.172 I7.610 J0.360 E32.20147
G1 X65.724 Y95.022 E32.26533
G3 X66.532 Y93.768 I6.831 J3.514 E32.34196
G1 X67.382 Y92.86 E32.40578
G1 X68.024 Y92.366 E32.44734
; printing object jbl_go_mount.stl id:0 copy 0
EXCLUDE_OBJECT_START NAME=jbl_go_mount_stl_id_0_copy_0
G1 E31.44734 F2400
G92 E0
G1 X160.746 Y135.319 F7800
G1 E1 F2400
;TYPE:Perimeter
;WIDTH:0.659999
G1 F1200
G1 X74.254 Y135.319 E5.43793
G1 X74.253 Y100.253 E7.23718
G1 X160.747 Y100.254 E11.67522
G1 X160.746 Y135.229 E13.4698
M73 P0 R169
G1 X161.363 Y135.936 F7800
G1 F1200
G1 X73.637 Y135.936 E17.97105
G1 X73.636 Y99.636 E19.83361
G1 X161.364 Y99.637 E24.33496
G1 X161.363 Y135.846 E26.19286
G1 X161.98 Y136.553 F7800
G1 F1200
G1 X73.02 Y136.553 E30.75743
G1 X73.019 Y99.019 E32.68331
G1 X161.981 Y99.02 E37.24798
G1 X161.98 Y136.463 E39.16919
M73 P1 R169
G1 X162.597 Y137.17 F7800
;TYPE:External perimeter
G1 F1200
G1 X72.403 Y137.17 E43.79707
G1 X72.402 Y98.505 E45.78098
G1 X72.5 Y98.402 E45.78827
G1 X162.525 Y98.412 E50.40748
G1 X162.598 Y98.505 E50.41355
G1 X162.597 Y137.08 E52.39285
G1 X162.077 Y136.87 F7800
G1 E51.39285 F2400
G92 E0
G1 X159.308 Y100.439 F7800
G1 E1 F2400
;TYPE:Solid infill
;WIDTH:0.662612
G1 F1200
G1 X160.284 Y101.414 E1.07109
G1 X160.284 Y102.291 E1.11628
G1 X158.71 Y100.717 E1.23098
G1 X157.833 Y100.717 E1.27617
G1 X160.284 Y103.167 E1.45474
G1 X160.284 Y104.044 E1.49993
G1 X156.957 Y100.717 E1.74237
G1 X156.081 Y100.717 E1.78751
G1 X160.284 Y104.92 E2.09379
G1 X160.284 Y105.796 E2.13893
G1 X155.204 Y100.717 E2.50908
G1 X154.328 Y100.717 E2.55422
G1 X160.284 Y106.673 E2.98824
G1 X160.284 Y107.549 E3.03338
G1 X153.451 Y100.717 E3.53127
G1 X152.575 Y100.717 E3.57641
G1 X160.284 Y108.425 E4.13814
G1 X160.284 Y109.302 E4.18333
G1 X151.699 Y100.717 E4.80893
G1 X150.822 Y100.717 E4.85412
G1 X160.284 Y110.178 E5.54359
G1 X160.284 Y111.054 E5.58873
G1 X149.946 Y100.717 E6.34203
G1 X149.07 Y100.717 E6.38717
G1 X160.284 Y111.931 E7.20435
G1 X160.284 Y112.807 E7.24949
G1 X148.193 Y100.717 E8.13054
G1 X147.317 Y100.717 E8.17568
G1 X160.284 Y113.683 E9.12056
G1 X160.283 Y114.56 E9.16575
G1 X146.44 Y100.717 E10.1745
G1 X145.564 Y100.717 E10.21964
G1 X160.283 Y115.436 E11.29223
G1 X160.283 Y116.313 E11.33742
G1 X144.688 Y100.717 E12.47388
G1 X143.811 Y100.717 E12.51907
G1 X160.283 Y117.189 E13.7194
G1 X160.283 Y118.065 E13.76454
G1 X142.935 Y100.717 E15.02871
G1 X142.058 Y100.717 E15.0739
G1 X160.283 Y118.942 E16.40197
G1 X160.283 Y119.818 E16.44711
G1 X141.182 Y100.717 E17.83902
G1 X140.306 Y100.717 E17.88416
G1 X160.283 Y120.694 E19.3399
G1 X160.283 Y121.571 E19.38509
M73 P1 R168
G1 X139.429 Y100.717 E20.90474
G1 X138.553 Y100.717 E20.94988
G1 X160.283 Y122.447 E22.53337
G1 X160.283 Y123.323 E22.57851
G1 X137.677 Y100.717 E24.22583
G1 X136.8 Y100.717 E24.27102
G1 X160.283 Y124.2 E25.98225
G1 X160.283 Y125.076 E26.02739
G1 X135.924 Y100.717 E27.80246
G1 X135.047 Y100.717 E27.84765
G1 X160.283 Y125.953 E29.68662
G1 X160.283 Y126.829 E29.73176
G1 X134.171 Y100.717 E31.63457
G1 X133.295 Y100.717 E31.67971
G1 X160.283 Y127.705 E33.64635
G1 X160.283 Y128.582 E33.69154
G1 X132.418 Y100.717 E35.72209
G1 X131.542 Y100.717 E35.76723
G1 X160.283 Y129.458 E37.86162
G1 X160.283 Y130.334 E37.90676
G1 X130.666 Y100.717 E40.06498
G1 X129.789 Y100.717 E40.11017
G1 X160.283 Y131.211 E42.3323
G1 X160.283 Y132.087 E42.37744
G1 X128.913 Y100.717 E44.6634
G1 X128.036 Y100.717 E44.70859
G1 X160.283 Y132.963 E47.05843
G1 X160.283 Y133.84 E47.10362
G1 X127.16 Y100.717 E49.51733
G1 X126.284 Y100.717 E49.56247
G1 X160.283 Y134.716 E52.04001
G1 X160.283 Y134.856 E52.04722
G1 X159.547 Y134.856 E52.08514
G1 X125.407 Y100.717 E54.57292
G1 X124.531 Y100.717 E54.61806
G1 X158.67 Y134.856 E57.1058
G1 X157.794 Y134.856 E57.15094
G1 X123.654 Y100.717 E59.63872
G1 X122.778 Y100.717 E59.68386
G1 X156.917 Y134.856 E62.1716
G1 X156.041 Y134.856 E62.21674
G1 X121.902 Y100.717 E64.70448
G1 X121.025 Y100.717 E64.74967
G1 X155.165 Y134.856 E67.23745
G1 X154.288 Y134.856 E67.28264
G1 X120.149 Y100.717 E69.77038
G1 X119.273 Y100.717 E69.81552
G1 X153.412 Y134.856 E72.30326
G1 X152.536 Y134.856 E72.3484
G1 X118.396 Y100.717 E74.83618
G1 X117.52 Y100.717 E74.88132
G1 X151.659 Y134.856 E77.36906
G1 X150.783 Y134.856 E77.4142
G1 X116.643 Y100.717 E79.90198
G1 X115.767 Y100.717 E79.94712
G1 X149.906 Y134.856 E82.43486
M73 P1 R167
G1 X149.03 Y134.856 E82.48
G1 X114.891 Y100.717 E84.96774
G1 X114.014 Y100.717 E85.01293
G1 X148.154 Y134.856 E87.50071
G1 X147.277 Y134.856 E87.5459
M73 P2 R167
G1 X113.138 Y100.717 E90.03364
G1 X112.261 Y100.717 E90.07883
G1 X146.401 Y134.856 E92.56661
G1 X145.525 Y134.856 E92.61175
G1 X111.385 Y100.717 E95.09953
G1 X110.509 Y100.717 E95.14467
G1 X144.648 Y134.856 E97.63241
G1 X143.772 Y134.856 E97.67755
G1 X109.632 Y100.716 E100.16537
G1 X108.756 Y100.716 E100.21051
G1 X142.895 Y134.856 E102.69829
G1 X142.019 Y134.856 E102.74343
G1 X107.88 Y100.716 E105.23121
G1 X107.003 Y100.716 E105.2764
G1 X141.143 Y134.856 E107.76422
G1 X140.266 Y134.856 E107.80941
G1 X106.127 Y100.716 E110.29719
G1 X105.25 Y100.716 E110.34238
G1 X139.39 Y134.856 E112.8302
G1 X138.514 Y134.856 E112.87534
G1 X104.374 Y100.716 E115.36316
G1 X103.498 Y100.716 E115.4083
G1 X137.637 Y134.856 E117.89608
G1 X136.761 Y134.856 E117.94122
G1 X102.621 Y100.716 E120.42904
G1 X101.745 Y100.716 E120.47418
G1 X135.884 Y134.856 E122.96196
G1 X135.008 Y134.856 E123.0071
G1 X100.868 Y100.716 E125.49492
G1 X99.992 Y100.716 E125.54006
G1 X134.132 Y134.856 E128.02788
G1 X133.255 Y134.856 E128.07307
G1 X99.116 Y100.716 E130.56085
G1 X98.239 Y100.716 E130.60604
G1 X132.379 Y134.856 E133.09386
G1 X131.502 Y134.856 E133.13905
G1 X97.363 Y100.716 E135.62683
G1 X96.487 Y100.716 E135.67197
G1 X130.626 Y134.856 E138.15975
G1 X129.75 Y134.856 E138.20489
G1 X95.61 Y100.716 E140.69271
G1 X94.734 Y100.716 E140.73785
G1 X128.873 Y134.856 E143.22563
G1 X127.997 Y134.856 E143.27077
M73 P2 R166
G1 X93.857 Y100.716 E145.75859
G1 X92.981 Y100.716 E145.80373
G1 X127.121 Y134.856 E148.29155
G1 X126.244 Y134.856 E148.33674
G1 X92.105 Y100.716 E150.82452
G1 X91.228 Y100.716 E150.86971
G1 X125.368 Y134.856 E153.35753
G1 X124.491 Y134.856 E153.40272
G1 X90.352 Y100.716 E155.8905
G1 X89.475 Y100.716 E155.93569
G1 X123.615 Y134.856 E158.42351
G1 X122.739 Y134.856 E158.46865
G1 X88.599 Y100.716 E160.95647
G1 X87.723 Y100.716 E161.00161
G1 X121.862 Y134.856 E163.48939
G1 X120.986 Y134.856 E163.53453
G1 X86.846 Y100.716 E166.02235
G1 X85.97 Y100.716 E166.06749
G1 X120.11 Y134.856 E168.55531
G1 X119.233 Y134.856 E168.6005
G1 X85.094 Y100.716 E171.08828
G1 X84.217 Y100.716 E171.13347
G1 X118.357 Y134.856 E173.62129
G1 X117.48 Y134.856 E173.66648
G1 X83.341 Y100.716 E176.15426
G1 X82.464 Y100.716 E176.19945
G1 X116.604 Y134.856 E178.68727
G1 X115.728 Y134.856 E178.73241
G1 X81.588 Y100.716 E181.22023
G1 X80.712 Y100.716 E181.26537
G1 X114.851 Y134.856 E183.75315
G1 X113.975 Y134.856 E183.79829
G1 X79.835 Y100.716 E186.28611
G1 X78.959 Y100.716 E186.33125
G1 X113.099 Y134.856 E188.81907
G1 X112.222 Y134.856 E188.86426
G1 X78.083 Y100.716 E191.35204
G1 X77.206 Y100.716 E191.39723
G1 X111.346 Y134.856 E193.88505
G1 X110.469 Y134.856 E193.93024
M73 P3 R166
G1 X76.33 Y100.716 E196.41802
G1 X75.453 Y100.716 E196.46321
G1 X109.593 Y134.856 E198.95103
G1 X108.717 Y134.856 E198.99617
G1 X74.716 Y100.856 E201.47382
G1 X74.716 Y101.732 E201.51896
G1 X107.84 Y134.856 E203.93274
G1 X106.964 Y134.856 E203.97788
M73 P3 R165
G1 X74.716 Y102.608 E206.32783
G1 X74.716 Y103.485 E206.37302
G1 X106.088 Y134.856 E208.65909
G1 X105.211 Y134.856 E208.70428
G1 X74.716 Y104.361 E210.92648
G1 X74.716 Y105.237 E210.97162
G1 X104.335 Y134.856 E213.12999
G1 X103.458 Y134.856 E213.17518
G1 X74.716 Y106.114 E215.26964
G1 X74.716 Y106.99 E215.31478
G1 X102.582 Y134.856 E217.3454
G1 X101.706 Y134.856 E217.39054
G1 X74.716 Y107.867 E219.35729
G1 X74.716 Y108.743 E219.40243
G1 X100.829 Y134.856 E221.30531
G1 X99.953 Y134.856 E221.35045
G1 X74.716 Y109.619 E223.1895
G1 X74.716 Y110.496 E223.23469
G1 X99.077 Y134.856 E225.00986
G1 X98.2 Y134.856 E225.05505
G1 X74.716 Y111.372 E226.76635
G1 X74.716 Y112.249 E226.81154
G1 X97.324 Y134.856 E228.45897
G1 X96.447 Y134.856 E228.50416
G1 X74.716 Y113.125 E230.08772
G1 X74.716 Y114.001 E230.13286
G1 X95.571 Y134.856 E231.65259
G1 X94.695 Y134.856 E231.69773
G1 X74.717 Y114.878 E233.15355
G1 X74.717 Y115.754 E233.19869
G1 X93.818 Y134.856 E234.59064
G1 X92.942 Y134.856 E234.63578
G1 X74.717 Y116.631 E235.96385
G1 X74.717 Y117.507 E236.00899
G1 X92.066 Y134.856 E237.27323
G1 X91.189 Y134.856 E237.31842
G1 X74.717 Y118.383 E238.51879
G1 X74.717 Y119.26 E238.56398
G1 X90.313 Y134.856 E239.70048
G1 X89.436 Y134.856 E239.74567
G1 X74.717 Y120.136 E240.8183
G1 X74.717 Y121.013 E240.86349
G1 X88.56 Y134.856 E241.87224
G1 X87.684 Y134.856 E241.91738
G1 X74.717 Y121.889 E242.8623
G1 X74.717 Y122.765 E242.90744
G1 X86.807 Y134.856 E243.78849
G1 X85.931 Y134.856 E243.83363
G1 X74.717 Y123.642 E244.65081
G1 X74.717 Y124.518 E244.69595
G1 X85.055 Y134.856 E245.44929
G1 X84.178 Y134.856 E245.49448
G1 X74.717 Y125.395 E246.18391
G1 X74.717 Y126.271 E246.22905
G1 X83.302 Y134.856 E246.85465
G1 X82.425 Y134.856 E246.89984
G1 X74.717 Y127.147 E247.46157
G1 X74.717 Y128.024 E247.50676
G1 X81.549 Y134.856 E248.00461
G1 X80.673 Y134.856 E248.04975
G1 X74.717 Y128.9 E248.48377
G1 X74.717 Y129.776 E248.52891
G1 X79.796 Y134.856 E248.89906
G1 X78.92 Y134.856 E248.9442
G1 X74.717 Y130.653 E249.25048
G1 X74.717 Y131.529 E249.29562
G1 X78.044 Y134.856 E249.53806
G1 X77.167 Y134.856 E249.58325
G1 X74.717 Y132.406 E249.76178
G1 X74.717 Y133.282 E249.80692
G1 X76.291 Y134.856 E249.92162
G1 X75.414 Y134.856 E249.96681
G1 X74.439 Y133.881 E250.03786
; stop printing object jbl_go_mount.stl id:0 copy 0
EXCLUDE_OBJECT_END NAME=jbl_go_mount_stl_id_0_copy_0
;LAYER_CHANGE
;Z:0.6
;HEIGHT:0.4
;BEFORE_LAYER_CHANGE
;0.6
M117 Layer 2/186 : Ender3-V2_ABS

G1 Z.6 F7800
SET_PRINT_STATS_INFO CURRENT_LAYER=2
;AFTER_LAYER_CHANGE
;0.6
G1 E249.03786 F2400
G92 E0
G1 X73.5 Y136.5 F7800
G1 X72 Y138
G1 X70.5 Y138
G1 X64.267 Y133.878
G1 E1 F2400
;TYPE:Skirt/Brim
;WIDTH:0.66
G1 F3000
G1 X64.276 Y98.113 E4.41495
G1 X64.437 Y96.836 E4.53785
G1 X64.655 Y96.001 E4.62025
G1 X65.177 Y94.737 E4.75083
G3 X66.046 Y93.387 I7.420 J3.822 E4.90430
G1 X66.965 Y92.405 E5.03272
G3 X72.493 Y90.266 I5.539 J6.102 E5.61128
G1 X162.816 Y90.273 E14.2356
G1 X164.29 Y90.464 E14.37752
G1 X165.633 Y90.886 E14.51194
G1 X166.96 Y91.58 E14.65493
G1 X168.094 Y92.459 E14.79193
G1 X168.982 Y93.424 E14.91715
G1 X169.42 Y94.039 E14.98924
G1 X170.09 Y95.31 E15.12643
G1 X170.529 Y96.676 E15.26343
G1 X170.723 Y98.097 E15.40037
G1 X170.734 Y137.5 E19.16269
G1 X170.337 Y139.864 E19.39157
G1 X169.189 Y141.969 E19.62051
G1 X167.416 Y143.582 E19.84938
G1 X165.213 Y144.528 E20.0783
G1 X163.5 Y144.734 E20.24304
G1 X71.5 Y144.734 E29.02748
G1 X69.136 Y144.337 E29.25636
G1 X67.031 Y143.189 E29.4853
G1 X65.417 Y141.416 E29.71423
G1 X64.472 Y139.213 E29.94312
G1 X64.266 Y137.5 E30.10786
G1 X64.267 Y133.968 E30.44511
G1 X64.884 Y133.968 F7800
G1 F3000
G1 X64.892 Y98.14 E33.86608
G3 X65.248 Y96.172 I7.610 J0.360 E34.05744
G1 X65.724 Y95.022 E34.17628
G3 X66.532 Y93.768 I6.831 J3.514 E34.31889
G1 X67.382 Y92.86 E34.43765
G1 X68.371 Y92.1 E34.55674
G3 X70.766 Y91.084 I4.125 J6.394 E34.80623
G1 X72.493 Y90.883 E34.97224
G1 X162.789 Y90.889 E43.59398
G1 X164.159 Y91.067 E43.72589
G1 X165.396 Y91.456 E43.84971
G1 X166.629 Y92.1 E43.98253
G1 X167.677 Y92.914 E44.10923
G3 X168.900 Y94.371 I-5.232 J5.633 E44.29119
G1 X169.52 Y95.546 E44.41804
G1 X169.926 Y96.809 E44.54471
G1 X170.107 Y98.124 E44.67145
G1 X170.117 Y137.5 E48.43119
G1 X169.72 Y139.757 E48.65
G1 X168.577 Y141.744 E48.86888
G1 X166.825 Y143.221 E49.08768
G1 X164.673 Y144.012 E49.3066
G1 X163.5 Y144.117 E49.41905
G1 X71.5 Y144.117 E58.20349
G1 X69.243 Y143.72 E58.4223
G1 X67.256 Y142.577 E58.64118
M73 P3 R164
G1 X65.779 Y140.824 E58.86005
G1 X64.988 Y138.673 E59.07888
G1 X64.883 Y137.5 E59.19133
G1 X64.884 Y134.058 E59.51998
; printing object jbl_go_mount.stl id:0 copy 0
EXCLUDE_OBJECT_START NAME=jbl_go_mount_stl_id_0_copy_0
G1 E58.51998 F2400
G92 E0
G1 X69 Y138 F7800
G1 X72 Y138
G1 X161.244 Y135.448
G1 E1 F2400
;TYPE:Perimeter
;WIDTH:0.66
G1 F3000
G1 X73.756 Y135.448 E9.35362
G1 X73.756 Y99.756 E12.7616
G1 X161.244 Y99.756 E21.11522
G1 X161.244 Y135.358 E24.51461
G1 X161.818 Y136.022 F7800
G1 F3000
G1 X73.182 Y136.022 E32.97784
G1 X73.182 Y99.182 E36.49543
G1 X161.818 Y99.182 E44.95866
G1 X161.818 Y135.932 E48.46766
