; generated by PrusaSlicer 2.6.0+win64 on 2023-07-07 at 16:49:11 UTC
; Postprocessed by [ArcWelder](https://github.com/FormerLurker/ArcWelderLib)
; Copyright(C) 2021 - Brad Hochgesang
; Version: 1.2.0, Branch: HEAD, BuildDate: 2021-11-21T20:25:43Z
; resolution=0.05mm
; path_tolerance=5.0%
; max_radius=9999.00mm
; default_xyz_precision=3
; default_e_precision=5
; extrusion_rate_variance_percent=5.0%








; 

; external perimeters extrusion width = 0.60mm
; perimeters extrusion width = 0.60mm
; infill extrusion width = 0.60mm
; solid infill extrusion width = 0.60mm
; top infill extrusion width = 0.40mm
; support material extrusion width = 0.40mm
; first layer extrusion width = 0.60mm

M73 P0 R102


; Pre-Processed for Cancel-Object support by preprocess_cancellation v0.2.0
; 1 known objects
EXCLUDE_OBJECT_DEFINE NAME=LG_Remote_Battery_Cover_1_2_chamfers_STL_id_0_copy_0 CENTER=116.860,117.365 POLYGON=[[90.474,96.322],[90.474,138.627],[125.826,138.627],[125.826,96.322]]
;TYPE:Custom
G90 ; use absolute coordinates
M83 ; extruder relative mode
M104 S205 ; set temporary nozzle temp to prevent oozing during homing
M140 S65 ; set final bed temp
G4 S30 ; allow partial nozzle warmup
G28 ; home all axis
BED_MESH_CALIBRATE
G1 Z50 F240
G1 X2.0 Y10 F3000
M104 S210 ; set final nozzle temp
M190 S65 ; wait for bed temp to stabilize
M109 S210 ; wait for nozzle temp to stabilize
M73 P0 R101
G1 Z0.28 F240
G92 E0
G1 X2.0 Y140 E10 F1500 ; prime the nozzle
G1 X2.3 Y140 F5000
G92 E0
G1 X2.3 Y10 E10 F1200 ; prime the nozzle
G21 ; set units to millimeters
G90 ; use absolute coordinates
M82 ; use absolute distances for extrusion
G92 E0
; Filament gcode
M107
;LAYER_CHANGE
;Z:0.16
;HEIGHT:0.16
;BEFORE_LAYER_CHANGE
;0.16
M117 Layer 1/656 : PLA - KLIPPER

G1 Z.16 F7800
SET_PRINT_STATS_INFO CURRENT_LAYER=1
;AFTER_LAYER_CHANGE
;0.16
G1 E-.8 F2400
G92 E0
G1 X88.193 Y103.564 F7800
G1 E.8 F2400
;TYPE:Skirt/Brim
;WIDTH:0.6
G1 F1200
G1 X89.45 Y102.514 E.86163
G1 X100.512 Y93.935 E1.38838
G1 X105.879 Y90.573 E1.62668
G1 X108.084 Y89.677 E1.71624
G1 X110.461 Y89.558 E1.80579
G1 X112.53 Y90.126 E1.88652
G1 X119.527 Y93.296 E2.17556
G3 X123.811 Y95.803 I-14.239 J29.245 E2.36247
G1 X124.661 Y96.42 E2.40199
G1 X126.832 Y98.253 E2.5089
G1 X128.627 Y100.159 E2.60742
G1 X129.343 Y101.044 E2.65025
G1 X130.828 Y103.381 E2.75444
G1 X131.391 Y104.44 E2.79957
G1 X132.38 Y106.695 E2.89222
G1 X133.342 Y109.567 E3.00619
G1 X133.959 Y112.184 E3.10736
G1 X134.288 Y114.744 E3.20448
G1 X134.401 Y117.376 E3.30361
G1 X134.324 Y119.737 E3.3925
G1 X134.009 Y122.503 E3.49725
G1 X133.803 Y123.594 E3.53903
G1 X133.19 Y125.981 E3.63176
G1 X132.189 Y128.789 E3.74393
G1 X131.053 Y131.248 E3.84585
G1 X129.765 Y133.369 E3.93922
G1 X128.607 Y134.89 E4.01115
G3 X126.267 Y137.285 I-19.017 J-16.240 E4.13721
G1 X123.885 Y139.176 E4.25165
G1 X121.834 Y140.494 E4.34339
G1 X119.024 Y142.015 E4.46362
G1 X112.511 Y144.917 E4.73192
G1 X110.204 Y145.502 E4.82148
G1 X107.832 Y145.296 E4.91107
G1 X105.878 Y144.461 E4.99103
G1 X101.132 Y141.528 E5.20096
G1 X89.451 Y132.529 E5.7558
G1 X87.605 Y130.924 E5.84784
G1 X86.147 Y129.312 E5.92963
G1 X85.323 Y128.207 E5.9815
G1 X84.19 Y126.341 E6.06364
G1 X83.278 Y124.353 E6.14594
G1 X82.603 Y122.272 E6.22826
G1 X82.175 Y120.126 E6.3106
G1 X81.998 Y117.116 E6.42406
G1 X82.076 Y115.759 E6.47521
G1 X82.408 Y113.597 E6.55752
G1 X82.987 Y111.488 E6.63981
G1 X83.808 Y109.46 E6.72214
G1 X85.314 Y106.848 E6.83559
G1 X86.658 Y105.122 E6.9179
G1 X88.129 Y103.628 E6.99679
G1 E6.19679 F2400
G92 E0
G1 X88.531 Y104.023 F7800
G1 E.8 F2400
G1 F1200
G1 X89.797 Y102.961 E.86218
G1 X100.859 Y94.382 E1.38893
G1 X106.176 Y91.054 E1.62496
G1 X108.298 Y90.21 E1.71089
G1 X110.58 Y90.144 E1.79679
G1 X112.3 Y90.643 E1.86418
G1 X119.277 Y93.803 E2.15238
G3 X124.304 Y96.859 I-13.776 J28.324 E2.37403
G1 X126.445 Y98.666 E2.47945
G1 X128.212 Y100.543 E2.57645
G1 X128.894 Y101.388 E2.61731
G1 X130.346 Y103.678 E2.71934
G1 X130.876 Y104.674 E2.76179
G1 X131.854 Y106.903 E2.85338
G1 X132.793 Y109.704 E2.96454
G1 X133.345 Y111.975 E3.05248
G1 X133.724 Y114.79 E3.15936
G1 X133.835 Y117.378 E3.25683
G1 X133.759 Y119.714 E3.34478
G1 X133.448 Y122.43 E3.44765
G1 X133.254 Y123.458 E3.48701
G1 X132.648 Y125.819 E3.57873
G1 X131.672 Y128.559 E3.68818
G1 X130.553 Y130.983 E3.78864
G1 X129.283 Y133.073 E3.88066
G1 X128.193 Y134.505 E3.94838
G3 X125.907 Y136.849 I-18.839 J-16.086 E4.07164
G1 X123.576 Y138.703 E4.18371
G1 X121.55 Y140.005 E4.27433
G1 X118.757 Y141.516 E4.39382
G1 X112.282 Y144.399 E4.66052
G1 X110.065 Y144.945 E4.74643
G1 X107.795 Y144.699 E4.83235
G1 X106.176 Y143.979 E4.89902
G1 X101.43 Y141.046 E5.10895
G1 X89.798 Y132.081 E5.66155
G1 X88.017 Y130.536 E5.75027
G1 X86.599 Y128.973 E5.82968
G1 X85.777 Y127.869 E5.88147
G1 X84.679 Y126.058 E5.96116
G1 X83.797 Y124.128 E6.04101
G1 X83.145 Y122.109 E6.12084
G1 X82.732 Y120.028 E6.20067
G1 X82.563 Y117.149 E6.30919
G1 X82.641 Y115.792 E6.36034
G1 X82.965 Y113.695 E6.44018
G1 X83.529 Y111.65 E6.52
G1 X84.328 Y109.684 E6.59985
G1 X85.768 Y107.186 E6.70834
G1 X87.069 Y105.51 E6.78818
G1 X88.468 Y104.087 E6.86327
G1 E6.06327 F2400
G92 E0
G1 X105.641 Y104.082 F7800
G1 E.8 F2400
G1 F1200
G1 X105.64 Y101.681 E.89035
G1 X105.845 Y100.782 E.92505
G1 X106.278 Y99.944 E.96054
G1 X107.098 Y99.091 E1.00506
G1 X108.641 Y98.216 E1.07181
G1 X109.398 Y98.05 E1.10097
G1 X110.426 Y98.058 E1.13965
G1 X111.193 Y98.271 E1.1696
G1 X112.973 Y99.162 E1.2445
G3 X113.932 Y99.397 I-0.228 J3.006 E1.28177
G3 X119.623 Y102.499 I-12.324 J29.382 E1.52609
G1 X121.225 Y103.81 E1.60398
G1 X122.871 Y105.569 E1.69463
G1 X124.216 Y107.721 E1.79012
G3 X126.177 Y113.490 I-20.727 J10.263 E2.02000
G3 X126.178 Y121.521 I-23.928 J4.018 E2.32353
G1 X125.646 Y123.673 E2.40694
G3 X124.197 Y127.337 I-22.265 J-6.687 E2.55533
G1 X122.835 Y129.502 E2.65157
G1 X121.257 Y131.187 E2.73844
G1 X119.603 Y132.545 E2.81897
G3 X115.805 Y134.780 I-15.132 J-21.370 E2.98494
G3 X114.495 Y135.093 I-1.464 J-3.227 E3.03585
G1 X111.186 Y136.767 E3.17539
G1 X110.055 Y137.011 E3.21893
G3 X108.616 Y136.812 I-0.172 J-4.058 E3.27382
G1 X106.908 Y135.791 E3.3487
G1 X106.362 Y135.207 E3.37878
G1 X105.929 Y134.464 E3.41114
G1 X105.649 Y133.423 E3.4517
G1 X105.641 Y104.172 E4.55236
G1 E3.75236 F2400
G92 E0
G1 X106.206 Y104.172 F7800
G1 E.8 F2400
G1 F1200
G1 X106.206 Y101.715 E.89245
G1 X106.387 Y100.949 E.92207
G1 X106.759 Y100.245 E.95203
G1 X107.416 Y99.56 E.98774
G1 X108.81 Y98.757 E1.04827
G1 X109.427 Y98.616 E1.07209
G1 X110.383 Y98.623 E1.10806
G1 X110.962 Y98.788 E1.13071
G1 X112.81 Y99.713 E1.20847
G3 X113.714 Y99.919 I-0.141 J2.704 E1.24348
G3 X119.277 Y102.946 I-12.103 J28.868 E1.48221
G1 X120.852 Y104.236 E1.55882
M73 P1 R100
G1 X122.439 Y105.935 E1.6463
G1 X123.707 Y107.969 E1.73649
G3 X125.873 Y115.578 I-19.197 J9.577 E2.03592
G3 X125.619 Y121.433 I-23.140 J1.929 E2.25694
G1 X125.108 Y123.5 E2.33706
G3 X123.688 Y127.088 I-21.758 J-6.536 E2.48239
G1 X122.403 Y129.136 E2.57337
G1 X120.883 Y130.762 E2.65712
G1 X119.281 Y132.08 E2.73518
G3 X115.562 Y134.269 I-14.758 J-20.819 E2.89771
G3 X114.333 Y134.541 I-1.307 J-2.993 E2.94529
G1 X110.963 Y136.246 E3.0874
G1 X110.044 Y136.444 E3.12277
G3 X108.810 Y136.276 I-0.173 J-3.348 E3.16983
G1 X107.294 Y135.375 E3.23619
G3 X106.440 Y134.218 I2.012 J-2.379 E3.29067
G1 X106.206 Y133.317 E3.3257
G1 X106.206 Y104.262 E4.41898
G1 E3.61898 F2400
G92 E0
G1 X106.771 Y104.262 F7800
G1 E.8 F2400
G1 F1200
G1 X106.771 Y101.751 E.89448
G3 X107.237 Y100.548 I2.541 J0.293 E0.94343
G1 X107.737 Y100.028 E.97057
G1 X108.985 Y99.296 E1.02501
G1 X109.465 Y99.181 E1.04358
G1 X110.272 Y99.179 E1.07395
G1 X110.735 Y99.307 E1.09203
G1 X112.652 Y100.266 E1.17269
G3 X113.497 Y100.442 I-0.049 J2.351 E1.20530
G3 X118.955 Y103.412 I-11.825 J28.230 E1.43951
G1 X120.478 Y104.661 E1.51362
G1 X122.006 Y106.3 E1.59794
G1 X123.198 Y108.216 E1.68285
G3 X125.308 Y115.612 I-18.702 J9.335 E1.97393
G3 X125.060 Y121.345 I-22.607 J1.894 E2.19035
G3 X123.179 Y126.840 I-21.387 J-4.252 E2.40947
G1 X121.971 Y128.77 E2.49514
G1 X120.509 Y130.337 E2.57578
G1 X118.96 Y131.614 E2.65132
G3 X115.320 Y133.756 I-14.341 J-20.206 E2.81039
G3 X114.173 Y133.988 I-1.145 J-2.712 E2.85465
G1 X110.74 Y135.725 E2.99942
G1 X110.033 Y135.877 E3.02663
G3 X108.986 Y135.738 I-0.168 J-2.746 E3.06655
G1 X107.68 Y134.96 E3.12375
G3 X106.952 Y133.975 I1.624 J-1.962 E3.17018
G1 X106.771 Y133.281 E3.19717
G1 X106.771 Y104.352 E4.28571
G1 E3.48571 F2400
G92 E0
G1 X107.337 Y104.352 F7800
G1 E.8 F2400
G1 F1200
G1 X107.337 Y101.788 E.89648
G3 X108.060 Y100.493 I1.983 J0.258 E0.95351
G1 X109.167 Y99.833 E1.00201
G1 X109.51 Y99.746 E1.01533
G1 X110.168 Y99.736 E1.04009
G1 X110.509 Y99.826 E1.05336
G1 X112.497 Y100.821 E1.13701
G3 X113.280 Y100.965 I0.024 J2.069 E1.16711
G3 X118.609 Y103.860 I-11.680 J27.852 E1.39571
G1 X120.104 Y105.086 E1.46846
G1 X121.573 Y106.665 E1.54961
G1 X122.689 Y108.464 E1.62927
G3 X124.744 Y115.647 I-18.226 J9.100 E1.91202
G3 X124.501 Y121.256 I-21.963 J1.858 E2.12377
G3 X122.671 Y126.592 I-20.932 J-4.197 E2.33659
G1 X121.539 Y128.405 E2.41702
G1 X120.135 Y129.913 E2.49455
G1 X118.612 Y131.167 E2.56878
G3 X115.080 Y133.243 I-13.863 J-19.543 E2.72308
G3 X114.016 Y133.433 I-0.998 J-2.513 E2.76396
G1 X110.517 Y135.204 E2.91152
G3 X109.167 Y135.200 I-0.669 J-1.937 E2.96319
G1 X108.06 Y134.54 E3.01169
G3 X107.337 Y133.245 I1.250 J-1.547 E3.06872
G1 X107.337 Y104.442 E4.15252
G1 E3.35252 F2400
G92 E0
G1 X107.903 Y104.442 F7800
G1 E.8 F2400
G1 F1200
G1 X107.903 Y101.824 E.89851
G3 X108.386 Y100.957 I1.412 J0.219 E0.93656
G1 X109.358 Y100.367 E.97935
G3 X110.286 Y100.347 I0.494 J1.390 E1.01481
G1 X112.346 Y101.378 E1.10149
G3 X113.065 Y101.489 I0.089 J1.808 E1.12900
G3 X118.263 Y104.307 I-11.416 J27.260 E1.35187
G1 X119.731 Y105.511 E1.42331
G1 X121.139 Y107.03 E1.50124
G1 X122.18 Y108.711 E1.57564
G3 X124.249 Y117.526 I-17.052 J8.653 E1.91953
G3 X122.162 Y126.343 I-19.151 J0.122 E2.26367
G1 X121.105 Y128.04 E2.3389
G1 X119.76 Y129.488 E2.41326
G1 X118.291 Y130.702 E2.48497
G3 X114.840 Y132.731 I-13.610 J-19.200 E2.63575
G3 X113.912 Y132.851 I-0.704 J-1.794 E2.67126
G1 X110.294 Y134.683 E2.82386
G3 X109.358 Y134.667 I-0.444 J-1.408 E2.85962
G1 X108.387 Y134.077 E2.90237
G3 X107.903 Y133.209 I0.925 J-1.084 E2.94047
G1 X107.903 Y104.532 E4.01953
G1 E3.21953 F2400
G92 E0
G1 X108.468 Y104.532 F7800
G1 E.8 F2400
G1 F1200
G1 X108.468 Y101.86 E.90054
G3 X108.715 Y101.418 I0.843 J0.181 E0.91976
G1 X109.564 Y100.894 E.9573
G3 X110.070 Y100.871 I0.291 J0.820 E0.97653
G1 X112.199 Y101.937 E1.06612
G3 X112.852 Y102.013 I0.139 J1.650 E1.09096
G3 X117.942 Y104.773 I-11.203 J26.734 E1.30920
G1 X119.356 Y105.936 E1.37809
G1 X120.705 Y107.393 E1.4528
G1 X121.671 Y108.959 E1.52203
G3 X123.684 Y117.515 I-16.550 J8.408 E1.85587
G3 X121.653 Y126.095 I-18.593 J0.129 E2.19076
G1 X120.672 Y127.676 E2.26077
G1 X119.385 Y129.064 E2.33199
G1 X117.943 Y130.255 E2.40236
G3 X114.446 Y132.261 I-11.689 J-16.326 E2.55437
G3 X113.802 Y132.274 I-0.356 J-1.681 E2.57871
G1 X110.071 Y134.162 E2.73605
G3 X109.564 Y134.140 I-0.217 J-0.851 E2.75532
G1 X108.715 Y133.615 E2.79288
G3 X108.468 Y133.173 I0.631 J-0.643 E2.81210
G1 X108.468 Y104.622 E3.88642
G1 E3.08642 F2400
G92 E0
G1 X109.034 Y104.622 F7800
G1 E.8 F2400
G1 F1200
G1 X109.034 Y101.97 E.89979
G1 X109.106 Y101.842 E.90532
G1 X109.768 Y101.433 E.9346
G1 X109.914 Y101.426 E.9401
G1 X112.137 Y102.539 E1.03365
G3 X112.637 Y102.537 I0.254 J0.908 E1.05263
G3 X117.595 Y105.221 I-10.895 J26.047 E1.26513
G1 X118.982 Y106.36 E1.33266
G1 X120.271 Y107.756 E1.40416
G1 X121.162 Y109.206 E1.4682
G3 X123.118 Y117.504 I-16.053 J8.164 E1.79200
G3 X121.857 Y124.251 I-17.659 J0.191 E2.05188
G1 X121.145 Y125.848 E2.11767
G1 X120.238 Y127.312 E2.18247
G1 X119.01 Y128.64 E2.25053
G1 X117.596 Y129.808 E2.31954
G3 X114.403 Y131.687 I-12.995 J-18.429 E2.45907
G3 X113.766 Y131.658 I-0.282 J-0.824 E2.48349
G1 X109.914 Y133.607 E2.64593
G1 X109.768 Y133.601 E2.65143
G1 X109.106 Y133.192 E2.68071
G1 X109.034 Y133.063 E2.68627
G1 X109.034 Y104.712 E3.75306
G1 E2.95306 F2400
G92 E0
G1 X109.6 Y104.712 F7800
G1 E.8 F2400
G1 F1200
G1 X109.6 Y102.201 E.89448
G1 X109.868 Y102.036 E.90632
G1 X112.091 Y103.148 E.99985
G3 X112.468 Y103.082 I0.282 J0.499 E1.01441
G3 X117.275 Y105.687 I-10.575 J25.252 E1.22048
G1 X118.608 Y106.785 E1.28546
G1 X119.804 Y108.077 E1.35171
G1 X120.653 Y109.454 E1.41258
G3 X122.552 Y117.493 I-15.501 J7.906 E1.72634
G3 X120.653 Y125.566 I-17.450 J0.155 E2.04134
G1 X119.772 Y126.99 E2.10435
G1 X118.609 Y128.241 E2.16862
G1 X117.275 Y129.342 E2.2337
G3 X114.207 Y131.150 I-12.445 J-17.611 E2.36782
G1 X114.1 Y131.162 E2.37187
G1 X113.7 Y131.054 E2.38746
G3 X109.868 Y132.998 I-80.168 J-153.277 E2.54915
G1 X109.6 Y132.832 E2.56101
G1 X109.6 Y104.802 E3.61573
; printing object LG_Remote_Battery_Cover_1.2_chamfers.STL id:0 copy 0
EXCLUDE_OBJECT_START NAME=LG_Remote_Battery_Cover_1_2_chamfers_STL_id_0_copy_0
G1 E2.81573 F2400
G92 E0
G1 X102.393 Y106.242 F7800
G1 E.8 F2400
;TYPE:Support material
G1 F1200
G3 X103.354 Y106.423 I-0.291 J4.185 E0.83686
G3 X104.583 Y106.656 I-0.467 J5.819 E0.88397
G1 X104.583 Y128.434 E1.70343
G1 X103.892 Y128.604 E1.73021
G1 X101.481 Y128.908 E1.82165
G3 X102.309 Y106.232 I-0.682 J-11.378 E3.25136
G1 X103.673 Y128.375 F7800
G1 F1200
G1 X103.673 Y106.982 E4.05634
G3 X103.044 Y106.873 I0.274 J-3.453 E4.08038
G1 X103.044 Y128.198 E4.8828
G1 X102.416 Y128.277 E4.90662
G1 X102.416 Y106.758 E5.71634
G1 X101.787 Y106.684 E5.74017
G1 X101.787 Y128.356 E6.55565
G3 X101.159 Y128.399 I-0.483 J-2.447 E6.57938
G1 X101.159 Y106.643 E7.39802
G1 X100.53 Y106.643 E7.42169
G1 X100.53 Y128.399 E8.24033
G3 X99.902 Y128.367 I-0.179 J-2.665 E8.26403
G1 X99.902 Y106.675 E9.08026
G1 X99.273 Y106.749 E9.10409
G1 X99.273 Y128.293 E9.91475
G3 X98.645 Y128.188 I0.146 J-2.805 E9.93875
G1 X98.645 Y106.855 E10.74147
G1 X98.016 Y107.003 E10.76578
G1 X98.016 Y128.039 E11.55732
G3 X97.388 Y127.852 I0.490 J-2.795 E11.58202
G1 X97.388 Y107.19 E12.35949
G1 X96.759 Y107.419 E12.38468
G1 X96.759 Y127.623 E13.14492
G3 X96.130 Y127.345 I0.897 J-2.879 E13.17084
G1 X96.13 Y107.697 E13.91016
G1 X95.502 Y108.013 E13.93661
G1 X95.502 Y127.029 E14.65215
G3 X94.873 Y126.638 I1.282 J-2.764 E14.68005
G1 X94.873 Y108.404 E15.36616
G1 X94.245 Y108.827 E15.39465
G1 X94.245 Y126.215 E16.04893
G1 X93.616 Y125.687 E16.07983
G1 X93.616 Y109.354 E16.69441
G2 X92.988 Y109.957 I2.329 J3.054 E16.72722
G1 X92.988 Y125.085 E17.29646
G3 X92.359 Y124.390 I2.695 J-3.072 E17.33176
G1 X92.359 Y110.652 E17.84869
G1 X91.731 Y111.496 E17.88828
G1 X91.731 Y123.546 E18.3417
G1 X91.102 Y122.468 E18.38866
G1 X91.102 Y112.574 E18.76095
G1 X90.568 Y113.793 E18.81103
G1 X90.474 Y114.108 E18.8234
G1 X90.474 Y121.673 E19.10806
G1 E18.30806 F2400
G92 E0
G1 X110.183 Y132.188 F7800
G1 E.8 F2400
;TYPE:External perimeter
G1 F1200
G1 X110.183 Y102.845 E1.90412
G1 X112.029 Y103.769 E1.9818
G1 X112.367 Y103.678 E1.99497
G3 X116.944 Y106.167 I-10.075 J23.979 E2.19135
G1 X118.222 Y107.222 E2.25371
G1 X119.323 Y108.408 E2.3146
G1 X120.146 Y109.743 E2.37361
G3 X121.970 Y117.504 I-15.031 J7.627 E2.67642
G3 X120.146 Y125.279 I-16.891 J0.139 E2.97974
G1 X119.324 Y126.616 E3.0388
G1 X118.222 Y127.805 E3.0998
G1 X116.944 Y128.862 E3.16221
G3 X114.085 Y130.554 I-11.656 J-16.434 E3.28732
G1 X113.633 Y130.432 E3.30494
G1 X110.263 Y132.148 E3.44724
G1 X110.411 Y131.634 F7800
G1 E2.64724 F2400
G92 E0
G1 X110.748 Y131.272 F7800
G1 E.8 F2400
;TYPE:Perimeter
G1 F1200
G1 X110.748 Y103.76 E1.83522
G1 X111.968 Y104.371 E1.88656
M73 P2 R99
G1 X112.316 Y104.277 E1.90012
G3 X116.609 Y106.624 I-8.378 J20.424 E2.08454
G1 X117.833 Y107.634 E2.14425
G1 X118.871 Y108.752 E2.20165
G1 X119.645 Y110.007 E2.25713
G3 X121.404 Y117.504 I-14.503 J7.358 E2.54962
G3 X119.645 Y125.015 I-16.333 J0.136 E2.84261
G1 X118.871 Y126.273 E2.89819
G1 X117.832 Y127.393 E2.95568
G1 X116.609 Y128.405 E3.01541
G3 X114.016 Y129.950 I-10.549 J-14.757 E3.12908
G1 X113.568 Y129.829 E3.14654
G1 X110.829 Y131.232 E3.26234
G1 E2.46234 F2400
G92 E0
G1 X111.314 Y130.358 F7800
G1 E.8 F2400
G1 F1200
