; generated by PrusaSlicer 2.6.0+win64 on 2023-07-07 at 20:35:54 UTC
; Postprocessed by [ArcWelder](https://github.com/FormerLurker/ArcWelderLib)
; Copyright(C) 2021 - Brad Hochgesang
; Version: 1.2.0, Branch: HEAD, BuildDate: 2021-11-21T20:25:43Z
; resolution=0.05mm
; path_tolerance=5.0%
; max_radius=9999.00mm
; default_xyz_precision=3
; default_e_precision=5
; extrusion_rate_variance_percent=5.0%








; 

; external perimeters extrusion width = 0.60mm
; perimeters extrusion width = 0.60mm
; infill extrusion width = 0.60mm
; solid infill extrusion width = 0.60mm
; top infill extrusion width = 0.40mm
; support material extrusion width = 0.40mm
; first layer extrusion width = 0.60mm

M73 P0 R127


; Pre-Processed for Cancel-Object support by preprocess_cancellation v0.2.0
; 1 known objects
EXCLUDE_OBJECT_DEFINE NAME=LithoCubeHolder_stl_id_0_copy_0 CENTER=117.693,117.888 POLYGON=[[67.8,65.8],[67.8,169.2],[167.2,169.2],[167.2,65.8]]
;TYPE:Custom
G90 ; use absolute coordinates
M83 ; extruder relative mode
M104 S205 ; set temporary nozzle temp to prevent oozing during homing
M140 S65 ; set final bed temp
G4 S30 ; allow partial nozzle warmup
G28 ; home all axis
BED_MESH_CALIBRATE
G1 Z50 F240
G1 X2.0 Y10 F3000
M104 S210 ; set final nozzle temp
M190 S65 ; wait for bed temp to stabilize
M109 S210 ; wait for nozzle temp to stabilize
G1 Z0.28 F240
G92 E0
G1 X2.0 Y140 E10 F1500 ; prime the nozzle
G1 X2.3 Y140 F5000
G92 E0
G1 X2.3 Y10 E10 F1200 ; prime the nozzle
G21 ; set units to millimeters
G90 ; use absolute coordinates
M82 ; use absolute distances for extrusion
G92 E0
; Filament gcode
M107
;LAYER_CHANGE
;Z:0.2
;HEIGHT:0.2
;BEFORE_LAYER_CHANGE
;0.2
M117 Layer 1/95 : PLA - KLIPPER

G1 Z.2 F7800
SET_PRINT_STATS_INFO CURRENT_LAYER=1
;AFTER_LAYER_CHANGE
;0.2
G1 E-.8 F2400
G92 E0
G1 X61.93 Y62.48 F7800
G1 E.8 F2400
;TYPE:Skirt/Brim
;WIDTH:0.6
G1 F1200
G1 X63.699 Y60.892 E.91012
G1 X65.893 Y59.975 E1.02027
G1 X67.5 Y59.791 E1.09519
G1 X167.5 Y59.791 E5.72733
G1 X169.844 Y60.188 E5.83745
G1 X171.926 Y61.336 E5.94758
G1 X173.514 Y63.105 E6.0577
G1 X174.43 Y65.298 E6.16779
G1 X174.614 Y66.905 E6.24271
G1 X174.614 Y168.095 E10.92997
G1 X174.217 Y170.438 E11.04005
G1 X173.07 Y172.52 E11.15016
G1 X171.301 Y174.108 E11.26028
G1 X169.107 Y175.025 E11.37043
G1 X167.5 Y175.209 E11.44535
G1 X67.5 Y175.209 E16.07749
G1 X65.156 Y174.812 E16.18761
M73 P0 R126
G1 X63.074 Y173.664 E16.29774
G1 X61.486 Y171.895 E16.40786
G1 X60.57 Y169.702 E16.51795
G1 X60.386 Y168.095 E16.59287
G1 X60.386 Y66.905 E21.28013
G1 X60.783 Y64.562 E21.39021
G1 X61.887 Y62.558 E21.49619
G1 E20.69619 F2400
G92 E0
G1 X62.388 Y62.848 F7800
G1 E.8 F2400
G1 F1200
G1 X62.483 Y62.684 E.80878
G1 X64.233 Y61.22 E.91447
G1 X67.5 Y60.348 E1.0711
G1 X167.5 Y60.348 E5.70324
G1 X169.747 Y60.745 E5.80894
G1 X171.722 Y61.888 E5.91464
G1 X173.185 Y63.638 E6.0203
G1 X174.057 Y66.905 E6.17693
G1 X174.057 Y168.095 E10.86419
G1 X173.66 Y170.341 E10.96984
G1 X172.517 Y172.316 E11.07554
G1 X170.767 Y173.78 E11.18123
G1 X167.5 Y174.652 E11.33786
G1 X67.5 Y174.652 E15.97
G1 X65.253 Y174.255 E16.0757
M73 P1 R126
G1 X63.278 Y173.112 E16.1814
G1 X61.815 Y171.362 E16.28706
G1 X60.943 Y168.095 E16.44369
G1 X60.943 Y66.905 E21.13095
G1 X61.34 Y64.659 E21.2366
G1 X62.343 Y62.926 E21.32935
; printing object LithoCubeHolder.stl id:0 copy 0
EXCLUDE_OBJECT_START NAME=LithoCubeHolder_stl_id_0_copy_0
G1 E20.52935 F2400
G92 E0
G1 X67.8 Y167.795 F7800
G1 E.8 F2400
;TYPE:External perimeter
G1 F1200
G1 X67.8 Y67.205 E5.45947
G1 X167.2 Y67.205 E10.06381
G1 X167.2 Y167.795 E14.72328
G1 X67.89 Y167.795 E19.32345
G1 X67.954 Y167.215 F7800
G1 E18.52345 F2400
G92 E0
G1 X68.357 Y167.237 F7800
G1 E.8 F2400
;TYPE:Perimeter
G1 F1200
G1 X68.357 Y67.763 E5.40777
G1 X166.643 Y67.763 E9.96051
G1 X166.643 Y167.237 E14.56828
M73 P1 R125
G1 X68.447 Y167.237 E19.11685
G1 E18.31685 F2400
G92 E0
G1 X68.914 Y166.68 F7800
G1 E.8 F2400
G1 F1200
G1 X68.914 Y68.32 E5.35617
G1 X166.086 Y68.32 E9.85731
G1 X166.086 Y166.68 E14.41348
G1 X69.004 Y166.68 E18.91045
G1 E18.11045 F2400
G92 E0
G1 X69.471 Y166.123 F7800
G1 E.8 F2400
G1 F1200
G1 X69.471 Y68.877 E5.30457
G1 X165.529 Y68.877 E9.75411
G1 X165.529 Y166.123 E14.25868
G1 X69.561 Y166.123 E18.70405
M73 P2 R125
G1 E17.90405 F2400
G92 E0
G1 X70.028 Y165.566 F7800
G1 E.8 F2400
G1 F1200
G1 X70.028 Y69.434 E5.25297
G1 X164.972 Y69.434 E9.65091
G1 X164.972 Y165.566 E14.10388
G1 X70.118 Y165.566 E18.49765
M73 P2 R124
G1 E17.69765 F2400
G92 E0
G1 X118.248 Y161.794 F7800
G1 E.8 F2400
;TYPE:External perimeter
G1 F1200
G1 X115.256 Y161.743 E.93861
G1 X112.275 Y161.491 E1.07719
G1 X109.317 Y161.038 E1.21581
G1 X106.396 Y160.386 E1.35444
G1 X103.526 Y159.539 E1.49305
G1 X100.72 Y158.499 E1.63167
G1 X97.99 Y157.273 E1.77029
G1 X95.35 Y155.865 E1.90888
G1 X92.81 Y154.282 E2.04752
G1 X90.384 Y152.532 E2.18608
G1 X88.08 Y150.621 E2.32474
G1 X85.912 Y148.559 E2.46333
G1 X83.887 Y146.356 E2.60194
G1 X82.016 Y144.021 E2.74054
G1 X80.306 Y141.565 E2.87916
G1 X78.766 Y138.999 E3.01778
G1 X77.403 Y136.335 E3.15639
G1 X76.223 Y133.585 E3.29501
G1 X75.231 Y130.762 E3.43361
G1 X74.433 Y127.878 E3.57222
G1 X73.83 Y124.947 E3.71083
G1 X73.427 Y121.982 E3.84944
G1 X73.225 Y118.996 E3.98807
G1 X73.225 Y116.004 E4.12666
G1 X73.427 Y113.018 E4.26529
G1 X73.83 Y110.053 E4.4039
G1 X74.433 Y107.122 E4.54251
G1 X75.212 Y104.31 E4.67767
G1 X76.223 Y101.415 E4.81971
G1 X77.403 Y98.665 E4.95833
G1 X78.732 Y96.067 E5.0935
G1 X80.306 Y93.435 E5.23556
G1 X82.016 Y90.979 E5.37418
G1 X83.887 Y88.644 E5.51278
G1 X85.912 Y86.441 E5.65139
G1 X88.08 Y84.379 E5.78998
G1 X90.384 Y82.468 E5.92864
G1 X92.81 Y80.718 E6.0672
G1 X95.35 Y79.135 E6.20584
G1 X97.99 Y77.727 E6.34443
G1 X100.72 Y76.501 E6.48305
G1 X103.526 Y75.461 E6.62167
G1 X106.325 Y74.635 E6.75685
G1 X109.316 Y73.962 E6.89886
G1 X112.275 Y73.509 E7.03752
G1 X115.256 Y73.257 E7.1761
G1 X118.174 Y73.207 E7.31129
G1 X121.237 Y73.358 E7.45334
G1 X124.208 Y73.711 E7.59193
G1 X127.149 Y74.263 E7.73054
G1 X129.974 Y74.995 E7.86572
G1 X132.885 Y75.957 E8.00773
G1 X135.655 Y77.091 E8.14638
G1 X138.342 Y78.409 E8.28501
G1 X140.933 Y79.905 E8.4236
G1 X143.418 Y81.573 E8.56224
G1 X145.784 Y83.404 E8.70082
G1 X148.021 Y85.392 E8.83945
G1 X150.119 Y87.525 E8.97804
G1 X152.069 Y89.796 E9.11669
G1 X153.86 Y92.193 E9.25529
G1 X155.486 Y94.705 E9.3939
G1 X156.938 Y97.321 E9.53249
G1 X158.21 Y100.03 E9.67112
G1 X159.297 Y102.818 E9.80973
G1 X160.192 Y105.673 E9.94832
G1 X160.893 Y108.582 E10.08693
G1 X161.396 Y111.532 E10.22555
G1 X161.699 Y114.509 E10.36416
G1 X161.8 Y117.5 E10.50279
G1 X161.699 Y120.491 E10.64142
G1 X161.396 Y123.468 E10.78003
G1 X160.893 Y126.418 E10.91865
G1 X160.192 Y129.327 E11.05726
G1 X159.297 Y132.182 E11.19585
G1 X158.21 Y134.97 E11.33446
G1 X156.938 Y137.679 E11.47309
G1 X155.486 Y140.295 E11.61168
G1 X153.86 Y142.807 E11.75029
G1 X152.069 Y145.204 E11.88889
G1 X150.119 Y147.475 E12.02754
G1 X148.021 Y149.608 E12.16613
G1 X145.784 Y151.596 E12.30476
G1 X143.418 Y153.427 E12.44334
G1 X140.933 Y155.095 E12.58198
G1 X138.342 Y156.591 E12.72057
G1 X135.655 Y157.909 E12.8592
G1 X132.886 Y159.043 E12.9978
G1 X130.046 Y159.986 E13.13642
G1 X127.149 Y160.737 E13.27505
G1 X124.208 Y161.289 E13.41366
G1 X121.237 Y161.642 E13.55225
G1 X118.338 Y161.789 E13.68671
G1 X117.957 Y162.318 F7800
G1 E12.88671 F2400
G92 E0
G1 X118.24 Y162.351 F7800
G1 E.8 F2400
;TYPE:Perimeter
G1 F1200
G1 X115.228 Y162.3 E.93954
G1 X112.209 Y162.044 E1.07989
G1 X109.214 Y161.586 E1.22024
G1 X106.256 Y160.926 E1.36063
G1 X103.35 Y160.067 E1.501
G1 X100.509 Y159.015 E1.64133
G1 X97.745 Y157.773 E1.78169
G1 X95.071 Y156.348 E1.92204
G1 X92.5 Y154.745 E2.06238
G1 X90.042 Y152.972 E2.20277
G1 X87.71 Y151.038 E2.34311
G1 X85.514 Y148.95 E2.48347
G1 X83.464 Y146.719 E2.62382
G1 X81.569 Y144.355 E2.76416
G1 X79.838 Y141.868 E2.90452
G1 X78.279 Y139.269 E3.04491
G1 X76.899 Y136.572 E3.18524
G1 X75.704 Y133.787 E3.32562
G1 X74.7 Y130.929 E3.46594
G1 X73.891 Y128.009 E3.60629
G1 X73.281 Y125.041 E3.74665
G1 X72.873 Y122.038 E3.88703
G1 X72.668 Y119.015 E4.02738
G1 X72.668 Y115.985 E4.16773
G1 X72.873 Y112.962 E4.30808
G1 X73.281 Y109.959 E4.44846
G1 X73.891 Y106.991 E4.58882
G1 X74.68 Y104.144 E4.72567
G1 X75.704 Y101.213 E4.86949
G1 X76.899 Y98.428 E5.00987
G1 X78.245 Y95.797 E5.14676
G1 X79.838 Y93.133 E5.29054
G1 X81.569 Y90.645 E5.43094
G1 X83.464 Y88.281 E5.57128
G1 X85.514 Y86.05 E5.71163
G1 X87.71 Y83.962 E5.85199
G1 X90.042 Y82.028 E5.99233
G1 X92.5 Y80.255 E6.13272
G1 X95.071 Y78.652 E6.27306
G1 X97.745 Y77.227 E6.41341
G1 X100.509 Y75.985 E6.55377
G1 X103.35 Y74.933 E6.6941
G1 X106.184 Y74.096 E6.83098
G1 X109.213 Y73.415 E6.97479
G1 X112.209 Y72.956 E7.11519
G1 X115.228 Y72.7 E7.25554
G1 X118.183 Y72.65 E7.39244
G1 X121.283 Y72.802 E7.53621
G1 X124.293 Y73.16 E7.67662
G1 X127.271 Y73.719 E7.81697
G1 X130.131 Y74.46 E7.95382
G1 X133.079 Y75.434 E8.09764
G1 X135.884 Y76.582 E8.23803
G1 X138.604 Y77.917 E8.37838
G1 X141.228 Y79.432 E8.51873
G1 X143.744 Y81.121 E8.6591
G1 X146.14 Y82.975 E8.79943
G1 X148.405 Y84.988 E8.9398
G1 X150.53 Y87.148 E9.08016
G1 X152.503 Y89.447 E9.22049
G1 X154.317 Y91.874 E9.36084
G1 X155.963 Y94.418 E9.5012
G1 X157.434 Y97.068 E9.6416
G1 X158.722 Y99.81 E9.78193
G1 X159.822 Y102.633 E9.92227
G1 X160.729 Y105.525 E10.06267
G1 X161.439 Y108.47 E10.20299
G1 X161.949 Y111.457 E10.34335
G1 X162.255 Y114.472 E10.48373
G1 X162.358 Y117.5 E10.62407
G1 X162.255 Y120.528 E10.76441
G1 X161.949 Y123.543 E10.90479
G1 X161.439 Y126.53 E11.04515
G1 X160.729 Y129.476 E11.18552
G1 X159.822 Y132.367 E11.32587
G1 X158.722 Y135.19 E11.46621
G1 X157.434 Y137.932 E11.60654
G1 X155.963 Y140.582 E11.74694
G1 X154.317 Y143.126 E11.8873
G1 X152.503 Y145.553 E12.02765
G1 X150.53 Y147.852 E12.16798
G1 X148.405 Y150.012 E12.30834
G1 X146.14 Y152.025 E12.44871
G1 X143.744 Y153.879 E12.58904
G1 X141.228 Y155.568 E12.72941
G1 X138.604 Y157.083 E12.86976
G1 X135.884 Y158.418 E13.01011
G1 X133.079 Y159.565 E13.15048
G1 X130.204 Y160.521 E13.29082
G1 X127.271 Y161.281 E13.43117
G1 X124.293 Y161.84 E13.57152
G1 X121.284 Y162.198 E13.71188
G1 X118.33 Y162.348 E13.84889
G1 E13.04889 F2400
G92 E0
G1 X118.231 Y162.908 F7800
G1 E.8 F2400
G1 F1200
G1 X115.2 Y162.857 E.94042
G1 X112.143 Y162.598 E1.08253
G1 X109.111 Y162.133 E1.22462
G1 X106.117 Y161.465 E1.36672
G1 X103.175 Y160.596 E1.50882
G1 X100.298 Y159.531 E1.65092
G1 X97.5 Y158.274 E1.79301
G1 X94.793 Y156.831 E1.9351
G1 X92.189 Y155.208 E2.07723
G1 X89.701 Y153.413 E2.21934
G1 X87.34 Y151.454 E2.36145
G1 X85.117 Y149.341 E2.50352
G1 X83.041 Y147.082 E2.64564
G1 X81.123 Y144.688 E2.78773
G1 X79.37 Y142.17 E2.92985
G1 X77.792 Y139.54 E3.07192
G1 X76.394 Y136.809 E3.21404
G1 X75.184 Y133.99 E3.35614
G1 X74.168 Y131.096 E3.49822
G1 X73.349 Y128.139 E3.64035
G1 X72.731 Y125.134 E3.78246
G1 X72.318 Y122.095 E3.92452
G1 X72.111 Y119.034 E4.06663
G1 X72.111 Y115.966 E4.20874
G1 X72.318 Y112.905 E4.35085
G1 X72.731 Y109.866 E4.49291
G1 X73.349 Y106.861 E4.63502
G1 X74.148 Y103.977 E4.77364
G1 X75.184 Y101.011 E4.91917
G1 X76.394 Y98.191 E5.06131
G1 X77.757 Y95.527 E5.19992
G1 X79.369 Y92.831 E5.34542
G1 X81.123 Y90.312 E5.4876
G1 X83.041 Y87.918 E5.62969
G1 X85.117 Y85.659 E5.77181
G1 X87.34 Y83.546 E5.91388
G1 X89.701 Y81.587 E6.05599
G1 X92.189 Y79.792 E6.1981
G1 X94.793 Y78.169 E6.34023
G1 X97.5 Y76.726 E6.48232
G1 X100.298 Y75.469 E6.62441
G1 X103.175 Y74.404 E6.76651
G1 X106.044 Y73.556 E6.90509
G1 X109.11 Y72.867 E7.05065
G1 X112.143 Y72.402 E7.19278
G1 X115.2 Y72.143 E7.33489
G1 X118.192 Y72.093 E7.4735
G1 X121.33 Y72.247 E7.61903
G1 X124.377 Y72.609 E7.76116
G1 X127.392 Y73.175 E7.90326
G1 X130.289 Y73.925 E8.04188
G1 X133.272 Y74.912 E8.18742
G1 X136.112 Y76.074 E8.32956
G1 X138.866 Y77.425 E8.47165
G1 X141.523 Y78.959 E8.61377
G1 X144.07 Y80.669 E8.75587
G1 X146.496 Y82.546 E8.89795
G1 X148.789 Y84.584 E9.04005
G1 X150.94 Y86.771 E9.18214
G1 X152.938 Y89.099 E9.32425
G1 X154.775 Y91.556 E9.46635
G1 X156.441 Y94.131 E9.60842
G1 X157.93 Y96.814 E9.75056
G1 X159.234 Y99.59 E9.89263
G1 X160.348 Y102.449 E10.03476
G1 X161.267 Y105.376 E10.17687
G1 X161.985 Y108.358 E10.31895
G1 X162.501 Y111.382 E10.46105
G1 X162.811 Y114.434 E10.60315
G1 X162.915 Y117.5 E10.74525
G1 X162.811 Y120.566 E10.88735
G1 X162.501 Y123.618 E11.02945
G1 X161.985 Y126.642 E11.17155
G1 X161.267 Y129.624 E11.31363
G1 X160.348 Y132.551 E11.45574
G1 X159.234 Y135.41 E11.59787
G1 X157.93 Y138.186 E11.73994
G1 X156.441 Y140.869 E11.88208
G1 X154.775 Y143.444 E12.02415
G1 X152.938 Y145.901 E12.16625
G1 X150.94 Y148.229 E12.30836
G1 X148.789 Y150.416 E12.45045
G1 X146.496 Y152.454 E12.59255
G1 X144.07 Y154.331 E12.73463
G1 X141.523 Y156.041 E12.87673
G1 X138.866 Y157.575 E13.01885
G1 X136.112 Y158.926 E13.16094
G1 X133.273 Y160.088 E13.30304
G1 X130.362 Y161.056 E13.44514
G1 X127.392 Y161.825 E13.58725
G1 X124.377 Y162.391 E13.72935
G1 X121.331 Y162.753 E13.87144
G1 X118.321 Y162.906 E14.01105
G1 E13.21105 F2400
G92 E0
G1 X118.223 Y163.465 F7800
G1 E.8 F2400
G1 F1200
G1 X115.172 Y163.413 E.94135
G1 X112.077 Y163.151 E1.08523
G1 X109.008 Y162.681 E1.22905
G1 X105.977 Y162.005 E1.3729
G1 X102.999 Y161.125 E1.51674
G1 X100.087 Y160.047 E1.66057
G1 X97.254 Y158.774 E1.80444
G1 X94.514 Y157.313 E1.94828
G1 X91.878 Y155.671 E2.09213
G1 X89.36 Y153.854 E2.23596
G1 X86.97 Y151.871 E2.37981
G1 X84.719 Y149.732 E2.52365
G1 X82.618 Y147.445 E2.6675
G1 X80.676 Y145.022 E2.81134
G1 X78.902 Y142.473 E2.95519
G1 X77.304 Y139.81 E3.09905
G1 X75.89 Y137.046 E3.24286
G1 X74.665 Y134.192 E3.38672
G1 X73.636 Y131.262 E3.53057
G1 X72.807 Y128.27 E3.67438
G1 X72.182 Y125.228 E3.81823
G1 X71.764 Y122.151 E3.96207
G1 X71.554 Y119.053 E4.1059
G1 X71.554 Y115.947 E4.24977
G1 X71.764 Y112.849 E4.3936
G1 X72.182 Y109.772 E4.53744
G1 X72.807 Y106.73 E4.68129
G1 X73.616 Y103.811 E4.8216
G1 X74.664 Y100.809 E4.96889
M73 P3 R124
G1 X75.89 Y97.954 E5.11282
G1 X77.27 Y95.257 E5.25315
G1 X78.901 Y92.528 E5.40042
G1 X80.676 Y89.978 E5.54434
G1 X82.618 Y87.555 E5.68818
G1 X84.719 Y85.268 E5.83203
G1 X86.97 Y83.129 E5.97587
G1 X89.36 Y81.146 E6.11972
G1 X91.878 Y79.329 E6.26355
G1 X94.514 Y77.687 E6.4074
G1 X97.254 Y76.226 E6.55124
G1 X100.087 Y74.953 E6.69511
G1 X102.999 Y73.875 E6.83894
G1 X105.904 Y73.017 E6.97925
G1 X109.006 Y72.319 E7.12653
G1 X112.077 Y71.849 E7.27044
G1 X115.172 Y71.587 E7.41432
G1 X118.201 Y71.535 E7.55465
G1 X121.376 Y71.691 E7.7019
G1 X124.462 Y72.058 E7.84586
M73 P3 R123
G1 X127.513 Y72.631 E7.98966
G1 X130.446 Y73.391 E8.13001
G1 X133.465 Y74.389 E8.2773
G1 X136.34 Y75.566 E8.4212
G1 X139.128 Y76.933 E8.56503
G1 X141.818 Y78.486 E8.70891
G1 X144.396 Y80.217 E8.85275
G1 X146.852 Y82.117 E8.99658
G1 X149.173 Y84.18 E9.14042
G1 X151.351 Y86.394 E9.28428
G1 X153.373 Y88.75 E9.42809
G1 X155.232 Y91.237 E9.57192
G1 X156.919 Y93.845 E9.7158
G1 X158.426 Y96.56 E9.85964
G1 X159.747 Y99.371 E10.00351
G1 X160.874 Y102.264 E10.14733
G1 X161.804 Y105.227 E10.29118
G1 X162.531 Y108.246 E10.43502
G1 X163.053 Y111.307 E10.57886
G1 X163.367 Y114.396 E10.72268
G1 X163.472 Y117.5 E10.86654
G1 X163.367 Y120.604 E11.0104
G1 X163.053 Y123.693 E11.15422
G1 X162.531 Y126.754 E11.29806
G1 X161.804 Y129.773 E11.4419
G1 X160.874 Y132.736 E11.58575
G1 X159.747 Y135.629 E11.72957
G1 X158.426 Y138.44 E11.87344
G1 X156.919 Y141.155 E12.01728
G1 X155.232 Y143.763 E12.16116
G1 X153.373 Y146.25 E12.30499
G1 X151.351 Y148.606 E12.4488
G1 X149.173 Y150.82 E12.59266
G1 X146.852 Y152.883 E12.7365
G1 X144.396 Y154.783 E12.88033
G1 X141.818 Y156.514 E13.02417
G1 X139.128 Y158.067 E13.16805
G1 X136.34 Y159.434 E13.31188
G1 X133.466 Y160.611 E13.45574
G1 X130.52 Y161.59 E13.59954
G1 X127.513 Y162.369 E13.74343
G1 X124.462 Y162.942 E13.88723
G1 X121.378 Y163.309 E14.03109
G1 X118.313 Y163.464 E14.17325
G1 E13.37325 F2400
G92 E0
G1 X118.214 Y164.022 F7800
G1 E.8 F2400
G1 F1200
G1 X115.143 Y163.97 E.94227
G1 X112.011 Y163.705 E1.08787
G1 X108.905 Y163.229 E1.23342
G1 X105.837 Y162.544 E1.37903
G1 X102.823 Y161.654 E1.5246
G1 X99.876 Y160.563 E1.67016
G1 X97.009 Y159.275 E1.81575
G1 X94.235 Y157.796 E1.96137
