; generated by PrusaSlicer 2.6.0+win64 on 2023-07-07 at 22:05:21 UTC
; Postprocessed by [ArcWelder](https://github.com/FormerLurker/ArcWelderLib)
; Copyright(C) 2021 - Brad Hochgesang
; Version: 1.2.0, Branch: HEAD, BuildDate: 2021-11-21T20:25:43Z
; resolution=0.05mm
; path_tolerance=5.0%
; max_radius=9999.00mm
; default_xyz_precision=3
; default_e_precision=5
; extrusion_rate_variance_percent=5.0%








; 

; external perimeters extrusion width = 0.60mm
; perimeters extrusion width = 0.60mm
; infill extrusion width = 0.60mm
; solid infill extrusion width = 0.60mm
; top infill extrusion width = 0.40mm
; support material extrusion width = 0.40mm
; first layer extrusion width = 0.60mm

M73 P0 R116


; Pre-Processed for Cancel-Object support by preprocess_cancellation v0.2.0
; 1 known objects
EXCLUDE_OBJECT_DEFINE NAME=LithoCubeTop_stl_id_0_copy_0 CENTER=117.345,117.294 POLYGON=[[67.8,67.8],[67.8,167.2],[167.2,167.2],[167.2,67.8]]
;TYPE:Custom
G90 ; use absolute coordinates
M83 ; extruder relative mode
M104 S205 ; set temporary nozzle temp to prevent oozing during homing
M140 S65 ; set final bed temp
G4 S30 ; allow partial nozzle warmup
G28 ; home all axis
BED_MESH_CALIBRATE
G1 Z50 F240
G1 X2.0 Y10 F3000
M104 S210 ; set final nozzle temp
M190 S65 ; wait for bed temp to stabilize
M109 S210 ; wait for nozzle temp to stabilize
G1 Z0.28 F240
G92 E0
G1 X2.0 Y140 E10 F1500 ; prime the nozzle
G1 X2.3 Y140 F5000
G92 E0
G1 X2.3 Y10 E10 F1200 ; prime the nozzle
G21 ; set units to millimeters
G90 ; use absolute coordinates
M82 ; use absolute distances for extrusion
G92 E0
; Filament gcode
M107
;LAYER_CHANGE
;Z:0.2
;HEIGHT:0.2
;BEFORE_LAYER_CHANGE
;0.2
M117 Layer 1/50 : PLA - KLIPPER

G1 Z.2 F7800
SET_PRINT_STATS_INFO CURRENT_LAYER=1
;AFTER_LAYER_CHANGE
;0.2
; printing object LithoCubeTop.stl id:0 copy 0
EXCLUDE_OBJECT_START NAME=LithoCubeTop_stl_id_0_copy_0
G1 E-.8 F2400
G92 E0
G1 X157.455 Y166.086 F7800
G1 E.8 F2400
;TYPE:Perimeter
;WIDTH:0.6
G1 F1200
G1 X77.546 Y166.086 E4.50149
G3 X68.914 Y157.454 I-0.038 J-8.594 E5.12979
G1 X68.914 Y77.546 E8.83124
G1 X68.991 Y76.38 E8.88537
M73 P0 R115
G3 X77.548 Y68.914 I8.516 J1.123 E9.45962
G1 X157.454 Y68.914 E13.16097
G3 X166.086 Y77.546 I0.038 J8.594 E13.78927
G1 X166.086 Y157.454 E17.49072
G3 X157.545 Y166.080 I-8.584 J0.042 E18.11481
G1 E17.31481 F2400
G92 E0
G1 X157.492 Y166.642 F7800
G1 E.8 F2400
G1 F1200
G1 X77.528 Y166.643 E4.50404
G3 X68.357 Y157.472 I-0.024 J-9.147 E5.17130
G1 X68.357 Y77.528 E8.87441
G3 X77.529 Y68.357 I9.148 J-0.023 E9.54168
G1 X157.472 Y68.357 E13.24475
G1 X158.668 Y68.435 E13.30027
M73 P1 R115
G3 X166.643 Y77.528 I-1.168 J9.068 E13.91199
G1 X166.643 Y157.472 E17.6151
G3 X157.582 Y166.636 I-9.135 J0.029 E18.27725
G1 E17.47725 F2400
G92 E0
G1 X157.528 Y167.198 F7800
G1 E.8 F2400
;TYPE:External perimeter
G1 F1200
G1 X77.51 Y167.2 E4.50654
G3 X67.800 Y157.490 I-0.007 J-9.703 E5.21270
G1 X67.8 Y77.51 E8.91748
G3 X77.510 Y67.800 I9.701 J-0.009 E9.62360
G1 X157.49 Y67.8 E13.32838
G3 X167.200 Y77.510 I0.007 J9.703 E14.03453
G1 X167.2 Y157.49 E17.73931
G3 X157.618 Y167.192 I-9.691 J0.012 E18.43953
G1 X157.206 Y166.692 F7800
G1 E17.63953 F2400
G92 E0
G1 X160.354 Y69.613 F7800
G1 E.8 F2400
;TYPE:Solid infill
;WIDTH:0.600865
G1 F1200
G1 X164.946 Y74.205 E1.10128
G1 X165.032 Y74.38 E1.11033
G1 X165.383 Y75.431 E1.16174
G1 X159.569 Y69.617 E1.5432
G1 X158.588 Y69.425 E1.58958
G1 X165.579 Y76.416 E2.04826
G1 X165.637 Y77.263 E2.08765
G1 X157.737 Y69.363 E2.60597
G1 X156.928 Y69.343 E2.64351
G1 X165.657 Y78.072 E3.21622
G1 X165.657 Y78.861 E3.25282
G1 X156.139 Y69.343 E3.8773
G1 X155.35 Y69.343 E3.9139
G1 X165.657 Y79.65 E4.59014
G1 X165.657 Y80.439 E4.62674
G1 X154.561 Y69.343 E5.35475
G1 X153.772 Y69.343 E5.39135
G1 X165.657 Y81.228 E6.17113
G1 X165.657 Y82.017 E6.20773
G1 X152.983 Y69.343 E7.03927
G1 X152.194 Y69.343 E7.07587
G1 X165.657 Y82.806 E7.95918
G1 X165.657 Y83.595 E7.99578
G1 X151.405 Y69.343 E8.93085
G1 X150.616 Y69.343 E8.96745
G1 X165.657 Y84.384 E9.95429
G1 X165.657 Y85.173 E9.99089
M73 P1 R114
G1 X149.827 Y69.343 E11.0295
G1 X149.037 Y69.343 E11.06615
G1 X165.657 Y85.963 E12.15659
G1 X165.657 Y86.752 E12.19319
G1 X148.248 Y69.343 E13.3354
G1 X147.459 Y69.343 E13.372
G1 X165.657 Y87.541 E14.56597
G1 X165.657 Y88.33 E14.60257
G1 X146.67 Y69.343 E15.84831
G1 X145.881 Y69.343 E15.88491
G1 X165.657 Y89.119 E17.18241
G1 X165.657 Y89.908 E17.21901
G1 X145.092 Y69.343 E18.56828
G1 X144.303 Y69.343 E18.60488
G1 X165.657 Y90.697 E20.00592
G1 X165.657 Y91.486 E20.04252
G1 X143.514 Y69.343 E21.49532
G1 X142.725 Y69.343 E21.53192
G1 X165.657 Y92.275 E23.03649
G1 X165.657 Y93.064 E23.07309
G1 X141.936 Y69.343 E24.62943
G1 X141.147 Y69.343 E24.66603
G1 X165.657 Y93.853 E26.27413
G1 X165.657 Y94.642 E26.31073
G1 X140.358 Y69.343 E27.9706
G1 X139.569 Y69.343 E28.0072
G1 X165.657 Y95.431 E29.71884
G1 X165.657 Y96.22 E29.75544
G1 X138.78 Y69.343 E31.51884
G1 X137.991 Y69.343 E31.55544
G1 X165.657 Y97.009 E33.37061
G1 X165.657 Y97.798 E33.40721
G1 X137.202 Y69.343 E35.27414
G1 X136.413 Y69.343 E35.31074
G1 X165.657 Y98.587 E37.22944
G1 X165.657 Y99.376 E37.26604
G1 X135.624 Y69.343 E39.23651
G1 X134.835 Y69.343 E39.27311
G1 X165.657 Y100.165 E41.29534
G1 X165.657 Y100.955 E41.33199
M73 P2 R114
G1 X134.045 Y69.343 E43.40606
G1 X133.256 Y69.343 E43.44266
G1 X165.657 Y101.744 E45.56849
G1 X165.657 Y102.533 E45.60509
G1 X132.467 Y69.343 E47.78269
G1 X131.678 Y69.343 E47.81929
G1 X165.657 Y103.322 E50.04865
G1 X165.657 Y104.111 E50.08525
G1 X130.889 Y69.343 E52.36638
G1 X130.1 Y69.343 E52.40298
G1 X165.657 Y104.9 E54.73588
G1 X165.657 Y105.689 E54.77248
G1 X129.311 Y69.343 E57.15714
G1 X128.522 Y69.343 E57.19374
G1 X165.657 Y106.478 E59.63017
G1 X165.657 Y107.267 E59.66677
G1 X127.733 Y69.343 E62.15497
G1 X126.944 Y69.343 E62.19157
G1 X165.657 Y108.056 E64.73153
G1 X165.657 Y108.845 E64.76813
G1 X126.155 Y69.343 E67.35986
G1 X125.366 Y69.343 E67.39646
M73 P2 R113
G1 X165.657 Y109.634 E70.03995
G1 X165.657 Y110.423 E70.07655
G1 X124.577 Y69.343 E72.77181
G1 X123.788 Y69.343 E72.80841
G1 X165.657 Y111.212 E75.55544
G1 X165.657 Y112.001 E75.59204
G1 X122.999 Y69.343 E78.39083
G1 X122.21 Y69.343 E78.42743
G1 X165.657 Y112.79 E81.27799
G1 X165.657 Y113.579 E81.31459
G1 X121.421 Y69.343 E84.21692
G1 X120.632 Y69.343 E84.25352
G1 X165.657 Y114.368 E87.20761
G1 X165.657 Y115.158 E87.24426
G1 X119.842 Y69.343 E90.25018
G1 X119.053 Y69.343 E90.28678
G1 X165.657 Y115.947 E93.34447
G1 X165.657 Y116.736 E93.38107
G1 X118.264 Y69.343 E96.49053
G1 X117.475 Y69.343 E96.52713
G1 X165.657 Y117.525 E99.68835
G1 X165.657 Y118.314 E99.72495
G1 X116.686 Y69.343 E102.93794
G1 X115.897 Y69.343 E102.97454
G1 X165.657 Y119.103 E106.2393
G1 X165.657 Y119.892 E106.2759
M73 P3 R113
G1 X115.108 Y69.343 E109.59242
G1 X114.319 Y69.343 E109.62902
G1 X165.657 Y120.681 E112.99731
G1 X165.657 Y121.47 E113.03391
G1 X113.53 Y69.343 E116.45397
G1 X112.741 Y69.343 E116.49057
G1 X165.657 Y122.259 E119.96239
G1 X165.657 Y123.048 E119.99899
G1 X111.952 Y69.343 E123.52258
G1 X111.163 Y69.343 E123.55918
M73 P3 R112
G1 X165.657 Y123.837 E127.13453
G1 X165.657 Y124.626 E127.17113
G1 X110.374 Y69.343 E130.79825
G1 X109.585 Y69.343 E130.83485
G1 X165.657 Y125.415 E134.51374
G1 X165.657 Y126.204 E134.55034
G1 X108.796 Y69.343 E138.28099
G1 X108.007 Y69.343 E138.31759
G1 X165.657 Y126.993 E142.10001
G1 X165.657 Y127.782 E142.13661
G1 X107.218 Y69.343 E145.9708
G1 X106.429 Y69.343 E146.0074
G1 X165.657 Y128.571 E149.89335
G1 X165.657 Y129.36 E149.92995
G1 X105.64 Y69.343 E153.86767
G1 X104.85 Y69.343 E153.90432
G1 X165.657 Y130.15 E157.89387
G1 X165.657 Y130.939 E157.93047
G1 X104.061 Y69.343 E161.97179
G1 X103.272 Y69.343 E162.00839
G1 X165.657 Y131.728 E166.10147
G1 X165.657 Y132.517 E166.13807
G1 X102.483 Y69.343 E170.28292
G1 X101.694 Y69.343 E170.31952
M73 P4 R112
G1 X165.657 Y133.306 E174.51614
G1 X165.657 Y134.095 E174.55274
G1 X100.905 Y69.343 E178.80112
G1 X100.116 Y69.343 E178.83772
M73 P4 R111
G1 X165.657 Y134.884 E183.13787
G1 X165.657 Y135.673 E183.17447
G1 X99.327 Y69.343 E187.52638
G1 X98.538 Y69.343 E187.56298
G1 X165.657 Y136.462 E191.96666
G1 X165.657 Y137.251 E192.00326
G1 X97.749 Y69.343 E196.45871
G1 X96.96 Y69.343 E196.49531
G1 X165.657 Y138.04 E201.00252
G1 X165.657 Y138.829 E201.03912
G1 X96.171 Y69.343 E205.5981
G1 X95.382 Y69.343 E205.6347
G1 X165.657 Y139.618 E210.24545
G1 X165.657 Y140.407 E210.28205
G1 X94.593 Y69.343 E214.94456
G1 X93.804 Y69.343 E214.98116
G1 X165.657 Y141.196 E219.69544
G1 X165.657 Y141.985 E219.73204
G1 X93.015 Y69.343 E224.49809
G1 X92.226 Y69.343 E224.53469
G1 X165.657 Y142.774 E229.3525
G1 X165.657 Y143.563 E229.3891
G1 X91.437 Y69.343 E234.25868
G1 X90.648 Y69.343 E234.29528
M73 P5 R110
G1 X165.657 Y144.352 E239.21662
G1 X165.657 Y145.142 E239.25327
G1 X89.858 Y69.343 E244.22645
G1 X89.069 Y69.343 E244.26305
G1 X165.657 Y145.931 E249.28799
G1 X165.657 Y146.72 E249.32459
G1 X88.28 Y69.343 E254.4013
G1 X87.491 Y69.343 E254.4379
G1 X165.657 Y147.509 E259.56638
G1 X165.657 Y148.298 E259.60298
G1 X86.702 Y69.343 E264.78322
G1 X85.913 Y69.343 E264.81982
G1 X165.657 Y149.087 E270.05183
G1 X165.657 Y149.876 E270.08843
G1 X85.124 Y69.343 E275.3722
G1 X84.335 Y69.343 E275.4088
G1 X165.657 Y150.665 E280.74434
G1 X165.657 Y151.454 E280.78094
G1 X83.546 Y69.343 E286.16825
G1 X82.757 Y69.343 E286.20485
G1 X165.657 Y152.243 E291.64392
G1 X165.657 Y153.032 E291.68052
M73 P5 R109
G1 X81.968 Y69.343 E297.17136
G1 X81.179 Y69.343 E297.20796
G1 X165.657 Y153.821 E302.75057
G1 X165.657 Y154.61 E302.78717
M73 P6 R109
G1 X80.39 Y69.343 E308.38154
G1 X79.601 Y69.343 E308.41814
G1 X165.657 Y155.399 E314.06428
G1 X165.657 Y156.188 E314.10088
G1 X78.812 Y69.343 E319.79879
G1 X78.023 Y69.343 E319.83539
G1 X165.657 Y156.977 E325.58506
G1 X165.637 Y157.746 E325.62075
G1 X77.255 Y69.364 E331.4195
G1 X76.516 Y69.414 E331.45386
G1 X165.588 Y158.487 E337.29791
G1 X165.466 Y159.154 E337.32937
G1 X75.846 Y69.534 E343.20934
G1 X75.39 Y69.625 E343.23091
M73 P6 R108
G1 X75.209 Y69.686 E343.23977
G1 X165.314 Y159.791 E349.15156
G1 X165.114 Y160.38 E349.18042
G1 X74.62 Y69.886 E355.11774
G2 X74.068 Y70.123 I0.609 J2.181 E355.14567
G1 X164.878 Y160.933 E361.10372
G1 X164.617 Y161.461 E361.13105
G1 X73.541 Y70.385 E367.10655
G1 X73.404 Y70.453 E367.11365
M73 P7 R108
G1 X73.054 Y70.687 E367.13318
G1 X164.313 Y161.946 E373.12069
G1 X163.997 Y162.419 E373.14708
G1 X72.581 Y71.003 E379.14489
G1 X72.155 Y71.366 E379.17086
G1 X163.634 Y162.845 E385.1728
G1 X163.265 Y163.265 E385.19874
G1 X71.735 Y71.735 E391.20403
G1 X71.368 Y72.157 E391.22998
G1 X162.845 Y163.634 E397.23179
G1 X162.419 Y163.997 E397.25776
G1 X71.003 Y72.581 E403.25557
G1 X70.686 Y73.054 E403.28199
M73 P7 R107
G1 X161.946 Y164.314 E409.26956
G3 X161.461 Y164.617 I-1.354 J-1.628 E409.29613
G1 X70.383 Y73.539 E415.27176
G1 X70.122 Y74.067 E415.29909
G1 X160.933 Y164.878 E421.2572
G3 X160.380 Y165.114 I-1.193 J-2.030 E421.28515
G1 X69.886 Y74.62 E427.22247
G1 X69.686 Y75.209 E427.25133
G1 X159.79 Y165.314 E433.16309
G1 X159.61 Y165.375 E433.17191
M73 P8 R107
G1 X159.154 Y165.466 E433.19348
G1 X69.534 Y75.846 E439.07345
G1 X69.412 Y76.513 E439.10491
G1 X158.487 Y165.588 E444.94913
G1 X157.746 Y165.637 E444.98358
G1 X69.363 Y77.254 E450.78239
G1 X69.343 Y78.023 E450.81808
G1 X156.977 Y165.657 E456.56775
G1 X156.188 Y165.657 E456.60435
M73 P8 R106
G1 X69.343 Y78.812 E462.30226
G1 X69.343 Y79.601 E462.33886
G1 X155.399 Y165.657 E467.985
G1 X154.61 Y165.657 E468.0216
G1 X69.343 Y80.39 E473.61597
G1 X69.343 Y81.179 E473.65257
G1 X153.821 Y165.657 E479.19518
G1 X153.032 Y165.657 E479.23178
G1 X69.343 Y81.968 E484.72262
G1 X69.343 Y82.757 E484.75922
G1 X152.243 Y165.657 E490.19829
G1 X151.454 Y165.657 E490.23489
G1 X69.343 Y83.546 E495.6222
G1 X69.343 Y84.335 E495.6588
M73 P9 R106
G1 X150.665 Y165.657 E500.99434
G1 X149.876 Y165.657 E501.03094
G1 X69.343 Y85.124 E506.31471
G1 X69.343 Y85.913 E506.35131
G1 X149.087 Y165.657 E511.58332
G1 X148.298 Y165.657 E511.61992
M73 P9 R105
G1 X69.343 Y86.702 E516.80016
G1 X69.343 Y87.491 E516.83676
G1 X147.509 Y165.657 E521.96524
G1 X146.72 Y165.657 E522.00184
G1 X69.343 Y88.28 E527.07855
G1 X69.343 Y89.069 E527.11515
G1 X145.931 Y165.657 E532.14009
G1 X145.141 Y165.657 E532.17674
G1 X69.343 Y89.859 E537.14985
G1 X69.343 Y90.648 E537.18645
G1 X144.352 Y165.657 E542.10779
G1 X143.563 Y165.657 E542.14439
G1 X69.343 Y91.437 E547.01397
G1 X69.343 Y92.226 E547.05057
G1 X142.774 Y165.657 E551.86838
G1 X141.985 Y165.657 E551.90498
G1 X69.343 Y93.015 E556.67103
G1 X69.343 Y93.804 E556.70763
G1 X141.196 Y165.657 E561.42191
G1 X140.407 Y165.657 E561.45851
M73 P10 R105
G1 X69.343 Y94.593 E566.12102
G1 X69.343 Y95.382 E566.15762
M73 P10 R104
G1 X139.618 Y165.657 E570.76837
G1 X138.829 Y165.657 E570.80497
G1 X69.343 Y96.171 E575.36395
G1 X69.343 Y96.96 E575.40055
G1 X138.04 Y165.657 E579.90776
G1 X137.251 Y165.657 E579.94436
G1 X69.343 Y97.749 E584.39981
G1 X69.343 Y98.538 E584.43641
G1 X136.462 Y165.657 E588.84009
G1 X135.673 Y165.657 E588.87669
G1 X69.343 Y99.327 E593.2286
G1 X69.343 Y100.116 E593.2652
G1 X134.884 Y165.657 E597.56535
G1 X134.095 Y165.657 E597.60195
G1 X69.343 Y100.905 E601.85033
G1 X69.343 Y101.694 E601.88693
G1 X133.306 Y165.657 E606.08355
G1 X132.517 Y165.657 E606.12015
G1 X69.343 Y102.483 E610.265
G1 X69.343 Y103.272 E610.3016
G1 X131.728 Y165.657 E614.39468
G1 X130.939 Y165.657 E614.43128
G1 X69.343 Y104.061 E618.4726
G1 X69.343 Y104.851 E618.50925
G1 X130.149 Y165.657 E622.49874
G1 X129.36 Y165.657 E622.53534
M73 P10 R103
G1 X69.343 Y105.64 E626.47306
G1 X69.343 Y106.429 E626.50966
M73 P11 R103
G1 X128.571 Y165.657 E630.39561
G1 X127.782 Y165.657 E630.43221
G1 X69.343 Y107.218 E634.2664
G1 X69.343 Y108.007 E634.303
G1 X126.993 Y165.657 E638.08542
G1 X126.204 Y165.657 E638.12202
G1 X69.343 Y108.796 E641.85267
G1 X69.343 Y109.585 E641.88927
G1 X125.415 Y165.657 E645.56816
G1 X124.626 Y165.657 E645.60476
G1 X69.343 Y110.374 E649.23188
G1 X69.343 Y111.163 E649.26848
G1 X123.837 Y165.657 E652.84383
G1 X123.048 Y165.657 E652.88043
G1 X69.343 Y111.952 E656.40402
G1 X69.343 Y112.741 E656.44062
G1 X122.259 Y165.657 E659.91244
G1 X121.47 Y165.657 E659.94904
G1 X69.343 Y113.53 E663.3691
G1 X69.343 Y114.319 E663.4057
G1 X120.681 Y165.657 E666.77399
G1 X119.892 Y165.657 E666.81059
G1 X69.343 Y115.108 E670.12711
G1 X69.343 Y115.897 E670.16371
G1 X119.103 Y165.657 E673.42847
G1 X118.314 Y165.657 E673.46507
G1 X69.343 Y116.686 E676.67806
G1 X69.343 Y117.475 E676.71466
M73 P11 R102
G1 X117.525 Y165.657 E679.87588
G1 X116.736 Y165.657 E679.91248
G1 X69.343 Y118.264 E683.02194
G1 X69.343 Y119.053 E683.05854
G1 X115.947 Y165.657 E686.11623
G1 X115.157 Y165.657 E686.15288
G1 X69.343 Y119.843 E689.15874
G1 X69.343 Y120.632 E689.19534
M73 P12 R102
G1 X114.368 Y165.657 E692.14943
G1 X113.579 Y165.657 E692.18603
G1 X69.343 Y121.421 E695.08836
G1 X69.343 Y122.21 E695.12496
G1 X112.79 Y165.657 E697.97552
G1 X112.001 Y165.657 E698.01212
G1 X69.343 Y122.999 E700.81091
G1 X69.343 Y123.788 E700.84751
G1 X111.212 Y165.657 E703.59454
G1 X110.423 Y165.657 E703.63114
G1 X69.343 Y124.577 E706.3264
G1 X69.343 Y125.366 E706.363
G1 X109.634 Y165.657 E709.00649
G1 X108.845 Y165.657 E709.04309
G1 X69.343 Y126.155 E711.63482
G1 X69.343 Y126.944 E711.67142
G1 X108.056 Y165.657 E714.21138
G1 X107.267 Y165.657 E714.24798
G1 X69.343 Y127.733 E716.73618
G1 X69.343 Y128.522 E716.77278
G1 X106.478 Y165.657 E719.20921
G1 X105.689 Y165.657 E719.24581
G1 X69.343 Y129.311 E721.63047
G1 X69.343 Y130.1 E721.66707
G1 X104.9 Y165.657 E723.99997
G1 X104.111 Y165.657 E724.03657
G1 X69.343 Y130.889 E726.3177
G1 X69.343 Y131.678 E726.3543
G1 X103.322 Y165.657 E728.58366
G1 X102.533 Y165.657 E728.62026
G1 X69.343 Y132.467 E730.79786
G1 X69.343 Y133.256 E730.83446
M73 P12 R101
G1 X101.744 Y165.657 E732.96029
G1 X100.954 Y165.657 E732.99694
G1 X69.343 Y134.046 E735.07094
G1 X69.343 Y134.835 E735.10754
G1 X100.165 Y165.657 E737.12977
G1 X99.376 Y165.657 E737.16637
G1 X69.343 Y135.624 E739.13684
G1 X69.343 Y136.413 E739.17344
G1 X98.587 Y165.657 E741.09214
