; generated by PrusaSlicer 2.6.0+win64 on 2023-07-03 at 03:02:50 UTC
; Postprocessed by [ArcWelder](https://github.com/FormerLurker/ArcWelderLib)
; Copyright(C) 2021 - Brad Hochgesang
; Version: 1.2.0, Branch: HEAD, BuildDate: 2021-11-21T20:25:43Z
; resolution=0.05mm
; path_tolerance=5.0%
; max_radius=9999.00mm
; default_xyz_precision=3
; default_e_precision=5
; extrusion_rate_variance_percent=5.0%








; 

; external perimeters extrusion width = 0.60mm
; perimeters extrusion width = 0.60mm
; infill extrusion width = 0.60mm
; solid infill extrusion width = 0.60mm
; top infill extrusion width = 0.40mm
; first layer extrusion width = 0.60mm

M73 P0 R18


; Pre-Processed for Cancel-Object support by preprocess_cancellation v0.2.0
; 1 known objects
EXCLUDE_OBJECT_DEFINE NAME=mlt_main_gear_stl_id_0_copy_0 CENTER=117.452,117.567 POLYGON=[[103.171,103.171],[103.171,131.744],[131.829,131.744],[131.829,103.171]]
;TYPE:Custom
G90 ; use absolute coordinates
M83 ; extruder relative mode
M104 S205 ; set temporary nozzle temp to prevent oozing during homing
M140 S65 ; set final bed temp
G4 S30 ; allow partial nozzle warmup
G28 ; home all axis
BED_MESH_CALIBRATE
G1 Z50 F240
G1 X2.0 Y10 F3000
M104 S210 ; set final nozzle temp
M190 S65 ; wait for bed temp to stabilize
M109 S210 ; wait for nozzle temp to stabilize
M73 P1 R17
G1 Z0.28 F240
G92 E0
G1 X2.0 Y140 E10 F1500 ; prime the nozzle
M73 P2 R17
G1 X2.3 Y140 F5000
G92 E0
G1 X2.3 Y10 E10 F1200 ; prime the nozzle
G21 ; set units to millimeters
G90 ; use absolute coordinates
M82 ; use absolute distances for extrusion
G92 E0
; Filament gcode
M107
;LAYER_CHANGE
;Z:0.3
;HEIGHT:0.3
;BEFORE_LAYER_CHANGE
;0.3
M117 Layer 1/40 : PLA - KLIPPER

G1 Z.3 F9000
SET_PRINT_STATS_INFO CURRENT_LAYER=1
;AFTER_LAYER_CHANGE
;0.3
M73 P3 R17
G1 E-2 F2400
G92 E0
G1 X103.311 Y104.545 F9000
G1 E2 F2400
;TYPE:Skirt/Brim
;WIDTH:0.6
G1 F1200
G1 X104.748 Y103.128 E2.13482
G3 X107.335 Y101.195 I12.437 J13.948 E2.35076
G1 X109.094 Y100.223 E2.48502
G1 X110.795 Y99.494 E2.60865
G1 X112.801 Y98.869 E2.74902
G1 X114.39 Y98.538 E2.85745
G1 X116.53 Y98.311 E3.00122
G1 X118.218 Y98.298 E3.11399
G1 X120.451 Y98.514 E3.26386
G3 X123.514 Y99.251 I-2.933 J18.922 E3.47450
G1 X125.475 Y100.019 E3.61519
G1 X127.022 Y100.811 E3.73129
G1 X128.891 Y102.025 E3.88018
G1 X130.252 Y103.128 E3.99721
G1 X131.724 Y104.582 E4.13543
G1 X132.813 Y105.893 E4.24929
G1 X134.096 Y107.813 E4.40356
G1 X134.844 Y109.233 E4.51078
G1 X135.626 Y111.127 E4.64767
G3 X136.437 Y114.253 I-17.501 J6.209 E4.86362
G1 X136.677 Y116.291 E5.00071
G1 X136.703 Y118.129 E5.12351
G1 X136.511 Y120.296 E5.26884
G1 X136.205 Y121.893 E5.37747
G1 X135.632 Y123.856 E5.51408
G3 X134.312 Y126.803 I-17.733 J-6.174 E5.73000
G1 X133.121 Y128.691 E5.87913
G1 X132.053 Y130.044 E5.99428
G1 X130.541 Y131.613 E6.13985
G1 X128.681 Y133.125 E6.29998
G1 X127.322 Y134.016 E6.40854
G1 X125.317 Y135.052 E6.55931
G3 X122.410 Y136.076 I-7.574 J-16.864 E6.76539
G1 X120.14 Y136.534 E6.92009
G1 X118.547 Y136.685 E7.02699
G1 X116.453 Y136.685 E7.16688
G1 X114.602 Y136.494 E7.29119
G1 X112.382 Y136.022 E7.44281
G1 X110.882 Y135.538 E7.54811
G1 X108.978 Y134.72 E7.68655
G1 X107.479 Y133.895 E7.80086
G1 X105.688 Y132.654 E7.94642
G3 X103.365 Y130.514 I11.368 J-14.671 E8.15761
G1 X102.075 Y128.955 E8.29279
G1 X101.187 Y127.656 E8.39791
G1 X100.082 Y125.611 E8.5532
G1 X99.435 Y124.049 E8.66615
M73 P4 R17
G1 X98.807 Y121.941 E8.81309
G1 X98.502 Y120.387 E8.91889
G1 X98.3 Y118.194 E9.06601
G1 X98.309 Y116.517 E9.17804
G1 X98.563 Y114.253 E9.33024
G1 X98.916 Y112.615 E9.44218
G1 X99.592 Y110.538 E9.5881
G3 X101.011 Y107.636 I17.519 J6.768 E9.80411
G1 X102.188 Y105.891 E9.94472
G1 X103.253 Y104.614 E10.05581
G1 X103.662 Y104.953 F9000
G1 F1200
G1 X105.111 Y103.522 E10.19186
G3 X107.611 Y101.655 I12.003 J13.465 E10.40050
G1 X109.515 Y100.612 E10.54553
G1 X110.973 Y99.999 E10.65119
G1 X112.941 Y99.386 E10.78889
G1 X114.47 Y99.068 E10.89322
G1 X116.567 Y98.845 E11.0341
G1 X118.194 Y98.833 E11.1428
G1 X120.309 Y99.035 E11.28474
G3 X123.337 Y99.757 I-2.741 J18.205 E11.49289
G1 X125.261 Y100.51 E11.63092
G1 X126.754 Y101.275 E11.74299
G1 X128.578 Y102.459 E11.88826
G1 X129.889 Y103.522 E12.00101
G1 X131.333 Y104.948 E12.13659
G1 X132.456 Y106.312 E12.25462
G1 X133.633 Y108.083 E12.39668
G1 X134.374 Y109.492 E12.50303
G1 X135.124 Y111.313 E12.6346
G1 X135.63 Y113.008 E12.75277
G1 X136.003 Y114.956 E12.88527
G3 X135.727 Y121.593 I-18.630 J2.550 E13.33126
G1 X135.123 Y123.687 E13.47685
G1 X134.455 Y125.336 E13.59571
G1 X133.518 Y127.106 E13.7295
G3 X131.652 Y129.688 I-15.266 J-9.067 E13.94254
G1 X130.175 Y131.222 E14.0848
G1 X128.36 Y132.697 E14.24104
G1 X127.053 Y133.553 E14.34541
G1 X125.089 Y134.567 E14.49307
G3 X122.284 Y135.555 I-7.363 J-16.428 E14.69191
G1 X120.063 Y136.004 E14.84329
G1 X118.529 Y136.15 E14.94623
G1 X116.471 Y136.15 E15.08372
G1 X114.692 Y135.966 E15.2032
G1 X112.525 Y135.506 E15.35119
G1 X111.075 Y135.039 E15.45296
G1 X109.205 Y134.235 E15.58894
G1 X107.685 Y133.392 E15.70506
G1 X106.009 Y132.225 E15.84149
G3 X103.765 Y130.158 I11.043 J-14.240 E16.04549
G1 X102.498 Y128.627 E16.17825
G1 X101.641 Y127.371 E16.27983
G1 X100.563 Y125.374 E16.43144
G1 X99.94 Y123.872 E16.54007
G1 X99.325 Y121.806 E16.68408
G1 X99.032 Y120.309 E16.78599
G1 X98.835 Y118.167 E16.92969
G1 X98.844 Y116.545 E17.03805
G1 X99.092 Y114.334 E17.18668
G1 X99.432 Y112.756 E17.29452
G1 X100.095 Y110.724 E17.43731
G3 X101.466 Y107.920 I16.905 J6.528 E17.64602
G1 X102.62 Y106.208 E17.78395
G1 X103.605 Y105.023 E17.88689
; printing object mlt_main_gear.stl id:0 copy 0
EXCLUDE_OBJECT_START NAME=mlt_main_gear_stl_id_0_copy_0
G1 E15.88689 F2400
G92 E0
G1 X117.307 Y128.267 F9000
G1 E2 F2400
;TYPE:Perimeter
;WIDTH:0.6
G1 F1200
G3 X121.648 Y127.440 I0.198 J-10.769 E6.22216
M73 P5 R17
G3 X117.397 Y128.264 I-4.132 J-9.937 E6.51341
G1 X117.409 Y128.806 F9000
G1 F1200
G3 X119.005 Y128.708 I0.107 J-11.302 E11.15128
G3 X117.499 Y128.809 I-1.522 J-11.419 E11.25217
G1 X117.391 Y129.341 F9000
;TYPE:External perimeter
G1 F1200
G3 X120.706 Y128.902 I0.119 J-11.840 E15.99849
G1 X119.883 Y129.103 E16.05509
M73 P5 R16
G3 X117.481 Y129.344 I-2.395 J-11.782 E16.21660
G1 X117.092 Y128.821 F9000
G1 E14.2166 F2400
G92 E0
G1 X117.459 Y125.377 F9000
G1 E2 F2400
;TYPE:Perimeter
G1 F1200
G3 X119.682 Y125.072 I0.052 J-7.873 E5.15508
G3 X117.549 Y125.379 I-2.272 J-8.225 E5.29940
G1 X117.476 Y124.843 F9000
G1 F1200
G3 X111.506 Y121.739 I0.014 J-7.319 E5.76617
M73 P6 R16
G3 X117.566 Y124.842 I5.994 J-4.237 E8.37427
G1 X116.594 Y124.238 F9000
;TYPE:External perimeter
G1 F1200
G3 X113.129 Y112.292 I0.895 J-6.735 E9.42422
G3 X116.684 Y124.249 I4.378 J5.205 E11.22475
G1 X116.398 Y124.505 F9000
G1 E9.22475 F2400
G92 E0
G1 X123.238 Y108.579 F9000
G1 E2 F2400
;TYPE:Solid infill
;WIDTH:0.609878
G1 F1200
G3 X125.253 Y110.612 I-35.474 J37.175 E2.19476
G3 X126.788 Y112.900 I-7.489 J6.683 E2.38279
G1 X122.108 Y108.22 E2.8331
G2 X120.782 Y107.665 I-3.949 J7.574 E2.93101
G1 X127.333 Y114.217 E3.56139
G3 X127.625 Y115.280 I-6.910 J2.470 E3.63644
G1 X119.719 Y107.374 E4.39715
G2 X118.787 Y107.213 I-1.716 J7.153 E4.46153
G1 X127.79 Y116.217 E5.32784
G1 X127.854 Y117.052 E5.38482
G1 X125.163 Y114.361 E5.64375
G3 X125.526 Y115.496 I-5.304 J2.322 E5.72492
G1 X127.861 Y117.831 E5.94959
G1 X127.814 Y118.555 E5.99895
G1 X125.707 Y116.448 E6.20168
G3 X125.774 Y117.286 I-4.430 J0.776 E6.25893
G1 X127.719 Y119.232 E6.44612
G1 X127.591 Y119.875 E6.49073
G1 X125.759 Y118.043 E6.667
G3 X125.681 Y118.737 I-3.761 J-0.071 E6.71455
G1 X127.43 Y120.485 E6.88279
G1 X127.238 Y121.065 E6.92436
G1 X125.557 Y119.384 E7.0861
G3 X125.391 Y119.989 I-3.187 J-0.549 E7.12883
G1 X127.016 Y121.614 E7.28519
G1 X126.768 Y122.138 E7.32463
G1 X125.194 Y120.564 E7.47608
G1 X124.957 Y121.098 E7.51583
G1 X126.501 Y122.642 E7.66439
G3 X126.209 Y123.122 I-3.751 J-1.953 E7.70264
G1 X124.685 Y121.598 E7.84928
G1 X124.394 Y122.078 E7.88747
G1 X125.898 Y123.582 E8.03218
G1 X125.559 Y124.015 E8.06959
G1 X124.077 Y122.532 E8.21224
G1 X123.729 Y122.956 E8.24956
G1 X125.206 Y124.433 E8.39168
G1 X124.831 Y124.829 E8.42879
G1 X123.353 Y123.352 E8.57095
G3 X122.948 Y123.718 I-2.010 J-1.817 E8.60813
G1 X124.434 Y125.204 E8.75111
G1 X124.021 Y125.562 E8.7883
G1 X122.53 Y124.071 E8.93176
G1 X122.082 Y124.395 E8.96938
G1 X123.58 Y125.893 E9.11352
G1 X123.124 Y126.208 E9.15123
G1 X121.6 Y124.684 E9.29787
G1 X121.1 Y124.956 E9.3366
G1 X122.644 Y126.5 E9.48516
G1 X122.14 Y126.767 E9.52397
G1 X120.565 Y125.192 E9.67552
G1 X119.992 Y125.39 E9.71677
M73 P7 R16
G1 X121.616 Y127.015 E9.87308
G1 X121.066 Y127.236 E9.91341
G1 X119.387 Y125.557 E10.07496
G3 X118.740 Y125.681 I-1.035 J-3.652 E10.11982
G1 X120.485 Y127.427 E10.28777
G3 X119.876 Y127.589 I-1.494 J-4.392 E10.33067
G1 X118.044 Y125.757 E10.50694
G3 X117.290 Y125.774 I-0.469 J-4.064 E10.55830
G1 X119.234 Y127.719 E10.7454
G3 X118.556 Y127.812 I-1.047 J-5.112 E10.79199
G1 X116.452 Y125.708 E10.99444
G3 X115.500 Y125.527 I0.455 J-4.986 E11.06045
G1 X117.831 Y127.858 E11.28474
G3 X117.058 Y127.856 I-0.373 J-5.290 E11.33737
G1 X113.881 Y124.68 E11.64301
G1 E9.64301 F2400
G92 E0
G1 X121.125 Y110.324 F9000
G1 E2 F2400
G1 F1200
G1 X117.944 Y107.142 E2.30612
G1 X117.165 Y107.135 E2.35912
G1 X119.501 Y109.471 E2.58389
G2 X118.554 Y109.295 I-1.390 J4.844 E2.64950
G1 X116.446 Y107.188 E2.85228
G1 X115.764 Y107.276 E2.89907
G1 X117.719 Y109.231 E3.08718
G2 X116.957 Y109.241 I-0.321 J4.611 E3.13907
G1 X115.123 Y107.407 E3.31554
G1 X114.515 Y107.57 E3.35837
G1 X116.265 Y109.32 E3.52675
G2 X115.616 Y109.443 I0.304 J3.377 E3.57174
G1 X113.94 Y107.766 E3.73305
G2 X113.387 Y107.985 I1.307 J4.107 E3.77354
G1 X115.011 Y109.609 E3.9298
G1 X114.44 Y109.81 E3.97099
G1 X112.861 Y108.23 E4.12297
G1 X112.357 Y108.498 E4.16181
G1 X113.903 Y110.044 E4.31057
G1 X113.402 Y110.315 E4.34932
G1 X111.875 Y108.788 E4.49625
G1 X111.42 Y109.104 E4.53394
G1 X112.921 Y110.606 E4.67841
G1 X112.473 Y110.929 E4.71599
G1 X110.984 Y109.439 E4.85931
G1 X110.567 Y109.794 E4.89657
G1 X112.055 Y111.282 E5.03974
G1 X111.652 Y111.651 E5.07692
G1 X110.17 Y110.168 E5.21957
G1 X109.793 Y110.563 E5.25672
G1 X111.28 Y112.05 E5.3998
G1 X110.925 Y112.466 E5.43701
G1 X109.44 Y110.981 E5.5799
G1 X109.107 Y111.42 E5.61739
G1 X110.608 Y112.921 E5.76182
G2 X110.314 Y113.398 I2.271 J1.729 E5.79999
G1 X108.791 Y111.876 E5.94648
G2 X108.497 Y112.353 I2.470 J1.852 E5.98460
G1 X110.046 Y113.902 E6.13364
G1 X109.808 Y114.435 E6.17336
G1 X108.231 Y112.859 E6.32505
G1 X107.988 Y113.386 E6.36453
G1 X109.609 Y115.008 E6.52055
G2 X109.444 Y115.614 I2.968 J1.134 E6.56332
G1 X107.768 Y113.938 E6.72458
G1 X107.573 Y114.514 E6.76595
G1 X109.32 Y116.261 E6.93405
G1 X109.24 Y116.953 E6.98145
G1 X107.41 Y115.123 E7.15753
G1 X107.281 Y115.765 E7.20208
G1 X109.229 Y117.713 E7.38952
G2 X109.292 Y118.548 I4.124 J0.109 E7.44656
G1 X107.186 Y116.442 E7.6492
G1 X107.139 Y117.166 E7.69856
G1 X109.467 Y119.494 E7.92256
G2 X109.841 Y120.639 I5.672 J-1.219 E8.00458
G1 X107.147 Y117.946 E8.26375
G1 X107.214 Y118.784 E8.32095
G1 X116.22 Y127.79 E9.1875
G1 X115.285 Y127.626 E9.25209
G1 X107.369 Y119.71 E10.01376
G2 X107.666 Y120.779 I8.265 J-1.720 E10.08928
G1 X114.221 Y127.334 E10.72
G3 X112.912 Y126.797 I2.706 J-8.460 E10.81633
G1 X108.216 Y122.101 E11.26818
G2 X109.999 Y124.654 I8.942 J-4.346 E11.48095
G1 X111.761 Y126.417 E11.65054
; stop printing object mlt_main_gear.stl id:0 copy 0
EXCLUDE_OBJECT_END NAME=mlt_main_gear_stl_id_0_copy_0
;LAYER_CHANGE
;Z:0.6
;HEIGHT:0.3
;BEFORE_LAYER_CHANGE
;0.6
M117 Layer 2/40 : PLA - KLIPPER

G1 Z.6 F9000
SET_PRINT_STATS_INFO CURRENT_LAYER=2
;AFTER_LAYER_CHANGE
;0.6
M104 S208 ; set temperature
M140 S60 ; set bed temperature
; printing object mlt_main_gear.stl id:0 copy 0
EXCLUDE_OBJECT_START NAME=mlt_main_gear_stl_id_0_copy_0
G1 E9.65054 F2400
G92 E0
G1 X117.42 Y128.481 F9000
G1 E2 F2400
;TYPE:Perimeter
;WIDTH:0.6
G1 F3000
G3 X107.628 Y112.687 I0.078 J-10.981 E3.47964
M73 P8 R16
G3 X117.509 Y128.479 I9.872 J4.810 E6.60273
G1 X117.402 Y129.017 F9000
G1 F3000
G3 X118.517 Y128.973 I0.104 J-11.517 E11.36192
G1 X117.492 Y129.016 E11.43046
G1 X117.384 Y129.552 F9000
;TYPE:External perimeter
G1 F3000
G3 X120.858 Y129.077 I0.121 J-12.053 E16.25413
G3 X117.474 Y129.553 I-3.331 J-11.411 E16.48316
G1 X117.085 Y129.032 F9000
G1 E14.48316 F2400
G92 E0
G1 X117.5 Y125.066 F9000
G1 E2 F2400
;TYPE:Perimeter
G1 F3000
G3 X115.447 Y124.796 I-0.079 J-7.340 E2.13880
G1 X114.212 Y124.326 E2.22708
G3 X112.515 Y123.196 I3.070 J-6.450 E2.36367
G3 X111.255 Y122.054 I1.436 J-2.851 E2.47836
G1 X110.654 Y121.084 E2.55459
G3 X110.413 Y120.168 I5.329 J-1.892 E2.61792
G3 X111.804 Y112.515 I7.054 J-2.671 E3.16364
G3 X112.926 Y111.271 I3.148 J1.712 E3.27668
G1 X113.897 Y110.664 E3.35318
G3 X114.832 Y110.413 I1.814 J4.890 E3.41792
G3 X122.430 Y111.756 I2.676 J7.026 E3.95888
G2 X123.137 Y112.234 I3.758 J-4.797 E4.01593
G3 X124.441 Y114.175 I-4.655 J4.536 E4.17306
G2 X124.705 Y115.146 I2.647 J-0.198 E4.24059
G1 X124.913 Y115.922 E4.29426
G1 X125.07 Y117.193 E4.37981
G3 X124.792 Y119.568 I-7.417 J0.336 E4.54018
G1 X124.326 Y120.788 E4.62743
G3 X123.196 Y122.485 I-5.971 J-2.751 E4.76408
G3 X122.054 Y123.745 I-2.884 J-1.466 E4.87876
G1 X121.056 Y124.359 E4.95704
G3 X120.168 Y124.587 I-2.001 J-5.951 E5.01833
G3 X119.078 Y124.913 I-2.587 J-6.664 E5.09440
G1 X117.807 Y125.07 E5.17995
G1 X117.59 Y125.067 E5.19445
G1 X116.561 Y124.473 F9000
G1 F3000
G3 X115.571 Y124.275 I0.587 J-5.510 E5.26194
G1 X114.306 Y123.779 E5.35271
G3 X112.863 Y122.790 I2.693 J-5.476 E5.46991
G1 X112.193 Y122.343 E5.52372
G3 X111.088 Y120.729 I5.411 J-4.890 E5.65485
G2 X110.799 Y119.673 I-2.934 J0.235 E5.72832
G3 X112.210 Y112.863 I6.786 J-2.145 E6.21401
G1 X112.681 Y112.166 E6.27021
G3 X114.234 Y111.100 I5.363 J6.148 E6.39639
G2 X115.327 Y110.799 I-0.291 J-3.193 E6.47243
G3 X122.137 Y112.210 I2.162 J6.705 E6.95830
G1 X122.868 Y112.715 E7.01765
G3 X123.937 Y114.380 I-4.421 J4.014 E7.15059
G2 X124.202 Y115.331 I2.482 J-0.179 E7.21687
G1 X124.395 Y116.056 E7.26699
G3 X124.525 Y118.017 I-7.220 J1.463 E7.39857
G3 X122.650 Y122.300 I-7.172 J-0.588 E7.71671
G3 X121.994 Y123.105 I-1.589 J-0.625 E7.78692
G3 X120.620 Y123.937 I-3.488 J-4.210 E7.89478
G2 X119.673 Y124.201 I0.176 J2.461 E7.96079
G1 X118.944 Y124.395 E8.01119
G3 X116.983 Y124.525 I-1.463 J-7.220 E8.14277
G1 X116.651 Y124.484 E8.16512
G1 X116.626 Y123.942 F9000
;TYPE:External perimeter
G1 F3000
G3 X113.010 Y122.210 I0.991 J-6.710 E8.43721
G1 X112.568 Y121.957 E8.47123
G3 X111.592 Y120.535 I3.796 J-3.651 E8.58683
G2 X111.301 Y119.485 I-2.710 J0.186 E8.65999
G3 X112.790 Y113.010 I6.225 J-1.977 E9.12533
G1 X113.04 Y112.571 E9.15908
G3 X114.465 Y111.592 I4.404 J4.884 E9.27497
G2 X115.515 Y111.301 I-0.186 J-2.710 E9.34813
G1 X116.191 Y111.123 E9.39483
G3 X119.319 Y111.250 I1.305 J6.453 E9.60587
G3 X120.420 Y111.681 I-44.609 J115.577 E9.68486
G3 X121.990 Y112.790 I-2.850 J5.700 E9.81370
G1 X122.452 Y113.058 E9.84938
G3 X123.408 Y114.465 I-3.328 J3.290 E9.96343
G2 X123.700 Y115.517 I2.711 J-0.186 E10.03674
G3 X122.210 Y121.990 I-6.284 J1.962 E10.50184
G1 X121.957 Y122.433 E10.53592
G3 X120.535 Y123.408 I-3.667 J-3.824 E10.65148
G2 X119.485 Y123.699 I0.186 J2.710 E10.72464
G3 X116.715 Y123.954 I-1.971 J-6.237 E10.91182
G1 X116.514 Y124.096 F9000
G1 E8.91182 F2400
G92 E0
G1 X111.053 Y108.879 F9000
G1 E2 F2400
;TYPE:Solid infill
;WIDTH:0.574381
G1 F3000
G2 X108.829 Y111.112 I13.743 J15.912 E2.20063
G1 X108.284 Y112.319 F9000
G1 F3000
G3 X108.301 Y112.257 I-0.044 J-0.046 E2.22090
;WIDTH:0.6
G1 X108.532 Y111.895 E2.24959
G1 X111.9 Y108.527 E2.56779
G1 X112.324 Y108.283 E2.60047
;WIDTH:0.574381
G3 X112.340 Y108.221 I-0.046 J-0.045 E2.62074
G1 X113.886 Y107.473 F9000
G1 F3000
G2 X113.870 Y107.535 I-0.061 J0.017 E2.64097
;WIDTH:0.6
G1 X113.449 Y107.736 E2.67214
G1 X107.719 Y113.466 E3.21349
G1 X107.534 Y113.828 E3.24065
;WIDTH:0.574381
G2 X107.518 Y113.890 I-0.061 J0.017 E3.26096
;WIDTH:0.6
G1 X107.331 Y114.611 E3.31072
G1 X114.62 Y107.322 E3.99936
G1 X115.605 Y107.094 E4.0669
G1 X107.108 Y115.591 E4.86967
G1 X106.861 Y116.85 F9000
