; generated by PrusaSlicer 2.6.0+win64 on 2023-07-02 at 23:35:59 UTC
; Postprocessed by [ArcWelder](https://github.com/FormerLurker/ArcWelderLib)
; Copyright(C) 2021 - Brad Hochgesang
; Version: 1.2.0, Branch: HEAD, BuildDate: 2021-11-21T20:25:43Z
; resolution=0.05mm
; path_tolerance=5.0%
; max_radius=9999.00mm
; default_xyz_precision=3
; default_e_precision=5
; extrusion_rate_variance_percent=5.0%








; 

; external perimeters extrusion width = 0.40mm
; perimeters extrusion width = 0.40mm
; infill extrusion width = 0.40mm
; solid infill extrusion width = 0.40mm
; top infill extrusion width = 0.40mm
; first layer extrusion width = 0.40mm

M73 P0 R51


; Pre-Processed for Cancel-Object support by preprocess_cancellation v0.2.0
; 1 known objects
EXCLUDE_OBJECT_DEFINE NAME=mlt_main_gear_stl_id_0_copy_0 CENTER=117.493,117.510 POLYGON=[[102.803,102.803],[102.803,132.197],[132.197,132.197],[132.197,102.803]]
;TYPE:Custom
G90 ; use absolute coordinates
M83 ; extruder relative mode
M104 S205 ; set temporary nozzle temp to prevent oozing during homing
M140 S65 ; set final bed temp
G4 S30 ; allow partial nozzle warmup
G28 ; home all axis
BED_MESH_CALIBRATE
G1 Z50 F240
G1 X2.0 Y10 F3000
M104 S210 ; set final nozzle temp
M190 S65 ; wait for bed temp to stabilize
M109 S210 ; wait for nozzle temp to stabilize
G1 Z0.28 F240
G92 E0
G1 X2.0 Y140 E10 F1500 ; prime the nozzle
M73 P0 R50
G1 X2.3 Y140 F5000
G92 E0
G1 X2.3 Y10 E10 F1200 ; prime the nozzle
G21 ; set units to millimeters
G90 ; use absolute coordinates
M82 ; use absolute distances for extrusion
G92 E0
; Filament gcode
M107
;LAYER_CHANGE
;Z:0.2
;HEIGHT:0.2
;BEFORE_LAYER_CHANGE
;0.2
M117 Layer 1/60 : PLA - KLIPPER

G1 Z.2 F9000
SET_PRINT_STATS_INFO CURRENT_LAYER=1
;AFTER_LAYER_CHANGE
;0.2
M73 P1 R50
G1 E-2 F3300
G92 E0
G1 X103.449 Y104.737 F9000
G1 E2 F3300
;TYPE:Skirt/Brim
;WIDTH:0.4
G1 F1200
G1 X104.925 Y103.281 E2.06156
G3 X107.429 Y101.410 I12.321 J13.878 E2.15445
G1 X109.205 Y100.427 E2.21472
G1 X110.854 Y99.72 E2.26799
G1 X112.867 Y99.092 E2.3306
G1 X114.415 Y98.769 E2.37755
G1 X116.575 Y98.541 E2.44204
G1 X118.2 Y98.529 E2.49029
G1 X120.389 Y98.74 E2.55559
G3 X123.421 Y99.465 I-2.787 J18.356 E2.64824
G1 X125.388 Y100.234 E2.71095
G1 X126.974 Y101.052 E2.76393
G1 X128.761 Y102.217 E2.82727
G1 X130.075 Y103.281 E2.87747
G1 X131.562 Y104.748 E2.93949
G1 X132.705 Y106.138 E2.99292
G1 X133.904 Y107.946 E3.05733
G1 X134.632 Y109.327 E3.10368
G1 X135.419 Y111.238 E3.16504
G3 X136.204 Y114.264 I-17.399 J6.128 E3.25795
G1 X136.446 Y116.322 E3.31948
G1 X136.473 Y118.078 E3.37162
G1 X136.302 Y120.104 E3.43199
G1 X135.98 Y121.835 E3.48427
G1 X135.4 Y123.815 E3.54553
G3 X134.121 Y126.668 I-17.454 J-6.112 E3.63845
G1 X132.933 Y128.556 E3.70468
G1 X131.907 Y129.858 E3.7539
G1 X130.381 Y131.445 E3.81927
G1 X128.537 Y132.943 E3.88981
G1 X127.204 Y133.816 E3.93712
G1 X125.211 Y134.845 E4.00372
G3 X122.349 Y135.852 I-7.485 J-16.701 E4.09388
G1 X120.111 Y136.304 E4.16167
G1 X118.546 Y136.453 E4.20835
G1 X116.454 Y136.453 E4.27046
G1 X114.667 Y136.269 E4.3238
G1 X112.448 Y135.799 E4.39115
G1 X110.981 Y135.328 E4.4369
G1 X109.07 Y134.507 E4.49865
G1 X107.553 Y133.667 E4.55014
G1 X105.821 Y132.464 E4.61275
G3 X103.555 Y130.378 I11.311 J-14.561 E4.70428
G1 X102.253 Y128.806 E4.76489
G1 X101.389 Y127.541 E4.81037
G1 X100.287 Y125.501 E4.87921
G1 X99.655 Y123.976 E4.92822
G1 X99.03 Y121.875 E4.9933
G1 X98.731 Y120.347 E5.03953
G1 X98.53 Y118.138 E5.10539
G1 X98.548 Y116.418 E5.15646
G1 X98.796 Y114.264 E5.22084
G1 X99.138 Y112.683 E5.26887
G1 X99.823 Y110.586 E5.33437
G3 X101.197 Y107.778 I17.408 J6.778 E5.42727
G1 X102.378 Y106.025 E5.49003
G1 X103.392 Y104.806 E5.53711
G1 X103.666 Y105.034 F9000
G1 F1200
G1 X105.167 Y103.544 E5.59991
G3 X107.613 Y101.716 I12.054 J13.578 E5.69066
G1 X109.368 Y100.745 E5.75021
G1 X110.972 Y100.057 E5.80203
G1 X112.96 Y99.436 E5.86387
G1 X114.469 Y99.122 E5.90963
G1 X116.599 Y98.897 E5.97322
G1 X118.184 Y98.886 E6.02028
G1 X120.341 Y99.094 E6.08462
G3 X123.303 Y99.802 I-2.781 J18.183 E6.17512
G1 X125.245 Y100.561 E6.23703
G1 X126.79 Y101.358 E6.28865
G1 X128.552 Y102.507 E6.35111
G1 X129.833 Y103.544 E6.40005
G1 X131.301 Y104.992 E6.46127
G1 X132.415 Y106.347 E6.51335
G1 X133.596 Y108.126 E6.57675
G1 X134.306 Y109.474 E6.62199
G1 X135.084 Y111.362 E6.68262
G3 X135.851 Y114.318 I-16.995 J5.987 E6.77338
G1 X136.09 Y116.351 E6.83416
G1 X136.116 Y118.063 E6.885
G1 X135.948 Y120.062 E6.94456
G1 X135.634 Y121.746 E6.99542
G1 X135.061 Y123.703 E7.05597
G3 X133.812 Y126.489 I-17.015 J-5.955 E7.14670
G1 X132.622 Y128.376 E7.21294
G1 X131.64 Y129.621 E7.26002
G1 X130.137 Y131.184 E7.3244
G1 X128.323 Y132.657 E7.39378
G1 X127.024 Y133.508 E7.43989
G1 X125.059 Y134.522 E7.50554
G3 X122.268 Y135.504 I-7.333 J-16.384 E7.59346
G1 X120.059 Y135.95 E7.66037
G1 X118.534 Y136.096 E7.70586
G1 X116.466 Y136.096 E7.76726
G1 X114.727 Y135.917 E7.81917
G1 X112.543 Y135.455 E7.88545
G1 X111.11 Y134.995 E7.93014
G1 X109.222 Y134.184 E7.99115
G1 X107.743 Y133.365 E8.04135
G1 X106.035 Y132.178 E8.10311
G3 X103.822 Y130.141 I11.143 J-14.327 E8.19249
G1 X102.535 Y128.587 E8.2524
G1 X101.691 Y127.351 E8.29684
G1 X100.608 Y125.344 E8.36455
G1 X99.992 Y123.858 E8.41231
G1 X99.375 Y121.786 E8.4765
G1 X99.084 Y120.295 E8.5216
G1 X98.886 Y118.12 E8.58645
G1 X98.897 Y116.557 E8.63286
G1 X99.149 Y114.318 E8.69976
G3 X99.916 Y111.362 I17.706 J3.017 E8.79052
G1 X100.677 Y109.509 E8.85
G1 X101.5 Y107.967 E8.9019
G1 X102.666 Y106.236 E8.96387
G1 X103.608 Y105.103 E9.00762
; printing object mlt_main_gear.stl id:0 copy 0
EXCLUDE_OBJECT_START NAME=mlt_main_gear_stl_id_0_copy_0
G1 E7.60762 F3300
;WIPE_START
G1 F7200
G1 X104.582 Y104.129 E7.00762
;WIPE_END
G92 E0
G1 X117.222 Y128.389 F9000
G1 E2 F3300
;TYPE:Perimeter
;WIDTH:0.399999
G1 F1200
G3 X117.133 Y106.608 I0.276 J-10.892 E2.99717
G1 X118.676 Y106.668 E3.04302
G3 X117.312 Y128.392 I-1.174 J10.831 E4.02981
G1 X117.21 Y128.746 F9000
G1 F1200
G3 X121.256 Y128.110 I0.305 J-11.245 E6.00659
G3 X117.300 Y128.749 I-3.721 J-10.469 E6.12620
G1 X117.198 Y129.103 F9000
G1 F1200
G3 X121.375 Y128.447 I0.318 J-11.601 E8.16546
G3 X118.336 Y129.082 I-3.873 J-10.944 E8.25790
M73 P2 R50
G1 X117.288 Y129.106 E8.28902
G1 X117.186 Y129.459 F9000
;TYPE:External perimeter
G1 F1200
G3 X123.017 Y128.122 I0.326 J-11.960 E10.34169
G3 X117.276 Y129.462 I-5.482 J-10.519 E10.51854
G1 X116.945 Y129.037 F9000
G1 E9.11854 F3300
;WIPE_START
G1 F7200
G1 X116.7 Y129.443 E8.8676
G3 X115.903 Y129.359 I0.193 J-5.651 E8.51854
;WIPE_END
G92 E0
G1 X117.459 Y125.267 F9000
G1 E2 F3300
;TYPE:Perimeter
G1 F1200
G3 X112.606 Y123.512 I0.033 J-7.679 E2.15628
G3 X123.422 Y122.513 I4.898 J-6.021 E3.24707
G3 X117.549 Y125.270 I-5.934 J-5.006 E3.44580
G1 X117.47 Y124.911 F9000
G1 F1200
G3 X112.821 Y123.227 I0.027 J-7.333 E3.59555
G3 X123.137 Y122.299 I4.684 J-5.736 E4.63646
G3 X117.560 Y124.912 I-5.650 J-4.801 E4.82504
G1 X117.483 Y124.555 F9000
G1 F1200
G3 X113.853 Y123.538 I0.006 J-7.008 E4.93833
G1 X112.768 Y122.735 E4.97841
G3 X117.573 Y124.554 I4.728 J-5.233 E6.13790
G1 X117.496 Y124.2 F9000
;TYPE:External perimeter
G1 F1200
G3 X123.943 Y119.338 I0.009 J-6.694 E7.12979
G3 X117.586 Y124.196 I-6.461 J-1.866 E7.38423
G1 X117.247 Y124.634 F9000
G1 E5.98423 F3300
;WIPE_START
G1 F7200
G1 X116.996 Y124.178 E5.72721
G3 X116.216 Y124.073 I0.107 J-3.747 E5.38423
;WIPE_END
G92 E0
G1 X123.719 Y108.688 F9000
G1 E2 F3300
;TYPE:Solid infill
;WIDTH:0.403148
G1 F1200
G1 X125.447 Y110.439 E2.07369
G1 X125.902 Y110.988 E2.09505
M73 P2 R49
G3 X126.704 Y112.183 I-8.315 J6.447 E2.13818
G1 X122.829 Y108.308 E2.30233
G2 X121.792 Y107.781 I-3.739 J6.074 E2.33719
G1 X127.213 Y113.202 E2.56682
G3 X127.551 Y114.049 I-5.299 J2.606 E2.59415
G1 X120.957 Y107.455 E2.87347
G2 X120.222 Y107.230 I-2.067 J5.438 E2.89650
G1 X127.776 Y114.784 E3.21649
G1 X127.926 Y115.442 E3.2367
G1 X119.56 Y107.077 E3.59106
G1 X118.949 Y106.976 E3.60961
G1 X128.025 Y116.051 E3.99405
G1 X128.088 Y116.624 E4.01132
G1 X118.381 Y106.917 E4.42251
G1 X117.848 Y106.893 E4.43849
G1 X121.478 Y110.523 E4.59226
G3 X124.466 Y113.511 I-3.845 J6.833 E4.72041
G1 X128.12 Y117.165 E4.87519
G1 X128.128 Y117.682 E4.89068
G1 X124.961 Y114.516 E5.02481
G1 X125.23 Y115.294 E5.04947
G1 X128.101 Y118.165 E5.17109
G1 X128.064 Y118.638 E5.1853
G1 X125.388 Y115.962 E5.29866
G1 X125.477 Y116.56 E5.31677
G1 X128.009 Y119.092 E5.42403
G1 X127.93 Y119.523 E5.43715
G1 X125.522 Y117.114 E5.53917
G1 X125.532 Y117.634 E5.55475
G1 X127.841 Y119.943 E5.65256
G1 X127.735 Y120.346 E5.66504
G1 X125.51 Y118.122 E5.75927
G1 X125.458 Y118.578 E5.77302
G1 X127.619 Y120.74 E5.86458
G1 X127.492 Y121.122 E5.87664
G1 X125.392 Y119.022 E5.9656
G1 X125.295 Y119.435 E5.97831
G1 X127.348 Y121.488 E6.06528
G1 X127.197 Y121.847 E6.07695
G1 X125.185 Y119.834 E6.1622
G1 X125.055 Y120.214 E6.17423
G1 X127.03 Y122.189 E6.25789
G1 X126.863 Y122.531 E6.26929
G1 X124.918 Y120.586 E6.35168
G1 X124.761 Y120.939 E6.36325
G1 X126.677 Y122.854 E6.44439
G1 X126.487 Y123.173 E6.45551
G1 X124.588 Y121.275 E6.53593
G1 X124.405 Y121.601 E6.54713
G1 X126.283 Y123.479 E6.62668
G1 X126.071 Y123.777 E6.63763
G1 X124.206 Y121.912 E6.71663
G1 X123.988 Y122.204 E6.72754
G1 X125.85 Y124.066 E6.80641
G1 X125.625 Y124.35 E6.81726
G1 X123.77 Y122.495 E6.89584
G1 X123.551 Y122.785 E6.90673
G1 X125.384 Y124.618 E6.98438
G1 X125.143 Y124.886 E6.99518
G1 X123.302 Y123.046 E7.07314
G1 X123.054 Y123.307 E7.08392
G1 X124.885 Y125.138 E7.16148
G1 X124.624 Y125.386 E7.17226
G1 X122.78 Y123.543 E7.25035
G1 X122.504 Y123.776 E7.26117
G1 X124.35 Y125.622 E7.33937
G1 X124.071 Y125.852 E7.3502
G1 X122.221 Y124.002 E7.42857
G1 X121.919 Y124.21 E7.43955
G1 X123.779 Y126.07 E7.51834
G1 X123.483 Y126.283 E7.52926
G1 X121.603 Y124.403 E7.6089
G1 X121.277 Y124.587 E7.62011
G1 X123.174 Y126.483 E7.70045
G1 X122.858 Y126.677 E7.71156
G1 X120.941 Y124.76 E7.79276
G1 X120.587 Y124.916 E7.80435
G1 X122.531 Y126.859 E7.88668
G3 X122.193 Y127.030 I-1.357 J-2.262 E7.89803
G1 X120.22 Y125.058 E7.98159
G1 X119.838 Y125.185 E7.99365
G1 X121.847 Y127.195 E8.07877
G1 X121.491 Y127.347 E8.09036
G1 X119.438 Y125.295 E8.1773
G1 X119.025 Y125.391 E8.19
G1 X121.124 Y127.491 E8.27893
G3 X120.742 Y127.617 I-1.136 J-2.801 E8.29099
G1 X118.582 Y125.458 E8.38247
G1 X118.124 Y125.509 E8.39627
G1 X120.354 Y127.739 E8.49073
G1 X119.944 Y127.839 E8.50337
G1 X117.638 Y125.532 E8.60107
G1 X117.118 Y125.522 E8.61665
G1 X119.528 Y127.932 E8.71874
G1 X119.092 Y128.006 E8.73199
G1 X116.564 Y125.478 E8.83908
G1 X115.964 Y125.387 E8.85726
G1 X118.641 Y128.063 E8.97064
G1 X118.173 Y128.105 E8.98471
G1 X115.299 Y125.231 E9.10645
G1 X114.524 Y124.965 E9.13099
G1 X117.837 Y128.278 E9.27133
G1 E7.87133 F3300
;WIPE_START
G1 F7200
G1 X116.863 Y127.304 E7.27133
;WIPE_END
G92 E0
G1 X117.161 Y106.715 F9000
G1 E2 F3300
G1 F1200
G1 X120.484 Y110.039 E2.14078
G1 X119.705 Y109.77 E2.16547
G1 X116.833 Y106.897 E2.28715
G1 X116.36 Y106.934 E2.30136
G1 X119.037 Y109.611 E2.41476
G1 X118.445 Y109.528 E2.43267
G1 X115.911 Y106.995 E2.53999
G1 X115.477 Y107.07 E2.55318
G1 X117.887 Y109.48 E2.65527
G1 X117.363 Y109.465 E2.67097
G1 X115.055 Y107.156 E2.76876
G1 X114.653 Y107.264 E2.78123
G1 X116.879 Y109.491 E2.87554
G1 X116.422 Y109.542 E2.88931
G1 X114.259 Y107.38 E2.98091
G1 X113.882 Y107.512 E2.99287
G1 X115.977 Y109.607 E3.08161
G1 X115.564 Y109.704 E3.09432
G1 X113.511 Y107.65 E3.18131
G1 X113.155 Y107.804 E3.19293
G1 X115.167 Y109.816 E3.27816
G1 X114.788 Y109.947 E3.29017
G1 X112.808 Y107.967 E3.37404
G1 X112.471 Y108.139 E3.38537
G1 X114.413 Y110.081 E3.46763
G1 X114.062 Y110.24 E3.47917
G1 X112.146 Y108.323 E3.56035
G1 X111.827 Y108.514 E3.57149
G1 X113.725 Y110.411 E3.65187
M73 P3 R49
G1 X113.4 Y110.597 E3.66309
G1 X111.521 Y108.717 E3.74271
G1 X111.221 Y108.926 E3.75366
G1 X113.084 Y110.79 E3.8326
G1 X112.786 Y111.002 E3.84355
G1 X110.933 Y109.148 E3.92206
G1 X110.65 Y109.375 E3.93293
G1 X112.493 Y111.218 E4.011
G1 X112.227 Y111.461 E4.02179
G1 X110.381 Y109.615 E4.09999
G1 X110.116 Y109.859 E4.11078
G1 X111.96 Y111.704 E4.18891
G1 X111.694 Y111.947 E4.1997
G1 X109.862 Y110.114 E4.27732
G1 X109.614 Y110.376 E4.28813
G1 X111.456 Y112.219 E4.36618
G1 X111.223 Y112.495 E4.377
G1 X109.378 Y110.65 E4.45515
G1 X109.147 Y110.929 E4.466
G1 X110.998 Y112.78 E4.54441
G1 X110.791 Y113.082 E4.55538
G1 X108.931 Y111.221 E4.63419
G1 X108.717 Y111.517 E4.64513
G1 X110.595 Y113.395 E4.72468
G1 X110.412 Y113.721 E4.73588
G1 X108.517 Y111.827 E4.81613
G1 X108.322 Y112.141 E4.8272
G1 X110.242 Y114.061 E4.90853
G1 X110.086 Y114.414 E4.92009
G1 X108.141 Y112.47 E5.00246
G1 X107.968 Y112.806 E5.01378
G1 X109.941 Y114.779 E5.09736
G1 X109.813 Y115.161 E5.10943
G1 X107.808 Y113.155 E5.19438
G1 X107.65 Y113.507 E5.20594
G1 X109.706 Y115.563 E5.29303
G1 X109.609 Y115.975 E5.30571
G1 X107.513 Y113.88 E5.39448
G2 X107.380 Y114.255 I2.896 J1.238 E5.40640
G1 X109.543 Y116.419 E5.49805
G1 X109.489 Y116.874 E5.51177
G1 X107.264 Y114.649 E5.60602
G1 X107.16 Y115.055 E5.61857
G1 X109.466 Y117.36 E5.71623
G1 X109.479 Y117.883 E5.7319
G1 X107.067 Y115.471 E5.83407
G1 X106.997 Y115.91 E5.84739
G1 X109.522 Y118.436 E5.95437
G1 X109.61 Y119.033 E5.97245
G1 X106.934 Y116.357 E6.08581
G1 X106.895 Y116.827 E6.09994
G1 X109.772 Y119.704 E6.22181
G1 X110.035 Y120.477 E6.24627
G1 X106.877 Y117.319 E6.38004
G1 X106.881 Y117.832 E6.39541
G1 X110.527 Y121.478 E6.54985
G2 X112.155 Y123.504 I6.579 J-3.620 E6.62806
G1 X113.231 Y124.311 E6.66835
G1 X113.528 Y124.48 E6.67859
G1 X117.168 Y128.119 E6.83276
G1 X116.63 Y128.09 E6.8489
G1 X106.91 Y118.371 E7.26062
G1 X106.973 Y118.943 E7.27786
G1 X116.058 Y128.028 E7.6627
G1 X115.447 Y127.927 E7.68125
G1 X107.076 Y119.556 E8.03585
G1 X107.232 Y120.221 E8.05631
G1 X114.78 Y127.768 E8.37602
G1 X114.054 Y127.553 E8.3987
G1 X107.45 Y120.949 E8.67845
G1 X107.771 Y121.778 E8.70508
G1 X113.219 Y127.227 E8.93588
G3 X112.184 Y126.701 I3.516 J-8.201 E8.97067
G1 X108.303 Y122.821 E9.13505
G2 X109.829 Y124.856 I8.914 J-5.095 E9.21144
G1 X111.314 Y126.341 E9.27434
; stop printing object mlt_main_gear.stl id:0 copy 0
EXCLUDE_OBJECT_END NAME=mlt_main_gear_stl_id_0_copy_0
;LAYER_CHANGE
;Z:0.4
;HEIGHT:0.2
;BEFORE_LAYER_CHANGE
;0.4
M117 Layer 2/60 : PLA - KLIPPER

G1 Z.4 F9000
SET_PRINT_STATS_INFO CURRENT_LAYER=2
;AFTER_LAYER_CHANGE
;0.4
M104 S208 ; set temperature
M140 S60 ; set bed temperature
; printing object mlt_main_gear.stl id:0 copy 0
EXCLUDE_OBJECT_START NAME=mlt_main_gear_stl_id_0_copy_0
G1 E7.27434 F3300
G92 E0
G1 X117.213 Y128.629 F9000
G1 E2 F3300
;TYPE:Perimeter
;WIDTH:0.399999
G1 F3000
G3 X120.563 Y128.208 I0.303 J-11.128 E3.97662
G3 X117.303 Y128.632 I-3.019 J-10.467 E4.07458
G1 X117.201 Y128.986 F9000
G1 F3000
G3 X121.391 Y128.316 I0.312 J-11.488 E6.09172
G3 X117.291 Y128.989 I-3.849 J-10.624 E6.21576
G1 X117.189 Y129.343 F9000
G1 F3000
G3 X121.511 Y128.653 I0.325 J-11.842 E8.29557
G3 X117.279 Y129.346 I-3.969 J-10.972 E8.42360
G1 X117.177 Y129.7 F9000
;TYPE:External perimeter
G1 F3000
G3 X120.855 Y129.239 I0.339 J-12.197 E10.59036
G3 X117.267 Y129.703 I-3.309 J-11.482 E10.69817
G1 X116.946 Y129.285 F9000
G1 E9.29817 F3300
;WIPE_START
G1 F7200
G1 X116.702 Y129.684 E9.05202
G3 X115.895 Y129.595 I0.311 J-6.520 E8.69817
;WIPE_END
G92 E0
G1 X122.059 Y123.404 F9000
G1 E2 F3300
;TYPE:Perimeter
G1 F3000
G3 X124.437 Y114.733 I-4.555 J-5.911 E3.10581
G1 X124.821 Y116.013 E3.14549
G3 X122.131 Y123.351 I-7.417 J1.443 E3.38959
G1 X121.846 Y123.117 F9000
G1 F3000
G3 X110.423 Y118.214 I-4.349 J-5.627 E3.83871
G1 X110.408 Y116.981 E3.87532
G3 X124.111 Y114.878 I7.094 J0.525 E4.44320
G1 X124.473 Y116.094 E4.48087
G3 X121.919 Y123.064 I-7.059 J1.366 E4.71264
G1 X121.634 Y122.83 F9000
G1 F3000
G3 X118.344 Y124.197 I-4.082 J-5.182 E4.81971
G1 X116.961 Y124.234 E4.86079
G3 X111.723 Y114.003 I0.545 J-6.735 E5.26870
G1 X112.43 Y113.035 E5.30429
G3 X123.785 Y115.023 I5.069 J4.469 E5.71405
G1 X124.132 Y116.211 E5.7508
G1 X124.208 Y116.726 E5.76626
G1 X124.23 Y118.095 E5.80691
G3 X121.706 Y122.777 I-6.677 J-0.578 E5.96920
G1 X121.421 Y122.543 F9000
;TYPE:External perimeter
G1 F3000
