; generated by PrusaSlicer 2.6.0+win64 on 2023-07-01 at 18:59:13 UTC
; Postprocessed by [ArcWelder](https://github.com/FormerLurker/ArcWelderLib)
; Copyright(C) 2021 - Brad Hochgesang
; Version: 1.2.0, Branch: HEAD, BuildDate: 2021-11-21T20:25:43Z
; resolution=0.05mm
; path_tolerance=5.0%
; max_radius=9999.00mm
; default_xyz_precision=3
; default_e_precision=5
; extrusion_rate_variance_percent=5.0%








; 

; external perimeters extrusion width = 0.40mm
; perimeters extrusion width = 0.40mm
; infill extrusion width = 0.40mm
; solid infill extrusion width = 0.40mm
; top infill extrusion width = 0.38mm
; first layer extrusion width = 0.40mm

M73 P0 R85


; Pre-Processed for Cancel-Object support by preprocess_cancellation v0.2.0
; 1 known objects
EXCLUDE_OBJECT_DEFINE NAME=MP40_Stand_stl_id_0_copy_0 CENTER=118.593,117.521 POLYGON=[[91.071,95.263],[91.071,139.723],[144.727,139.723],[144.727,95.263]]
;TYPE:Custom
G90 ; use absolute coordinates
M83 ; extruder relative mode
M104 S205 ; set temporary nozzle temp to prevent oozing during homing
M140 S65 ; set final bed temp
G4 S30 ; allow partial nozzle warmup
G28 ; home all axis
BED_MESH_CALIBRATE
G1 Z50 F240
G1 X2.0 Y10 F3000
M104 S210 ; set final nozzle temp
M190 S65 ; wait for bed temp to stabilize
M109 S210 ; wait for nozzle temp to stabilize
M73 P0 R84
G1 Z0.28 F240
G92 E0
G1 X2.0 Y140 E10 F1500 ; prime the nozzle
G1 X2.3 Y140 F5000
G92 E0
G1 X2.3 Y10 E10 F1200 ; prime the nozzle
G21 ; set units to millimeters
G90 ; use absolute coordinates
M82 ; use absolute distances for extrusion
G92 E0
; Filament gcode
M107
;LAYER_CHANGE
;Z:0.2
;HEIGHT:0.2
;BEFORE_LAYER_CHANGE
;0.2
M117 Layer 1/75 : PLA - KLIPPER

G1 Z.2 F9000
SET_PRINT_STATS_INFO CURRENT_LAYER=1
;AFTER_LAYER_CHANGE
;0.2
G1 E-1.5 F3300
G92 E0
G1 X92.583 Y97.466 F9000
G1 E1.5 F3300
;TYPE:Skirt/Brim
;WIDTH:0.4
G1 F1200
G1 X94.607 Y95.771 E1.57839
G1 X97.213 Y93.966 E1.67251
G1 X99.577 Y92.606 E1.75349
G1 X102.535 Y91.224 E1.85043
G1 X105.379 Y90.181 E1.94037
G1 X108.464 Y89.328 E2.0354
G1 X111.056 Y88.819 E2.11383
G1 X114.848 Y88.384 E2.22716
G1 X118.569 Y88.313 E2.33766
G1 X121.823 Y88.529 E2.43449
G1 X125.157 Y89.034 E2.53461
G3 X131.818 Y90.964 I-7.437 J38.127 E2.74077
G1 X134.957 Y92.366 E2.84284
G1 X137.631 Y93.864 E2.93384
G1 X140.358 Y95.744 E3.03218
G1 X142.522 Y97.56 E3.11606
G1 X144.652 Y99.705 E3.20581
G1 X146.497 Y101.984 E3.29287
G1 X148.175 Y104.55 E3.3839
G1 X149.54 Y107.267 E3.47418
G1 X150.617 Y110.182 E3.56645
G1 X151.248 Y112.747 E3.64488
G1 X151.635 Y115.688 E3.73295
G3 X151.655 Y119.001 I-25.093 J1.808 E3.83137
G1 X151.304 Y121.945 E3.9194
G1 X150.705 Y124.513 E3.99769
G1 X149.485 Y127.868 E4.10369
G1 X148.34 Y130.156 E4.17966
G1 X146.433 Y133.106 E4.28396
G1 X144.853 Y135.064 E4.35866
G1 X142.466 Y137.49 E4.45971
G1 X140.063 Y139.474 E4.55223
G1 X137.34 Y141.308 E4.64971
G1 X134.928 Y142.64 E4.73152
G1 X131.512 Y144.149 E4.8424
G1 X127.813 Y145.344 E4.95782
G1 X124.606 Y146.064 E5.05541
G1 X121.447 Y146.504 E5.15011
G1 X118.836 Y146.673 E5.2278
G1 X115.133 Y146.628 E5.33775
G1 X111.32 Y146.218 E5.45162
G1 X108.739 Y145.729 E5.52962
G1 X105.635 Y144.895 E5.62505
G1 X102.514 Y143.759 E5.72366
G3 X95.772 Y140.074 I13.256 J-32.264 E5.95222
G1 X93.571 Y138.395 E6.03441
G1 X91.339 Y136.337 E6.12455
G1 X89.382 Y134.158 E6.21151
G1 X87.382 Y131.369 E6.31341
G1 X86.063 Y129.03 E6.39314
G1 X85.014 Y126.653 E6.47028
G1 X84.157 Y124.013 E6.55269
G1 X83.589 Y121.3 E6.63499
G1 X83.322 Y118.543 E6.71723
G1 X83.358 Y115.788 E6.79904
G1 X83.695 Y113.055 E6.8808
G1 X84.368 Y110.232 E6.96697
G1 X85.284 Y107.666 E7.04787
G3 X86.751 Y104.679 I24.916 J10.383 E7.14673
G1 X88.59 Y101.867 E7.24649
G1 X90.304 Y99.753 E7.3273
G1 X92.519 Y97.529 E7.4205
G1 X92.772 Y97.781 F9000
G1 F1200
G1 X94.828 Y96.052 E7.50026
G1 X97.411 Y94.262 E7.59357
G1 X99.739 Y92.924 E7.67329
G1 X102.669 Y91.555 E7.76931
G1 X105.491 Y90.52 E7.85856
G1 X108.547 Y89.676 E7.95269
G1 X111.104 Y89.173 E8.03007
G1 X114.869 Y88.741 E8.14259
G1 X118.568 Y88.67 E8.25244
G1 X121.788 Y88.885 E8.34826
G1 X125.087 Y89.384 E8.44733
G3 X131.691 Y91.298 I-7.346 J37.697 E8.65172
G1 X134.793 Y92.683 E8.75259
G1 X137.446 Y94.169 E8.84288
G1 X140.144 Y96.03 E8.9402
G1 X142.272 Y97.816 E9.02269
G1 X144.389 Y99.946 E9.11186
G1 X146.201 Y102.185 E9.19738
M73 P1 R84
G1 X147.868 Y104.732 E9.28776
G1 X149.207 Y107.397 E9.37631
G1 X150.276 Y110.289 E9.46786
G1 X150.898 Y112.819 E9.54522
G1 X151.279 Y115.71 E9.6318
G3 X151.298 Y118.984 I-24.715 J1.780 E9.72906
G1 X150.953 Y121.878 E9.8156
G1 X150.363 Y124.409 E9.89276
G1 X149.16 Y127.72 E9.99736
G1 X148.03 Y129.978 E10.07233
G1 X146.148 Y132.891 E10.1753
G1 X144.588 Y134.825 E10.24908
G1 X142.229 Y137.224 E10.34898
G1 X139.846 Y139.19 E10.44071
G1 X137.153 Y141.004 E10.53712
G1 X134.777 Y142.317 E10.61772
G1 X131.381 Y143.817 E10.72795
G1 X127.711 Y145.002 E10.84246
G1 X124.54 Y145.714 E10.93896
G1 X121.41 Y146.149 E11.03279
G1 X118.833 Y146.316 E11.10946
G1 X115.151 Y146.272 E11.21879
G1 X111.366 Y145.864 E11.33182
G1 X108.819 Y145.381 E11.40879
G1 X105.745 Y144.555 E11.5033
G1 X102.66 Y143.433 E11.60077
G3 X95.968 Y139.775 I13.084 J-31.886 E11.82764
G1 X93.802 Y138.122 E11.90854
G1 X91.585 Y136.078 E11.99807
G1 X89.662 Y133.936 E12.08354
G1 X87.686 Y131.182 E12.18418
G1 X86.382 Y128.869 E12.26302
G1 X85.346 Y126.522 E12.33919
G1 X84.46 Y123.765 E12.42517
G1 X83.942 Y121.241 E12.50167
G1 X83.678 Y118.524 E12.58272
G1 X83.715 Y115.809 E12.66334
G1 X84.047 Y113.115 E12.74393
G1 X84.709 Y110.338 E12.82869
G1 X85.612 Y107.807 E12.90848
G3 X87.064 Y104.852 I24.392 J10.151 E13.00629
G1 X88.884 Y102.069 E13.10502
G1 X90.573 Y99.988 E13.1846
G1 X92.708 Y97.845 E13.27442
; printing object MP40_Stand.stl id:0 copy 0
EXCLUDE_OBJECT_START NAME=MP40_Stand_stl_id_0_copy_0
G1 E11.77442 F3300
G92 E0
G1 X115.783 Y138.563 F9000
G1 E1.5 F3300
;TYPE:Perimeter
;WIDTH:0.399999
G1 F1200
G1 X115.304 Y138.534 E1.51425
G2 X111.416 Y138.026 I-2.081 J0.794 E1.65627
G1 X110.943 Y137.931 E1.67059
G2 X108.685 Y136.195 I-2.216 J0.546 E1.76175
G2 X107.146 Y136.877 I0.098 J2.299 E1.81277
G1 X106.7 Y136.714 E1.82687
G2 X103.129 Y135.117 I-2.219 J0.171 E1.96843
G1 X102.718 Y134.893 E1.98233
G2 X99.450 Y132.742 I-2.231 J-0.169 E2.12342
G1 X99.087 Y132.456 E2.13714
G2 X96.268 Y129.772 I-2.154 J-0.560 E2.27751
G1 X95.976 Y129.436 E2.29073
G2 X94.746 Y126.396 I-1.992 J-0.963 E2.40017
G1 X94.031 Y126.239 E2.42191
G1 X93.752 Y126.254 E2.43021
G3 X92.744 Y124.210 I15.097 J-8.715 E2.49792
M73 P1 R83
G3 X93.656 Y108.908 I16.007 J-6.724 E2.96918
G2 X95.849 Y105.708 I0.201 J-2.214 E3.10881
G1 X96.128 Y105.377 E3.12166
G2 X98.942 Y102.656 I0.629 J-2.165 E3.26236
G1 X99.292 Y102.376 E3.27567
G2 X102.535 Y100.204 I1.026 J-1.975 E3.41672
G1 X102.944 Y99.978 E3.43059
G2 X103.652 Y100.324 I2.448 J-4.112 E3.45401
G2 X106.510 Y98.351 I0.645 J-2.122 E3.57206
G1 X106.966 Y98.184 E3.58648
G2 X110.630 Y97.461 I1.589 J-1.595 E3.71727
G1 X110.751 Y97.105 E3.72843
G1 X111.218 Y97.008 E3.74259
G2 X115.099 Y96.475 I1.795 J-1.326 E3.88455
G1 X115.597 Y96.444 E3.89936
G2 X119.320 Y96.762 I1.968 J-1.093 E4.03026
G1 X119.536 Y96.45 E4.04153
G1 X120.015 Y96.484 E4.05579
G2 X123.897 Y97.031 I2.088 J-0.773 E4.19780
G1 X124.37 Y97.131 E4.21215
G2 X128.153 Y98.227 I2.198 J-0.510 E4.35416
G1 X128.598 Y98.392 E4.36825
G2 X132.150 Y100.029 I2.221 J-0.148 E4.50975
G1 X132.558 Y100.257 E4.52363
G2 X135.799 Y102.447 I2.228 J0.195 E4.66469
G1 X136.157 Y102.738 E4.67839
G2 X138.939 Y105.459 I2.145 J0.590 E4.81876
G1 X139.22 Y105.792 E4.8317
G2 X141.410 Y109.020 I2.035 J0.976 E4.97160
G1 X141.598 Y109.381 E4.98368
G2 X143.003 Y112.982 I1.722 J1.403 E5.12261
G1 X143.104 Y113.37 E5.13451
G2 X143.231 Y116.997 I1.356 J1.768 E5.26021
G1 X143.588 Y117.208 E5.27252
G3 X143.609 Y117.599 I-1.220 J0.262 E5.28418
G2 X143.151 Y121.430 I0.863 J2.046 E5.42269
G1 X143.055 Y121.818 E5.43456
G2 X141.447 Y125.076 I0.353 J2.200 E5.56048
G1 X141.681 Y125.452 E5.57363
G1 X141.493 Y125.813 E5.58571
G2 X139.349 Y129.045 I-0.167 J2.216 E5.72535
G1 X139.073 Y129.379 E5.73821
G2 X136.300 Y132.138 I-0.593 J2.177 E5.87877
G1 X135.955 Y132.422 E5.89204
G2 X132.739 Y134.633 I-1.002 J1.987 E6.03306
G1 X132.334 Y134.863 E6.04689
G2 X131.622 Y134.525 I-2.497 J4.340 E6.07031
G2 X128.787 Y136.530 I-0.619 J2.131 E6.18833
G1 X128.332 Y136.702 E6.20277
G2 X124.577 Y137.817 I-1.576 J1.573 E6.34458
G1 X124.105 Y137.921 E6.35893
G2 X123.512 Y137.383 I-3.577 J3.347 E6.38272
G2 X120.736 Y137.695 I-1.200 J1.830 E6.47240
G2 X120.208 Y138.489 I1.417 J1.515 E6.50089
G1 X119.717 Y138.523 E6.5155
G2 X115.834 Y138.489 I-1.951 J1.121 E6.65475
G1 X115.994 Y138.929 F9000
G1 F1200
G1 X115.067 Y138.871 E6.68233
G2 X111.556 Y138.415 I-1.855 J0.536 E6.81533
G1 X110.647 Y138.231 E6.84287
G2 X109.414 Y136.669 I-2.011 J0.320 E6.90451
G2 X107.733 Y136.867 I-0.647 J1.745 E6.95652
G1 X107.244 Y137.288 E6.97568
G1 X106.375 Y136.972 E7.00313
G2 X104.681 Y135.031 I-1.941 J-0.016 E7.08669
G2 X103.154 Y135.532 I-0.198 J1.974 E7.13568
G1 X102.348 Y135.092 E7.16294
G2 X101.641 Y133.232 I-2.053 J-0.284 E7.22453
G2 X99.410 Y133.159 I-1.168 J1.575 E7.29494
G1 X98.694 Y132.594 E7.32202
G2 X96.150 Y130.173 I-1.810 J-0.646 E7.45367
G1 X95.563 Y129.496 E7.48027
G2 X95.353 Y127.206 I-1.682 J-1.000 E7.55296
G2 X94.652 Y126.741 I-1.407 J1.361 E7.57808
G1 X94.023 Y126.596 E7.59725
G1 X93.557 Y126.627 E7.61112
G3 X93.455 Y108.541 I15.311 J-9.130 E8.17431
G1 X94.151 Y108.536 E8.19498
G2 X95.434 Y105.655 I-0.340 J-1.878 E8.30523
G1 X96.012 Y104.967 E8.33191
G2 X98.537 Y102.531 I0.731 J-1.769 E8.46363
G1 X99.245 Y101.963 E8.49058
G2 X102.170 Y100.004 I1.034 J-1.619 E8.62270
G1 X102.973 Y99.559 E8.64996
G2 X104.889 Y99.969 I1.343 J-1.595 E8.71049
G2 X106.179 Y98.097 I-0.675 J-1.846 E8.78234
G1 X107.051 Y97.777 E8.80992
G2 X109.771 Y98.043 I1.494 J-1.238 E8.90006
G2 X110.451 Y96.807 I-1.340 J-1.542 E8.94270
G1 X111.358 Y96.618 E8.97021
G2 X114.856 Y96.138 I1.645 J-0.996 E9.10311
G1 X115.792 Y96.079 E9.13096
G2 X118.333 Y97.085 I1.778 J-0.779 E9.22109
G2 X119.329 Y96.082 I-0.860 J-1.850 E9.26382
G1 X120.255 Y96.149 E9.29139
G2 X123.375 Y97.089 I1.857 J-0.515 E9.40683
G1 X123.761 Y96.641 E9.42439
G1 X124.666 Y96.834 E9.45186
G2 X125.486 Y98.192 I2.116 J-0.351 E9.50003
G2 X128.057 Y97.815 I1.074 J-1.630 E9.58448
G1 X128.926 Y98.137 E9.612
G2 X132.130 Y99.614 I1.923 J0.041 E9.74453
G1 X132.93 Y100.062 E9.77175
G2 X133.615 Y101.931 I2.046 J0.310 E9.83336
G2 X135.844 Y102.031 I1.187 J-1.565 E9.90373
G1 X136.552 Y102.605 E9.93079
G2 X139.062 Y105.059 I1.795 J0.674 E10.06237
G1 X139.641 Y105.747 E10.08907
G2 X140.257 Y108.389 I1.672 J1.003 E10.17847
G2 X141.609 Y108.641 I1.016 J-1.699 E10.22004
G1 X142.014 Y109.419 E10.24608
G2 X143.284 Y112.670 I1.369 J1.339 E10.37647
G1 X143.502 Y113.513 E10.40232
G2 X142.905 Y116.188 I1.017 J1.631 E10.49295
G2 X143.955 Y116.966 I1.871 J-1.427 E10.53234
G3 X143.960 Y117.829 I-6.926 J0.472 E10.55798
G2 X143.546 Y121.288 I0.578 J1.823 E10.68802
G1 X143.337 Y122.133 E10.71387
G2 X141.541 Y124.173 I0.120 J1.916 E10.80358
G2 X142.104 Y125.396 I2.208 J-0.276 E10.84423
G1 X141.7 Y126.176 E10.87031
G2 X139.765 Y129.092 I-0.313 J1.892 E11.00124
G1 X139.192 Y129.785 E11.02794
G2 X136.707 Y132.258 I-0.699 J1.782 E11.15944
G1 X136.007 Y132.834 E11.18636
G2 X133.107 Y134.829 I-1.013 J1.632 E11.31845
G1 X132.31 Y135.282 E11.34567
G2 X130.362 Y134.906 I-1.320 J1.605 E11.40705
G2 X129.121 Y136.780 I0.724 J1.827 E11.47801
G1 X128.253 Y137.11 E11.50558
G2 X125.339 Y137.057 I-1.480 J1.249 E11.60360
G2 X124.863 Y138.111 I1.567 J1.342 E11.63829
G1 X123.958 Y138.314 E11.66583
G2 X122.239 Y137.381 I-1.741 J1.158 E11.72622
G2 X120.463 Y138.829 I0.142 J1.988 E11.79866
G1 X119.528 Y138.894 E11.82649
G2 X116.980 Y137.916 I-1.762 J0.783 E11.91649
G2 X116.040 Y138.852 I0.813 J1.756 E11.95655
G1 X116.237 Y139.297 F9000
G1 F1200
G3 X114.785 Y139.183 I0.046 J-9.893 E12.00008
G2 X114.297 Y138.267 I-1.984 J0.469 E12.03115
G2 X112.177 Y138.227 I-1.081 J1.082 E12.10058
G2 X111.746 Y138.812 I1.312 J1.418 E12.12223
G3 X110.330 Y138.526 I3.106 J-19.028 E12.16513
G2 X110.162 Y137.856 I-1.881 J0.116 E12.18570
G1 X109.788 Y137.318 E12.20515
G2 X107.586 Y137.440 I-1.040 J1.167 E12.27782
G1 X107.371 Y137.709 E12.28804
G3 X106.018 Y137.194 I3.334 J-10.793 E12.33105
G2 X105.812 Y136.177 I-2.009 J-0.122 E12.36211
G2 X103.800 Y135.528 I-1.345 J0.728 E12.43125
G2 X103.215 Y135.965 I0.840 J1.734 E12.45300
G3 X101.952 Y135.276 I6.920 J-14.186 E12.49573
G1 X102.006 Y134.953 E12.50545
G1 X101.954 Y134.333 E12.52392
G2 X100.515 Y133.201 I-1.447 J0.358 E12.58222
G1 X99.946 Y133.295 E12.59934
G1 X99.393 Y133.592 E12.61798
G3 X98.282 Y132.697 I5.890 J-8.449 E12.66036
G2 X98.419 Y131.623 I-1.854 J-0.782 E12.69280
G2 X96.660 Y130.407 I-1.491 J0.277 E12.76306
G1 X96.057 Y130.6 E12.78186
G3 X95.126 Y129.526 I9.614 J-9.275 E12.82407
G1 X95.253 Y129.329 E12.83103
G1 X95.459 Y128.751 E12.84925
G2 X94.558 Y127.085 I-1.521 J-0.254 E12.90980
G1 X93.963 Y126.955 E12.92788
G1 X93.379 Y127.03 E12.94536
G3 X93.276 Y108.150 I15.397 J-9.524 E13.53484
G1 X93.915 Y108.204 E13.55388
G2 X95.282 Y106.189 I-0.084 J-1.528 E13.63739
G1 X95.004 Y105.632 E13.65587
G3 X95.919 Y104.534 I10.590 J7.895 E13.69832
G1 X96.035 Y104.602 E13.70231
G1 X96.684 Y104.747 E13.72205
G2 X98.261 Y103.496 I0.113 J-1.477 E13.78762
G1 X98.269 Y102.898 E13.80538
G1 X98.116 Y102.419 E13.82031
G3 X99.239 Y101.539 I6.772 J7.486 E13.86269
G2 X100.668 Y101.871 I1.104 J-1.511 E13.90739
G2 X101.830 Y100.450 I-0.362 J-1.482 E13.96574
G1 X101.772 Y99.823 E13.98444
G3 X103.029 Y99.125 I8.984 J14.698 E14.02714
G2 X104.387 Y99.704 I1.412 J-1.430 E14.07213
G2 X105.777 Y98.486 I-0.139 J-1.561 E14.13074
G1 X105.82 Y97.853 E14.14958
G3 X107.184 Y97.379 I4.012 J9.346 E14.19248
G1 X107.62 Y97.815 E14.21079
G2 X109.965 Y97.190 I0.930 J-1.221 E14.29385
G2 X110.119 Y96.517 I-1.401 J-0.675 E14.31447
G3 X111.547 Y96.244 I1.841 J5.757 E14.35769
G2 X112.692 Y97.171 I1.655 J-0.874 E14.40259
G2 X114.351 Y96.408 I0.319 J-1.493 E14.46057
G1 X114.583 Y95.806 E14.47973
G3 X116.030 Y95.734 I1.179 J9.114 E14.52278
G1 X116.328 Y96.271 E14.54101
G2 X118.755 Y96.318 I1.232 J-0.913 E14.62407
G2 X119.090 Y95.712 I-1.177 J-1.046 E14.64475
G3 X120.540 Y95.840 I-0.143 J9.892 E14.68827
G2 X121.019 Y96.761 I1.994 J-0.452 E14.71934
G2 X123.132 Y96.829 I1.092 J-1.075 E14.78848
G2 X123.575 Y96.241 I-1.297 J-1.438 E14.81042
G3 X124.992 Y96.543 I-3.138 J18.199 E14.85345
G1 X125.005 Y96.727 E14.85893
G1 X125.2 Y97.322 E14.87752
G2 X127.086 Y98.061 I1.338 J-0.639 E14.94362
G2 X127.941 Y97.397 I-0.577 J-1.625 E14.97617
G3 X129.285 Y97.919 I-2.924 J9.521 E15.01900
G2 X129.480 Y98.938 I2.028 J0.140 E15.05005
G2 X131.484 Y99.610 I1.354 J-0.714 E15.11919
G2 X132.074 Y99.179 I-0.854 J-1.788 E15.14095
G3 X133.329 Y99.883 I-7.290 J14.466 E15.18368
G1 X133.271 Y100.204 E15.19337
G1 X133.315 Y100.826 E15.21188
G2 X134.740 Y101.975 I1.451 J-0.341 E15.27018
G1 X135.31 Y101.888 E15.2873
G1 X135.867 Y101.598 E15.30595
G3 X136.966 Y102.507 I-6.285 J8.718 E15.34832
G2 X136.808 Y103.531 I1.829 J0.806 E15.37934
G2 X138.556 Y104.819 I1.504 J-0.211 E15.45101
G1 X139.161 Y104.634 E15.46979
G3 X140.082 Y105.727 I-9.461 J8.907 E15.51225
G1 X140.003 Y105.822 E15.51592
G1 X139.749 Y106.436 E15.53565
G2 X140.730 Y108.208 I1.436 J0.362 E15.60175
G2 X141.797 Y108.246 I0.592 J-1.612 E15.63385
G3 X142.439 Y109.483 I-11.345 J6.673 E15.67524
G2 X141.879 Y110.355 I1.418 J1.527 E15.70625
G2 X142.934 Y112.244 I1.456 J0.426 E15.77763
G1 X143.555 Y112.329 E15.79624
G3 X143.908 Y113.690 I-10.140 J3.356 E15.83801
G1 X143.802 Y113.736 E15.84144
G1 X143.302 Y114.171 E15.86112
G2 X143.376 Y116.185 I1.122 J0.967 E15.92682
G2 X144.302 Y116.700 I1.209 J-1.084 E15.95872
G3 X144.310 Y118.087 I-10.983 J0.757 E15.99992
G1 X143.72 Y118.337 E16.01895
G2 X143.451 Y120.757 I0.775 J1.311 E16.10256
G1 X143.948 Y121.117 E16.12078
G3 X143.610 Y122.481 I-10.538 J-1.887 E16.16253
G1 X143.494 Y122.472 E16.16598
G1 X142.846 Y122.618 E16.1857
G2 X141.954 Y124.419 I0.531 J1.384 E16.25113
G2 X142.534 Y125.323 I1.594 J-0.385 E16.28347
