; generated by PrusaSlicer 2.6.0+win64 on 2023-07-04 at 00:11:11 UTC
; Postprocessed by [ArcWelder](https://github.com/FormerLurker/ArcWelderLib)
; Copyright(C) 2021 - Brad Hochgesang
; Version: 1.2.0, Branch: HEAD, BuildDate: 2021-11-21T20:25:43Z
; resolution=0.05mm
; path_tolerance=5.0%
; max_radius=9999.00mm
; default_xyz_precision=3
; default_e_precision=5
; extrusion_rate_variance_percent=5.0%








; 

; external perimeters extrusion width = 0.60mm
; perimeters extrusion width = 0.60mm
; infill extrusion width = 0.60mm
; solid infill extrusion width = 0.60mm
; top infill extrusion width = 0.40mm
; first layer extrusion width = 0.60mm

; external perimeters extrusion width = 0.60mm
; perimeters extrusion width = 0.60mm
; infill extrusion width = 0.60mm
; solid infill extrusion width = 0.60mm
; top infill extrusion width = 0.40mm
; first layer extrusion width = 0.60mm

M73 P0 R7


; Pre-Processed for Cancel-Object support by preprocess_cancellation v0.2.0
; 2 known objects
EXCLUDE_OBJECT_DEFINE NAME=ThinnerClip_stl_id_0_copy_0 CENTER=117.307,131.665 POLYGON=[[114.95,82.8],[114.95,152.2],[120.05,152.2],[120.05,82.8]]
EXCLUDE_OBJECT_DEFINE NAME=vise_base_clip_stl_id_1_copy_0 CENTER=105.286,132.974 POLYGON=[[102.915,83.55],[102.915,152.95],[108.015,152.95],[108.015,83.55]]
;TYPE:Custom
G90 ; use absolute coordinates
M83 ; extruder relative mode
M104 S205 ; set temporary nozzle temp to prevent oozing during homing
M140 S65 ; set final bed temp
G4 S30 ; allow partial nozzle warmup
G28 ; home all axis
BED_MESH_CALIBRATE
G1 Z50 F240
G1 X2.0 Y10 F3000
M104 S210 ; set final nozzle temp
M190 S65 ; wait for bed temp to stabilize
M109 S210 ; wait for nozzle temp to stabilize
M73 P2 R7
G1 Z0.28 F240
G92 E0
G1 X2.0 Y140 E10 F1500 ; prime the nozzle
M73 P5 R7
G1 X2.3 Y140 F5000
G92 E0
M73 P6 R6
G1 X2.3 Y10 E10 F1200 ; prime the nozzle
G21 ; set units to millimeters
G90 ; use absolute coordinates
M82 ; use absolute distances for extrusion
G92 E0
; Filament gcode
M107
;LAYER_CHANGE
;Z:0.2
;HEIGHT:0.2
;BEFORE_LAYER_CHANGE
;0.2
M117 Layer 1/14 : PLA - KLIPPER

G1 Z.2 F7800
SET_PRINT_STATS_INFO CURRENT_LAYER=1
;AFTER_LAYER_CHANGE
;0.2
M73 P8 R6
G1 E-1.5 F3000
G92 E0
G1 X97.245 Y79.024 F7800
G1 E1.5 F3000
;TYPE:Skirt/Brim
;WIDTH:0.6
G1 F1200
G1 X99.015 Y77.436 E1.61015
G1 X102.373 Y76.35 E1.77363
G1 X114.85 Y75.586 E2.35266
G1 X120.15 Y75.586 E2.59816
G1 X122.494 Y75.983 E2.70828
G1 X124.576 Y77.13 E2.81839
G1 X126.164 Y78.899 E2.92851
G1 X127.08 Y81.093 E3.03864
G1 X127.264 Y82.7 E3.11356
G1 X127.264 Y130.177 E5.31276
G1 X124.616 Y153.13 E6.38303
M73 P9 R6
G1 X123.948 Y155.412 E6.49317
G1 X122.565 Y157.346 E6.6033
G1 X120.623 Y158.716 E6.71339
G1 X117.993 Y159.4 E6.83927
G1 X105.958 Y160.15 E7.39783
G1 X104.075 Y160.164 E7.48506
G1 X101.731 Y159.767 E7.59518
G1 X99.649 Y158.62 E7.70529
G1 X98.248 Y157.131 E7.79999
M73 P10 R6
G1 X96.988 Y155.331 E7.90177
G1 X95.969 Y153.183 E8.0119
G1 X95.701 Y151.251 E8.10225
G1 X95.701 Y83.45 E11.24288
G1 X96.098 Y81.106 E11.353
G1 X97.202 Y79.103 E11.45894
G1 E9.95894 F3000
G92 E0
G1 X97.703 Y79.393 F7800
G1 E1.5 F3000
G1 F1200
G1 X97.798 Y79.229 E1.50878
G1 X99.548 Y77.765 E1.61447
G1 X102.407 Y76.906 E1.75275
G1 X114.85 Y76.143 E2.33021
M73 P11 R6
G1 X120.15 Y76.143 E2.57571
G1 X122.397 Y76.54 E2.68141
G1 X124.372 Y77.683 E2.78711
G1 X125.835 Y79.433 E2.89277
G1 X126.707 Y82.7 E3.0494
G1 X126.707 Y130.177 E5.2486
G1 X124.063 Y153.065 E6.31585
G1 X123.406 Y155.25 E6.42154
M73 P12 R6
G1 X122.041 Y157.078 E6.52722
G1 X120.132 Y158.328 E6.63292
G1 X117.958 Y158.844 E6.73642
G1 X105.923 Y159.594 E7.29498
G1 X104.075 Y159.607 E7.38058
G1 X101.828 Y159.21 E7.48628
G1 X99.854 Y158.067 E7.59194
G1 X98.704 Y156.811 E7.67082
G1 X97.444 Y155.012 E7.77256
G1 X96.48 Y152.944 E7.87825
G1 X96.258 Y151.251 E7.95734
G1 X96.258 Y83.45 E11.09797
G1 X96.655 Y81.203 E11.20367
M73 P13 R6
G1 X97.658 Y79.471 E11.29638
; printing object ThinnerClip.stl id:0 copy 0
EXCLUDE_OBJECT_START NAME=ThinnerClip_stl_id_0_copy_0
G1 E9.79638 F3000
G92 E0
G1 X117.868 Y133.606 F7800
G1 E1.5 F3000
;TYPE:Perimeter
;WIDTH:0.807301
G1 F1200
G1 X117.868 Y85.063 E4.58532
;WIDTH:0.832818
G1 X117.84 Y84.716 E4.60819
M73 P14 R6
G1 X117.546 Y84.231 E4.64544
G1 X118.619 Y84.231 E4.71591
G2 X118.632 Y85.063 I13.990 J0.197 E4.77056
;WIDTH:0.807301
G1 X118.632 Y130.011 E7.62739
G2 X117.885 Y133.518 I62.441 J15.133 E7.85531
G1 E6.35531 F3000
G92 E0
G1 X117.39 Y139.455 F7800
G1 E1.5 F3000
;WIDTH:0.966328
G1 F1200
G1 X117.367 Y139.389 E1.50537
;WIDTH:0.919403
G1 X117.343 Y139.322 E1.51056
;WIDTH:0.872477
G1 X117.32 Y139.255 E1.51545
;WIDTH:0.825552
G1 X117.296 Y139.189 E1.52002
;WIDTH:0.778626
G1 X117.273 Y139.122 E1.52435
;WIDTH:0.731701
G1 X117.249 Y139.056 E1.52837
;WIDTH:0.684775
G1 X117.226 Y138.989 E1.53215
;WIDTH:0.637849
G1 X117.203 Y138.923 E1.53561
;WIDTH:0.590924
G1 X117.179 Y138.856 E1.53885
;WIDTH:0.586168
G1 X117.2 Y138.219 E1.56764
;WIDTH:0.63094
G1 X117.223 Y137.66 E1.59499
;WIDTH:0.675712
G1 X117.245 Y137.102 E1.62437
;WIDTH:0.720483
G1 X117.267 Y136.544 E1.65583
;WIDTH:0.765255
G1 X117.29 Y135.986 E1.68937
;WIDTH:0.810026
G1 X117.312 Y135.428 E1.72499
;WIDTH:0.813356
G1 X117.292 Y134.831 E1.76326
;WIDTH:0.770685
G1 X117.271 Y134.273 E1.79705
;WIDTH:0.728014
G1 X117.25 Y133.715 E1.82886
;WIDTH:0.685342
G1 X117.228 Y133.157 E1.85869
;WIDTH:0.642671
G1 X117.207 Y132.598 E1.88659
;WIDTH:0.599999
G1 X117.207 Y85.063 E4.08847
G1 X117.185 Y84.871 E4.09742
M73 P15 R6
G1 X116.92 Y84.433 E4.12113
;WIDTH:0.628402
G1 X116.646 Y84.316 E4.13563
;WIDTH:0.656805
G1 X116.371 Y84.199 E4.15088
;WIDTH:0.659037
G1 X116.296 Y84.202 E4.15473
;WIDTH:0.668431
G1 X115.741 Y84.245 E4.18368
G1 X115.741 Y83.591 E4.2177
G1 X116.371 Y83.585 E4.25047
;WIDTH:0.656805
G1 X116.809 Y83.571 E4.27284
;WIDTH:0.628402
G1 X117.247 Y83.557 E4.29417
;WIDTH:0.599999
G1 X119.293 Y83.557 E4.38894
G1 X119.293 Y84.626 E4.43846
G1 X119.293 Y130.083 E6.54409
G1 X118.706 Y132.74 E6.67013
;WIDTH:0.642671
G1 X118.58 Y133.285 E6.69803
;WIDTH:0.685342
G1 X118.455 Y133.829 E6.72785
;WIDTH:0.728014
G1 X118.329 Y134.373 E6.75966
;WIDTH:0.770685
G1 X118.203 Y134.917 E6.79345
;WIDTH:0.813356
G1 X118.074 Y135.489 E6.83101
;WIDTH:0.810026
G1 X118.007 Y136.043 E6.8666
;WIDTH:0.765255
G1 X117.941 Y136.598 E6.90017
;WIDTH:0.720483
G1 X117.874 Y137.153 E6.93167
;WIDTH:0.675712
G1 X117.807 Y137.707 E6.96103
;WIDTH:0.63094
G1 X117.74 Y138.262 E6.98836
;WIDTH:0.586168
G1 X117.678 Y138.889 E7.01682
;WIDTH:0.590924
G1 X117.646 Y138.952 E7.02004
;WIDTH:0.637849
G1 X117.614 Y139.015 E7.02354
;WIDTH:0.684775
G1 X117.582 Y139.078 E7.02731
;WIDTH:0.731701
G1 X117.55 Y139.141 E7.03136
;WIDTH:0.778626
G1 X117.518 Y139.204 E7.03568
;WIDTH:0.825552
G1 X117.486 Y139.266 E7.04022
;WIDTH:0.872477
G1 X117.454 Y139.329 E7.04509
;WIDTH:0.919403
G1 X117.431 Y139.375 E7.04884
G1 E5.54884 F3000
G92 E0
M73 P16 R6
G1 X116.738 Y151.474 F7800
G1 E1.5 F3000
;WIDTH:0.538367
G1 F1200
G1 X116.54 Y151.474 E1.50816
G1 X116.007 Y150.713 E1.54644
G1 X116.468 Y150.736 E1.56546
G1 X116.754 Y150.469 E1.58158
G1 X116.739 Y151.384 E1.61928
G1 E.11928 F3000
G92 E0
G1 X117.255 Y152 F7800
G1 E1.5 F3000
;TYPE:External perimeter
;WIDTH:0.599999
G1 F1200
G1 X116.266 Y152 E1.54581
G1 X115.15 Y150.406 E1.63594
G1 X115.15 Y150.109 E1.6497
G1 X116.405 Y150.213 E1.70803
;WIDTH:0.64546
G1 X116.667 Y149.994 E1.72514
G1 X116.672 Y149.482 E1.75079
;WIDTH:0.676332
G1 X116.688 Y148.087 E1.82427
;WIDTH:0.707839
G1 X116.704 Y146.691 E1.90146
;WIDTH:0.708408
G1 X116.704 Y146.672 E1.90251
;WIDTH:0.742789
G1 X116.721 Y145.741 E1.9567
;WIDTH:0.77717
G1 X116.739 Y144.811 E2.01349
;WIDTH:0.811551
G1 X116.756 Y143.881 E2.07294
;WIDTH:0.83214
G2 X116.743 Y143.357 I-1.211 J-0.232 E2.10748
;WIDTH:0.785712
G1 X116.72 Y143.237 E2.11503
;WIDTH:0.739284
G1 X116.696 Y143.117 E2.12212
;WIDTH:0.692856
G1 X116.673 Y142.997 E2.12872
;WIDTH:0.646428
G1 X116.65 Y142.877 E2.13485
;WIDTH:0.599999
G1 X116.65 Y85.063 E4.81287
G1 X116.554 Y84.853 E4.82357
G1 X116.347 Y84.786 E4.83365
G1 X115.15 Y84.891 E4.88931
G1 X115.15 Y83 E4.9769
G1 X119.85 Y83 E5.19461
M73 P17 R6
G1 X119.85 Y84.626 E5.26993
G1 X119.85 Y130.144 E7.37838
G2 X117.730 Y142.933 I92.012 J21.823 E7.97931
;WIDTH:0.646428
G1 X117.695 Y143.05 E7.98544
;WIDTH:0.692856
G1 X117.659 Y143.167 E7.99206
;WIDTH:0.739284
G1 X117.624 Y143.283 E7.99908
;WIDTH:0.785712
G1 X117.589 Y143.4 E8.00662
;WIDTH:0.83214
G2 X117.523 Y143.909 I1.094 J0.401 E8.04045
;WIDTH:0.811551
G1 X117.472 Y144.838 E8.09991
;WIDTH:0.77717
G1 X117.42 Y145.767 E8.15672
;WIDTH:0.742789
G1 X117.369 Y146.696 E8.21086
;WIDTH:0.708408
G1 X117.369 Y146.706 E8.21141
;WIDTH:0.707839
G1 X117.321 Y148.101 E8.28858
;WIDTH:0.676332
G1 X117.274 Y149.496 E8.36209
;WIDTH:0.644824
G1 X117.274 Y149.504 E8.36249
;WIDTH:0.64546
G1 X117.272 Y150.994 E8.43714
;WIDTH:0.599999
G1 X117.257 Y151.91 E8.47958
G1 E6.97958 F3000
G92 E0
G1 X117.191 Y142.877 F7800
G1 E1.5 F3000
;TYPE:Perimeter
;WIDTH:0.61521
G1 F1200
G1 X117.215 Y142.425 E1.52154
;WIDTH:0.661679
G1 X117.238 Y141.973 E1.54483
;WIDTH:0.708149
G1 X117.261 Y141.52 E1.56992
;WIDTH:0.754618
G1 X117.284 Y141.068 E1.5967
;WIDTH:0.757692
G1 X117.286 Y141.041 E1.59831
;WIDTH:0.79942
G1 X117.307 Y140.724 E1.61829
;WIDTH:0.841147
G1 X117.328 Y140.407 E1.63938
;WIDTH:0.882874
G1 X117.349 Y140.09 E1.66157
;WIDTH:0.924601
G1 X117.369 Y139.772 E1.68493
;WIDTH:0.966328
G1 X117.39 Y139.455 E1.70932
; stop printing object ThinnerClip.stl id:0 copy 0
EXCLUDE_OBJECT_END NAME=ThinnerClip_stl_id_0_copy_0
; printing object vise_base_clip.stl id:1 copy 0
EXCLUDE_OBJECT_START NAME=vise_base_clip_stl_id_1_copy_0
G1 E.20932 F3000
G92 E0
G1 X105.833 Y134.344 F7800
G1 E1.5 F3000
;WIDTH:0.807302
M73 P18 R6
G1 F1200
G1 X105.833 Y85.813 E4.58456
;WIDTH:0.832819
G1 X105.805 Y85.466 E4.60743
G1 X105.512 Y84.981 E4.64465
G1 X106.585 Y84.981 E4.71513
G2 X106.597 Y85.813 I15.155 J0.197 E4.76978
;WIDTH:0.807302
G1 X106.597 Y130.756 E7.6263
G1 X106.276 Y132.169 E7.7184
M73 P19 R6
G1 X105.85 Y134.256 E7.85378
G1 E6.35378 F3000
G92 E0
G1 X105.355 Y140.148 F7800
G1 E1.5 F3000
;WIDTH:0.964484
G1 F1200
G1 X105.331 Y140.081 E1.50545
;WIDTH:0.918002
G1 X105.308 Y140.015 E1.51054
;WIDTH:0.87152
G1 X105.285 Y139.948 E1.51542
;WIDTH:0.825038
G1 X105.262 Y139.882 E1.51997
;WIDTH:0.778556
G1 X105.238 Y139.815 E1.52432
;WIDTH:0.732074
G1 X105.215 Y139.749 E1.52833
;WIDTH:0.685592
G1 X105.192 Y139.682 E1.53212
;WIDTH:0.63911
G1 X105.169 Y139.616 E1.53558
;WIDTH:0.592628
G1 X105.145 Y139.549 E1.53883
;WIDTH:0.581018
G1 X105.163 Y139.058 E1.56081
;WIDTH:0.615889
G1 X105.18 Y138.567 E1.58422
;WIDTH:0.659148
G1 X105.202 Y138.035 E1.6115
;WIDTH:0.702406
G1 X105.224 Y137.502 E1.64075
;WIDTH:0.745665
G1 X105.245 Y136.969 E1.67192
;WIDTH:0.788923
G1 X105.267 Y136.437 E1.70495
;WIDTH:0.791448
G1 X105.244 Y135.744 E1.74811
;WIDTH:0.743586
G1 X105.22 Y135.081 E1.78676
;WIDTH:0.695724
G1 X105.196 Y134.417 E1.82283
;WIDTH:0.647862
G1 X105.172 Y133.754 E1.8562
;WIDTH:0.599999
G1 X105.172 Y85.813 E4.07689
G1 X105.15 Y85.621 E4.08584
G1 X104.885 Y85.183 E4.10955
;WIDTH:0.628403
G1 X104.611 Y85.066 E4.12405
;WIDTH:0.656807
G1 X104.337 Y84.949 E4.13926
;WIDTH:0.659037
G1 X104.261 Y84.952 E4.14316
;WIDTH:0.668432
G1 X103.707 Y84.995 E4.17206
G1 X103.707 Y84.341 E4.20608
G1 X104.337 Y84.336 E4.23885
;WIDTH:0.656807
G1 X104.774 Y84.321 E4.26117
;WIDTH:0.628403
G1 X105.212 Y84.307 E4.2825
;WIDTH:0.599999
G1 X107.258 Y84.307 E4.37727
G1 X107.258 Y85.376 E4.42679
G1 X107.258 Y130.831 E6.53233
G1 X106.923 Y132.305 E6.60235
M73 P20 R5
G1 X106.591 Y133.885 E6.67714
;WIDTH:0.647862
G1 X106.446 Y134.533 E6.71054
;WIDTH:0.695724
G1 X106.301 Y135.18 E6.74653
;WIDTH:0.743586
G1 X106.155 Y135.828 E6.78523
;WIDTH:0.791448
G1 X106.008 Y136.497 E6.82786
;WIDTH:0.788923
G1 X105.943 Y137.026 E6.86092
;WIDTH:0.745665
G1 X105.879 Y137.555 E6.89206
;WIDTH:0.702406
G1 X105.814 Y138.084 E6.92129
;WIDTH:0.659148
G1 X105.749 Y138.614 E6.94865
;WIDTH:0.615889
G1 X105.748 Y138.631 E6.94946
;WIDTH:0.614132
G1 X105.697 Y139.108 E6.97224
;WIDTH:0.580139
G1 X105.646 Y139.585 E6.99367
;WIDTH:0.592628
G1 X105.614 Y139.647 E6.99686
;WIDTH:0.63911
G1 X105.581 Y139.71 E7.00039
;WIDTH:0.685592
G1 X105.549 Y139.772 E7.00412
;WIDTH:0.732074
G1 X105.517 Y139.835 E7.00817
;WIDTH:0.778556
G1 X105.484 Y139.897 E7.01247
;WIDTH:0.825038
G1 X105.452 Y139.96 E7.01707
;WIDTH:0.87152
G1 X105.419 Y140.022 E7.02191
;WIDTH:0.918002
G1 X105.396 Y140.068 E7.02565
G1 E5.52565 F3000
G92 E0
G1 X104.699 Y152.225 F7800
G1 E1.5 F3000
;WIDTH:0.535486
G1 F1200
G1 X104.505 Y152.225 E1.50795
G1 X103.969 Y151.461 E1.54617
G2 X104.709 Y151.374 I0.246 J-1.098 E1.57757
G1 X104.7 Y152.135 E1.60874
G1 E.10874 F3000
G92 E0
G1 X105.219 Y152.75 F7800
G1 E1.5 F3000
;TYPE:External perimeter
;WIDTH:0.599999
G1 F1200
G1 X104.231 Y152.75 E1.54577
G1 X103.115 Y151.156 E1.6359
G1 X103.115 Y150.859 E1.64966
G1 X104.312 Y150.964 E1.70532
G1 X104.451 Y150.941 E1.71185
;WIDTH:0.644353
G1 X104.631 Y150.747 E1.72508
G1 X104.635 Y150.687 E1.72809
;WIDTH:0.651173
G1 X104.641 Y149.845 E1.77068
;WIDTH:0.676249
G1 X104.653 Y148.773 E1.82714
;WIDTH:0.701325
G1 X104.666 Y147.701 E1.88583
;WIDTH:0.701762
G1 X104.666 Y147.686 E1.88665
;WIDTH:0.748007
G1 X104.689 Y146.359 E1.96446
;WIDTH:0.794251
G1 X104.712 Y145.033 E2.04731
;WIDTH:0.794941
G1 X104.713 Y145.016 E2.04837
;WIDTH:0.832601
G1 X104.732 Y144.2 E2.10196
G1 X104.708 Y144.081 E2.10993
;WIDTH:0.786081
G1 X104.685 Y143.961 E2.11748
;WIDTH:0.739561
G1 X104.662 Y143.841 E2.12456
;WIDTH:0.69304
G1 X104.639 Y143.721 E2.13116
;WIDTH:0.64652
G1 X104.615 Y143.601 E2.1373
;WIDTH:0.599999
G1 X104.615 Y85.813 E4.81412
G1 X104.519 Y85.603 E4.82482
M73 P21 R5
G1 X104.312 Y85.536 E4.8349
G1 X103.115 Y85.641 E4.89056
G1 X103.115 Y83.75 E4.97815
G1 X107.815 Y83.75 E5.19586
G1 X107.815 Y85.376 E5.27118
G1 X107.815 Y130.893 E7.37959
G1 X107.468 Y132.42 E7.45213
M73 P22 R5
G2 X105.691 Y143.651 I94.569 J20.719 E7.97913
;WIDTH:0.64652
G1 X105.656 Y143.768 E7.98526
;WIDTH:0.69304
G1 X105.622 Y143.885 E7.99185
;WIDTH:0.739561
G1 X105.588 Y144.002 E7.99891
;WIDTH:0.786081
G1 X105.554 Y144.12 E8.0065
;WIDTH:0.832601
G1 X105.52 Y144.237 E8.0145
G1 X105.463 Y145.059 E8.0686
;WIDTH:0.794251
G1 X105.393 Y146.384 E8.15149
;WIDTH:0.748007
G1 X105.324 Y147.709 E8.22928
;WIDTH:0.701762
G1 X105.324 Y147.717 E8.22972
;WIDTH:0.701325
G1 X105.249 Y149.847 E8.3464
;WIDTH:0.651398
G1 X105.249 Y149.853 E8.3467
;WIDTH:0.651173
G1 X105.227 Y150.814 E8.39532
;WIDTH:0.644353
G1 X105.232 Y151.452 E8.42723
;WIDTH:0.599999
G1 X105.22 Y152.66 E8.48319
G1 E6.98319 F3000
G92 E0
G1 X105.154 Y143.601 F7800
G1 E1.5 F3000
;TYPE:Perimeter
;WIDTH:0.581568
G1 F1200
G1 X105.163 Y143.407 E1.5087
;WIDTH:0.62498
G1 X105.185 Y143.008 E1.52804
;WIDTH:0.668391
G1 X105.207 Y142.61 E1.54877
;WIDTH:0.711803
G1 X105.228 Y142.211 E1.57099
;WIDTH:0.755214
G1 X105.25 Y141.812 E1.59466
;WIDTH:0.756968
G1 X105.251 Y141.797 E1.59555
;WIDTH:0.806947
G1 X105.276 Y141.398 E1.62095
;WIDTH:0.856926
G1 X105.301 Y141 E1.64794
;WIDTH:0.906905
G1 X105.326 Y140.601 E1.67666
;WIDTH:0.956884
G1 X105.351 Y140.202 E1.70704
;WIDTH:0.964484
G1 X105.355 Y140.148 E1.71119
; stop printing object vise_base_clip.stl id:1 copy 0
EXCLUDE_OBJECT_END NAME=vise_base_clip_stl_id_1_copy_0
;LAYER_CHANGE
;Z:0.4
;HEIGHT:0.2
;BEFORE_LAYER_CHANGE
;0.4
M117 Layer 2/14 : PLA - KLIPPER

G1 Z.4 F7800
SET_PRINT_STATS_INFO CURRENT_LAYER=2
;AFTER_LAYER_CHANGE
;0.4
M104 S205 ; set temperature
; printing object ThinnerClip.stl id:0 copy 0
EXCLUDE_OBJECT_START NAME=ThinnerClip_stl_id_0_copy_0
G1 E.21119 F3000
G92 E0
G1 X116.831 Y151.568 F7800
G1 E1.5 F3000
;WIDTH:0.750675
G1 F2400
G1 X116.491 Y151.568 E1.52001
G1 X115.815 Y150.602 E1.5894
G1 X116.398 Y150.601 E1.62371
G1 X116.829 Y150.317 E1.65409
;WIDTH:0.707383
G1 X116.863 Y150.205 E1.66056
;WIDTH:0.665072
G1 X116.896 Y150.093 E1.6666
;WIDTH:0.62276
G1 X116.929 Y149.981 E1.67223
;WIDTH:0.580448
G1 X116.962 Y149.869 E1.67745
G1 X116.939 Y149.985 E1.68274
;WIDTH:0.62276
G1 X116.916 Y150.101 E1.68844
;WIDTH:0.665072
G1 X116.893 Y150.217 E1.69456
;WIDTH:0.707383
