; generated by PrusaSlicer 2.6.0+win64 on 2023-07-02 at 02:01:09 UTC
; Postprocessed by [ArcWelder](https://github.com/FormerLurker/ArcWelderLib)
; Copyright(C) 2021 - Brad Hochgesang
; Version: 1.2.0, Branch: HEAD, BuildDate: 2021-11-21T20:25:43Z
; resolution=0.05mm
; path_tolerance=5.0%
; max_radius=9999.00mm
; default_xyz_precision=3
; default_e_precision=5
; extrusion_rate_variance_percent=5.0%








; 

; external perimeters extrusion width = 0.66mm
; perimeters extrusion width = 0.66mm
; infill extrusion width = 0.66mm
; solid infill extrusion width = 0.66mm
; top infill extrusion width = 0.40mm
; support material extrusion width = 0.66mm
; first layer extrusion width = 0.66mm

M73 P0 R176


; Pre-Processed for Cancel-Object support by preprocess_cancellation v0.2.0
; 1 known objects
EXCLUDE_OBJECT_DEFINE NAME=vise_base_a_stl_id_0_copy_0 CENTER=104.886,113.759 POLYGON=[[38.396,95.766],[38.396,139.234],[196.245,139.234],[196.245,95.766]]
;TYPE:Custom
G90 ; use absolute coordinates
M83 ; extruder relative mode
M104 S205 ; set temporary nozzle temp to prevent oozing during homing
M140 S65 ; set final bed temp
G4 S30 ; allow partial nozzle warmup
G28 ; home all axis
BED_MESH_CALIBRATE
G1 Z50 F240
G1 X2.0 Y10 F3000
M104 S210 ; set final nozzle temp
M190 S65 ; wait for bed temp to stabilize
M109 S210 ; wait for nozzle temp to stabilize
G1 Z0.28 F240
G92 E0
G1 X2.0 Y140 E10 F1500 ; prime the nozzle
G1 X2.3 Y140 F5000
G92 E0
G1 X2.3 Y10 E10 F1200 ; prime the nozzle
G21 ; set units to millimeters
G90 ; use absolute coordinates
M82 ; use absolute distances for extrusion
G92 E0
; Filament gcode
M107
;LAYER_CHANGE
;Z:0.2
;HEIGHT:0.2
;BEFORE_LAYER_CHANGE
;0.2
M117 Layer 1/150 : PLA - KLIPPER

G1 Z.2 F9000
SET_PRINT_STATS_INFO CURRENT_LAYER=1
;AFTER_LAYER_CHANGE
;0.2
G1 E-1.5 F3300
G92 E0
G1 X35.882 Y89.21 F9000
G1 E1.5 F3300
;TYPE:Skirt/Brim
;WIDTH:0.66
G1 F1200
G1 X37.145 Y88.743 E1.56909
G1 X38.472 Y88.501 E1.6383
G1 X39.189 Y88.466 E1.67513
G1 X196.441 Y88.493 E9.74379
G1 X197.854 Y88.742 E9.81741
G1 X199.118 Y89.211 E9.88659
G1 X200.282 Y89.891 E9.95576
G1 X201.31 Y90.764 E10.02496
G1 X202.17 Y91.8 E10.09405
G1 X202.838 Y92.972 E10.16327
G1 X203.291 Y94.241 E10.23241
G1 X203.51 Y95.483 E10.29712
G1 X203.545 Y96.2 E10.33395
G1 X203.545 Y113.312 E11.21197
G1 X203.51 Y114.03 E11.24885
G1 X203.291 Y115.272 E11.31356
G1 X202.837 Y116.54 E11.38267
G1 X202.509 Y117.18 E11.41957
G1 X187.455 Y143.199 E12.96197
G1 X186.594 Y144.237 E13.03117
M73 P0 R175
G1 X185.566 Y145.109 E13.10034
G1 X184.403 Y145.789 E13.16947
G1 X183.139 Y146.257 E13.23863
G1 X181.813 Y146.499 E13.30779
G1 X181.096 Y146.534 E13.34462
G1 X53.274 Y146.507 E19.90322
G1 X51.945 Y146.28 E19.9724
G1 X39.932 Y142.997 E20.6114
G1 X38.04 Y142.279 E20.71523
G3 X32.494 Y137.478 I5.562 J-12.029 E21.09646
G1 X31.615 Y135.906 E21.18887
G3 X30.770 Y133.577 I11.369 J-5.443 E21.31614
G1 X30.429 Y131.753 E21.41135
G1 X30.349 Y129.722 E21.51564
G1 X31.49 Y95.482 E23.27348
G1 X31.709 Y94.241 E23.33814
G1 X32.163 Y92.972 E23.40729
G1 X32.88 Y91.729 E23.48092
G1 X33.752 Y90.702 E23.55005
G1 X34.756 Y89.865 E23.61712
G1 X35.804 Y89.256 E23.67931
G1 X36.113 Y89.787 F9000
G1 F1200
G1 X37.305 Y89.339 E23.74465
G1 X38.525 Y89.116 E23.80829
G1 X39.189 Y89.083 E23.8424
G1 X196.388 Y89.108 E31.90834
G1 X197.695 Y89.339 E31.97644
G1 X198.858 Y89.77 E32.04008
G1 X199.928 Y90.397 E32.10371
G1 X200.874 Y91.2 E32.16738
G1 X201.664 Y92.154 E32.23093
G1 X202.278 Y93.233 E32.29463
G1 X202.695 Y94.4 E32.35822
G3 X202.928 Y96.200 I-7.082 J1.832 E32.45152
G1 X202.928 Y113.312 E33.32954
G3 X202.695 Y115.112 I-7.301 J-0.030 E33.42284
G1 X202.278 Y116.28 E33.48648
G1 X201.975 Y116.871 E33.52056
G1 X186.949 Y142.845 E35.06024
G1 X186.158 Y143.8 E35.12387
G1 X185.213 Y144.604 E35.18753
G1 X184.142 Y145.23 E35.25118
G1 X182.98 Y145.661 E35.31477
G1 X181.759 Y145.884 E35.37846
G1 X181.096 Y145.917 E35.41252
G1 X53.327 Y145.892 E41.9684
G1 X52.105 Y145.684 E42.032
G1 X40.095 Y142.402 E42.67083
G1 X38.275 Y141.708 E42.77077
G3 X32.998 Y137.121 I5.313 J-11.442 E43.13416
G1 X32.167 Y135.631 E43.2217
G3 X31.363 Y133.409 I10.920 J-5.208 E43.34309
G1 X31.043 Y131.697 E43.43245
G1 X30.966 Y129.742 E43.53284
G1 X32.105 Y95.536 E45.28894
G1 X32.305 Y94.4 E45.34813
G1 X32.722 Y93.233 E45.41172
G1 X33.386 Y92.083 E45.47986
G1 X34.188 Y91.138 E45.54346
G1 X35.11 Y90.37 E45.60503
G1 X36.035 Y89.832 E45.65994
; printing object vise_base_a.stl id:0 copy 0
EXCLUDE_OBJECT_START NAME=vise_base_a_stl_id_0_copy_0
G1 E44.15994 F3300
G92 E0
G1 X44.071 Y124.22 F9000
G1 E1.5 F3300
;TYPE:Support material
G1 F1200
G1 X49.037 Y132.821 E2.0096
G1 X48.732 Y133.433 E2.04469
G1 X48.049 Y134.332 E2.10262
G1 X47.21 Y135.088 E2.16057
G1 X46.246 Y135.674 E2.21846
G1 X45.189 Y136.071 E2.27639
G1 X44.076 Y136.264 E2.33435
G1 X42.947 Y136.247 E2.39229
G1 X41.839 Y136.019 E2.45033
G1 X40.793 Y135.589 E2.50836
G1 X39.844 Y134.97 E2.5665
G1 X39.027 Y134.183 E2.62471
G1 X38.396 Y133.294 E2.68065
G3 X43.979 Y124.215 I5.220 J-3.046 E3.35017
G1 X48.25 Y133.608 F9000
G1 F1200
G1 X48.25 Y132.569 E3.40348
G1 X47.564 Y131.382 E3.47383
G1 X47.564 Y134.021 E3.60924
G1 X46.879 Y134.639 E3.65658
G1 X46.879 Y130.194 E3.88465
G1 X46.193 Y129.007 E3.955
G1 X46.193 Y135.056 E4.26538
G3 X45.507 Y135.358 I-1.120 J-1.614 E4.30398
G1 X45.507 Y127.819 E4.69081
G1 X44.822 Y126.632 E4.76113
G1 X44.822 Y135.571 E5.21979
G1 X44.136 Y135.69 E5.25551
G1 X44.136 Y125.444 E5.78124
G1 X43.75 Y124.776 E5.82083
G1 X43.45 Y124.782 E5.83623
G1 X43.45 Y135.699 E6.39639
G3 X42.765 Y135.642 I-0.193 J-1.829 E6.43180
G1 X42.765 Y124.836 E6.98626
G1 X42.079 Y124.981 E7.02224
G1 X42.079 Y135.501 E7.56203
G1 X42.002 Y135.486 E7.56606
G1 X41.394 Y135.235 E7.59981
G1 X41.394 Y125.245 E8.1124
G2 X40.708 Y125.609 I0.625 J2.006 E8.15242
G1 X40.708 Y134.87 E8.62761
G3 X40.022 Y134.370 I0.959 J-2.037 E8.67133
G1 X40.022 Y126.108 E9.09526
G1 X39.448 Y126.661 E9.13616
G1 X39.337 Y126.818 E9.14603
G1 X39.337 Y133.66 E9.4971
G3 X38.651 Y132.560 I3.163 J-2.736 E9.56381
G1 X38.651 Y127.304 E9.8335
G1 E8.3335 F3300
G92 E0
G1 X47.307 Y126.574 F9000
G1 X66.4 Y124.963
G1 X71.419 Y124.54
G1 E1.5 F3300
G1 F1200
G1 X71.983 Y124.592 E1.52906
G1 X73.019 Y124.871 E1.58411
G1 X74.013 Y125.37 E1.64118
G1 X74.887 Y126.057 E1.69822
G1 X75.606 Y126.905 E1.75527
G1 X76.141 Y127.878 E1.81224
G1 X76.471 Y128.938 E1.8692
G1 X76.583 Y130.042 E1.92614
G1 X76.473 Y131.147 E1.98312
G1 X76.144 Y132.207 E2.04007
G1 X75.611 Y133.181 E2.09704
G1 X74.894 Y134.03 E2.15406
G1 X74.021 Y134.718 E2.21109
G1 X73.027 Y135.219 E2.2682
G1 X71.953 Y135.511 E2.32531
G1 X70.841 Y135.582 E2.38248
G1 X69.738 Y135.429 E2.43962
G1 X68.687 Y135.058 E2.49681
G1 X68.026 Y134.661 E2.53637
G1 X68.026 Y125.43 E3.01002
G3 X71.327 Y124.536 I2.951 J4.356 E3.18867
G1 X75.676 Y132.485 F9000
G1 F1200
G1 X75.676 Y128.252 E3.40587
G1 X75.627 Y128.096 E3.41426
G1 X75.146 Y127.221 E3.46549
G1 X74.99 Y127.037 E3.47787
G1 X74.99 Y133.055 E3.78666
G1 X74.506 Y133.628 E3.82515
G1 X74.304 Y133.787 E3.83834
G1 X74.304 Y126.306 E4.22219
G1 X73.714 Y125.841 E4.26074
G1 X73.619 Y125.794 E4.26618
G1 X73.619 Y134.299 E4.70257
G1 X72.933 Y134.644 E4.74197
G1 X72.933 Y125.45 E5.21372
G2 X72.247 Y125.238 I-0.858 J1.560 E5.25067
G1 X72.247 Y134.855 E5.74412
G3 X71.562 Y134.979 I-0.645 J-1.609 E5.78002
G1 X71.562 Y125.111 E6.28635
G1 X70.876 Y125.075 E6.3216
G1 X70.876 Y135.023 E6.83204
G1 X70.191 Y134.931 E6.8675
G1 X70.191 Y125.159 E7.36891
G2 X69.505 Y125.327 I0.279 J2.622 E7.40523
G1 X69.505 Y134.758 E7.88914
G1 X68.925 Y134.553 E7.9207
G1 X68.819 Y134.49 E7.92703
G1 X68.819 Y125.291 E8.39903
G1 E6.89903 F3300
G92 E0
G1 X172.675 Y132.816 F9000
G1 X181.823 Y134.6
G1 X182.1 Y133.499
G1 E1.5 F3300
;TYPE:Perimeter
;WIDTH:0.659999
G1 F1200
G2 X181.044 Y133.219 I-1.046 J1.813 E1.55654
G1 X174.801 Y133.219 E1.87687
G1 X174.196 Y133.305 E1.90822
G1 X174.056 Y133.375 E1.91625
G1 X174.056 Y119.171 E2.64506
G2 X171.571 Y111.019 I-2.558 J-3.675 E3.22267
G1 X84.495 Y111.019 E7.69057
G2 X81.795 Y112.536 I0.039 J3.231 E7.85620
G2 X79.105 Y111.019 I-2.727 J1.692 E8.02162
G1 X67.312 Y111.026 E8.62672
G1 X66.566 Y111.121 E8.66531
M73 P1 R175
G2 X65.013 Y119.220 I0.932 J4.377 E9.20276
G1 X65.018 Y137.021 E10.11614
G1 X62.354 Y137.024 E10.25283
M73 P1 R174
G2 X62.307 Y134.909 I-15.485 J-0.714 E10.36144
G2 X60.199 Y133.219 I-2.107 J0.469 E10.51098
G1 X53.956 Y133.219 E10.83131
G2 X52.900 Y133.499 I-0.010 J2.093 E10.88785
G1 X40.974 Y112.842 E12.11173
G1 X40.967 Y111.276 E12.19208
G1 X45.608 Y111.281 E12.43021
G2 X47.770 Y109.121 I0.002 J-2.160 E12.60404
G1 X47.77 Y105.879 E12.77039
G2 X45.608 Y103.719 I-2.159 J-0.001 E12.94425
G1 X40.965 Y103.724 E13.18248
G1 X40.967 Y101.776 E13.28243
G1 X45.608 Y101.781 E13.52056
G2 X47.770 Y99.616 I0.004 J-2.158 E13.69465
G1 X47.766 Y97.98 E13.77859
G1 X58.223 Y97.979 E14.31514
G1 X58.219 Y99.616 E14.39914
G2 X60.378 Y101.781 I2.159 J0.006 E14.57306
G1 X66.622 Y101.781 E14.89344
G2 X68.781 Y99.616 I-0.001 J-2.160 E15.06738
G1 X68.777 Y97.976 E15.15153
G1 X187.234 Y97.977 E21.2296
G1 X187.23 Y99.616 E21.3137
G2 X189.392 Y101.781 I2.159 J0.006 E21.48779
G1 X194.042 Y101.776 E21.72638
G1 X194.034 Y103.724 E21.82633
G1 X189.392 Y103.719 E22.06451
G2 X187.230 Y105.879 I-0.003 J2.159 E22.23834
G1 X187.23 Y108.781 E22.38724
G1 X187.261 Y109.489 E22.4236
G2 X189.392 Y111.281 I2.130 J-0.370 E22.57847
G1 X194.033 Y111.276 E22.8166
G1 X194.026 Y112.842 E22.89695
G1 X182.145 Y133.421 E24.11621
G1 X182.261 Y134.454 F9000
G1 F1200
G1 X181.817 Y134.043 E24.14725
G2 X181.044 Y133.836 I-0.773 J1.338 E24.18865
G1 X174.801 Y133.836 E24.50898
G2 X173.874 Y134.145 I0.002 J1.552 E24.55976
G1 X173.439 Y134.654 E24.59412
G1 X173.439 Y118.836 E25.40575
G2 X171.571 Y111.636 I-1.942 J-3.339 E25.91951
G1 X84.495 Y111.636 E30.38741
G2 X82.044 Y113.495 I0.025 J2.579 E30.55647
;WIDTH:0.707418
G1 X82.003 Y113.587 E30.56204
;WIDTH:0.754836
G1 X81.963 Y113.679 E30.56798
;WIDTH:0.802255
G1 X81.922 Y113.771 E30.57434
;WIDTH:0.849673
G1 X81.881 Y113.864 E30.58116
;WIDTH:0.897092
G1 X81.841 Y113.956 E30.58829
;WIDTH:0.94451
G1 X81.8 Y114.048 E30.59584
G1 X81.768 Y113.966 E30.60244
;WIDTH:0.903273
G1 X81.736 Y113.885 E30.60867
;WIDTH:0.862036
G1 X81.68 Y113.746 E30.61888
;WIDTH:0.821629
G1 X81.624 Y113.608 E30.62852
;WIDTH:0.781222
G1 X81.568 Y113.47 E30.63766
;WIDTH:0.740814
G1 X81.512 Y113.332 E30.6463
;WIDTH:0.700407
G1 X81.456 Y113.194 E30.65444
;WIDTH:0.659999
G2 X79.105 Y111.636 I-2.385 J1.046 E30.80723
G1 X67.364 Y111.641 E31.40966
G2 X65.630 Y118.873 I0.134 J3.856 E31.92421
G1 X65.636 Y137.637 E32.887
G1 X61.73 Y137.646 E33.08742
G2 X61.705 Y135.043 I-21.163 J-1.098 E33.22104
G2 X60.199 Y133.836 I-1.507 J0.337 E33.32778
G1 X53.956 Y133.836 E33.64811
G2 X53.183 Y134.043 I-0.000 J1.545 E33.68951
G1 X52.739 Y134.454 E33.72055
G1 X40.358 Y113.009 E34.99112
G1 X40.334 Y110.653 E35.11201
G1 X45.609 Y110.664 E35.38267
G2 X47.153 Y109.121 I0.002 J-1.542 E35.50672
G2 X47.129 Y105.606 I-79.319 J-1.216 E35.68709
G2 X45.609 Y104.336 I-1.518 J0.272 E35.79704
G1 X40.327 Y104.348 E36.06806
G2 X40.325 Y101.152 I-36.616 J-1.575 E36.23210
G1 X45.609 Y101.164 E36.50322
G2 X47.153 Y99.618 I0.001 J-1.543 E36.62738
G1 X47.141 Y97.342 E36.74416
G1 X47.668 Y97.363 E36.77122
G1 X58.143 Y97.364 E37.3087
G1 X58.848 Y97.341 E37.34489
G1 X58.836 Y99.617 E37.46167
G2 X60.378 Y101.164 I1.542 J0.005 E37.58585
G1 X66.689 Y101.163 E37.90967
G2 X68.164 Y99.617 I-0.069 J-1.543 E38.03025
G1 X68.153 Y97.348 E38.14667
G1 X69.117 Y97.364 E38.19614
G1 X187.858 Y97.353 E44.28878
G1 X187.847 Y99.618 E44.405
G2 X189.391 Y101.164 I1.543 J0.003 E44.52917
G1 X194.666 Y101.153 E44.79983
G2 X194.676 Y104.348 I49.309 J1.443 E44.96378
G1 X189.391 Y104.336 E45.23496
G2 X187.847 Y105.879 I-0.001 J1.543 E45.35900
G2 X187.869 Y109.384 I48.045 J1.451 E45.53886
G2 X189.391 Y110.664 I1.520 J-0.262 E45.64938
G1 X194.666 Y110.653 E45.92004
G1 X194.642 Y113.009 E46.04093
G1 X182.306 Y134.376 E47.30688
G1 X181.966 Y136.211 F9000
G1 F1200
G1 X181.97 Y135.383 E47.34937
G1 X181.806 Y134.853 E47.37784
G2 X181.044 Y134.453 I-0.763 J0.527 E47.42352
G1 X174.801 Y134.453 E47.74385
G2 X173.984 Y134.944 I0.001 J0.927 E47.79492
;WIDTH:0.703636
G1 X173.94 Y135.031 E47.80028
;WIDTH:0.747272
G1 X173.897 Y135.118 E47.80596
;WIDTH:0.790908
G1 X173.853 Y135.205 E47.81202
;WIDTH:0.834544
G1 X173.81 Y135.292 E47.81841
;WIDTH:0.87818
G1 X173.766 Y135.379 E47.82518
;WIDTH:0.88091
G1 X173.771 Y137.503 E47.97318
;WIDTH:0.882029
G1 X173.772 Y137.558 E47.97702
;WIDTH:0.886343
G1 X173.812 Y138.195 E48.02178
G1 X172.935 Y138.153 E48.08336
G1 X172.933 Y137.504 E48.12888
;WIDTH:0.88091
G1 X172.931 Y135.379 E48.27695
;WIDTH:0.87818
G1 X172.909 Y135.234 E48.28714
;WIDTH:0.834544
G1 X172.888 Y135.089 E48.29678
;WIDTH:0.790908
G1 X172.866 Y134.945 E48.30584
;WIDTH:0.747272
G1 X172.844 Y134.8 E48.31443
;WIDTH:0.703636
G1 X172.822 Y134.655 E48.32249
;WIDTH:0.659999
G1 X172.822 Y118.457 E49.15361
G2 X174.303 Y117.124 I-1.261 J-2.890 E49.25754
G1 X174.632 Y116.342 E49.30107
G2 X171.571 Y112.253 I-3.136 J-0.843 E49.60233
G1 X84.495 Y112.253 E54.07023
G2 X82.553 Y114.195 I0.038 J1.980 E54.22588
G1 X82.553 Y120.553 E54.55211
G1 X81.047 Y120.553 E54.62938
G1 X81.047 Y114.195 E54.95561
G2 X79.105 Y112.253 I-1.980 J0.038 E55.11127
G1 X67.417 Y112.256 E55.71099
G2 X66.247 Y118.492 I0.082 J3.243 E56.16321
G1 X66.253 Y138.254 E57.1772
G1 X61.873 Y138.258 E57.40194
G1 X61.056 Y138.329 E57.44402
G2 X61.119 Y137.503 I-5.868 J-0.863 E57.48655
G1 X61.124 Y135.381 E57.59543
G2 X60.199 Y134.453 I-0.924 J-0.004 E57.66966
G1 X53.956 Y134.453 E57.98999
G2 X53.194 Y134.853 I-0.002 J0.921 E58.03567
G1 X53.03 Y135.383 E58.06414
G1 X53.034 Y136.211 E58.10663
G1 X39.741 Y113.175 E59.47129
G1 X39.731 Y110.863 E59.58992
G1 X39.649 Y109.977 E59.63558
G2 X40.487 Y110.042 I0.904 J-6.216 E59.67873
G1 X45.609 Y110.047 E59.94154
G2 X46.536 Y109.121 I0.001 J-0.926 E60.01586
G2 X46.530 Y105.771 I-256.278 J-1.216 E60.18775
G2 X45.609 Y104.953 I-0.921 J0.109 E60.25647
G2 X40.144 Y104.976 I-2.095 J151.450 E60.53689
G1 X39.643 Y105.024 E60.56271
G2 X39.662 Y100.479 I-26.191 J-2.382 E60.79623
G2 X40.487 Y100.542 I0.893 J-6.260 E60.83870
G1 X45.609 Y100.547 E61.10151
G2 X46.536 Y99.619 I0.002 J-0.925 E61.17598
G1 X46.529 Y97.448 E61.28738
G1 X46.469 Y96.687 E61.32655
G1 X47.668 Y96.746 E61.38815
G1 X58.143 Y96.747 E61.92563
G2 X59.522 Y96.671 I-0.255 J-17.174 E61.99651
G2 X59.458 Y97.497 I6.025 J0.882 E62.03904
G1 X59.453 Y99.619 E62.14792
G2 X60.378 Y100.547 I0.927 J0.001 E62.22226
G1 X66.701 Y100.544 E62.5467
G2 X67.547 Y99.619 I-0.080 J-0.923 E62.61693
G1 X67.528 Y97.226 E62.73972
G1 X67.48 Y96.68 E62.76784
G2 X69.117 Y96.747 I1.512 J-16.908 E62.85192
G1 X186.833 Y96.747 E68.89197
G2 X188.531 Y96.687 I0.357 J-13.955 E68.97919
G1 X188.469 Y97.497 E69.02087
G1 X188.464 Y99.619 E69.12975
G2 X189.391 Y100.547 I0.926 J0.002 E69.20418
G1 X194.513 Y100.542 E69.46699
G1 X195.33 Y100.48 E69.50903
G1 X195.283 Y101.079 E69.53986
G2 X195.274 Y104.111 I79.506 J1.752 E69.69544
G1 X195.36 Y105.024 E69.74249
G2 X194.513 Y104.958 I-0.918 J6.313 E69.78610
G1 X189.391 Y104.953 E70.04891
G2 X188.464 Y105.879 I-0.002 J0.925 E70.12326
G1 X188.467 Y109.201 E70.29371
G2 X189.391 Y110.047 I0.924 J-0.082 E70.36389
G1 X194.451 Y110.042 E70.62352
G1 X195.351 Y109.977 E70.66982
G1 X195.269 Y110.863 E70.71548
G1 X195.259 Y113.175 E70.83411
M73 P1 R173
G1 X182.011 Y136.133 E72.19415
G1 E70.69415 F3300
G92 E0
G1 X182.264 Y136.205 F9000
G3 X182.459 Y135.638 I4.148 J1.109
G1 X196.136 Y108.932
G3 X195.411 Y103.528 I137.725 J-21.228
G3 X195.430 Y101.563 I25.399 J-0.737
G1 X196.136 Y96.65
G1 X195.361 Y95.875
G2 X189.424 Y95.880 I-2.745 J265.386
G1 X189.427 Y96.103
G1 E1.5 F3300
;TYPE:External perimeter
;WIDTH:0.805018
G1 F1200
G1 X189.492 Y96.1 E1.50412
;WIDTH:0.799286
G1 X195.533 Y96.104 E1.88405
;WIDTH:0.830174
G1 X195.638 Y96.131 E1.89115
;WIDTH:0.867551
G1 X195.744 Y96.159 E1.89867
;WIDTH:0.904928
G1 X195.849 Y96.186 E1.90644
G1 X195.87 Y96.284 E1.91362
;WIDTH:0.86995
G1 X195.89 Y96.381 E1.92043
;WIDTH:0.834971
