; generated by PrusaSlicer 2.6.0+win64 on 2023-07-02 at 11:09:33 UTC
; Postprocessed by [ArcWelder](https://github.com/FormerLurker/ArcWelderLib)
; Copyright(C) 2021 - Brad Hochgesang
; Version: 1.2.0, Branch: HEAD, BuildDate: 2021-11-21T20:25:43Z
; resolution=0.05mm
; path_tolerance=5.0%
; max_radius=9999.00mm
; default_xyz_precision=3
; default_e_precision=5
; extrusion_rate_variance_percent=5.0%








; 

; external perimeters extrusion width = 0.66mm
; perimeters extrusion width = 0.66mm
; infill extrusion width = 0.66mm
; solid infill extrusion width = 0.66mm
; top infill extrusion width = 0.40mm
; support material extrusion width = 0.66mm
; first layer extrusion width = 0.66mm

M73 P0 R182


; Pre-Processed for Cancel-Object support by preprocess_cancellation v0.2.0
; 1 known objects
EXCLUDE_OBJECT_DEFINE NAME=vise_base_b_stl_id_0_copy_0 CENTER=105.139,122.042 POLYGON=[[38.755,95.612],[38.755,139.234],[196.245,139.234],[196.245,95.612]]
;TYPE:Custom
G90 ; use absolute coordinates
M83 ; extruder relative mode
M104 S205 ; set temporary nozzle temp to prevent oozing during homing
M140 S65 ; set final bed temp
G4 S30 ; allow partial nozzle warmup
G28 ; home all axis
BED_MESH_CALIBRATE
G1 Z50 F240
G1 X2.0 Y10 F3000
M104 S210 ; set final nozzle temp
M190 S65 ; wait for bed temp to stabilize
M109 S210 ; wait for nozzle temp to stabilize
M73 P0 R181
G1 Z0.28 F240
G92 E0
G1 X2.0 Y140 E10 F1500 ; prime the nozzle
G1 X2.3 Y140 F5000
G92 E0
G1 X2.3 Y10 E10 F1200 ; prime the nozzle
G21 ; set units to millimeters
G90 ; use absolute coordinates
M82 ; use absolute distances for extrusion
G92 E0
; Filament gcode
M107
;LAYER_CHANGE
;Z:0.2
;HEIGHT:0.2
;BEFORE_LAYER_CHANGE
;0.2
M117 Layer 1/117 : PLA - KLIPPER

G1 Z.2 F9000
SET_PRINT_STATS_INFO CURRENT_LAYER=1
;AFTER_LAYER_CHANGE
;0.2
G1 E-2 F3300
G92 E0
G1 X40 Y89.42 F9000
G1 E2 F3300
;TYPE:Skirt/Brim
;WIDTH:0.66
G1 F1200
G3 X46.045 Y88.201 I5.591 J12.128 E2.31916
G1 X181.11 Y88.466 E9.24941
G1 X181.813 Y88.501 E9.28553
G1 X183.055 Y88.72 E9.35024
G1 X184.403 Y89.211 E9.42385
G1 X185.495 Y89.841 E9.48854
G1 X186.532 Y90.701 E9.55767
G1 X187.405 Y91.729 E9.62687
G1 X202.509 Y117.82 E11.17375
G3 X203.269 Y119.644 I-6.953 J3.967 E11.27532
G1 X203.51 Y120.97 E11.34447
G1 X203.545 Y121.688 E11.38135
G1 X203.545 Y138.8 E12.25937
G1 X203.51 Y139.518 E12.29625
G1 X203.291 Y140.759 E12.36091
G1 X202.801 Y142.107 E12.4345
G1 X202.17 Y143.2 E12.49926
G1 X201.31 Y144.236 E12.56835
G1 X200.21 Y145.159 E12.64203
G1 X199.039 Y145.826 E12.71118
G1 X197.855 Y146.257 E12.77583
G1 X196.528 Y146.499 E12.84504
G1 X195.811 Y146.534 E12.88187
G1 X39.189 Y146.534 E20.9182
G1 X38.471 Y146.499 E20.95508
G1 X37.145 Y146.257 E21.02424
G1 X35.882 Y145.789 E21.09335
G1 X34.718 Y145.109 E21.16252
G1 X33.69 Y144.236 E21.23172
G1 X32.853 Y143.233 E21.29875
G1 X32.199 Y142.107 E21.36556
G1 X31.731 Y140.844 E21.43467
G1 X31.49 Y139.517 E21.50387
G1 X31.455 Y138.8 E21.5407
G1 X31.455 Y121.688 E22.41872
G1 X32.307 Y100.917 E23.48538
G1 X32.488 Y99.228 E23.57254
G1 X32.92 Y97.445 E23.66667
G3 X39.920 Y89.462 I12.625 J4.010 E24.22698
G1 X40.206 Y90.006 F9000
G1 F1200
G3 X46.044 Y88.818 I5.386 J11.530 E24.53542
G1 X181.109 Y89.083 E31.46567
G1 X181.759 Y89.116 E31.49906
M73 P0 R180
G1 X182.895 Y89.316 E31.55825
G1 X184.142 Y89.77 E31.62634
G1 X185.141 Y90.347 E31.68553
G1 X186.096 Y91.138 E31.74916
G1 X186.899 Y92.083 E31.81279
G1 X201.975 Y118.129 E33.35695
G3 X202.673 Y119.804 I-6.353 J3.631 E33.45023
G1 X202.895 Y121.024 E33.51386
G1 X202.928 Y121.688 E33.54797
G1 X202.928 Y138.8 E34.42599
G3 X202.695 Y140.600 I-7.301 J-0.030 E34.51929
G1 X202.241 Y141.846 E34.58733
G1 X201.664 Y142.846 E34.64657
G1 X200.874 Y143.8 E34.71012
G1 X199.856 Y144.654 E34.7783
G1 X198.816 Y145.25 E34.8398
G1 X197.695 Y145.661 E34.90106
G1 X196.475 Y145.884 E34.9647
G1 X195.811 Y145.917 E34.99881
G1 X39.189 Y145.917 E43.03514
G1 X38.525 Y145.884 E43.06925
G1 X37.305 Y145.661 E43.13289
G1 X36.142 Y145.23 E43.19653
G1 X35.072 Y144.604 E43.26014
G1 X34.127 Y143.8 E43.3238
G1 X33.359 Y142.879 E43.38533
G1 X32.759 Y141.846 E43.44663
G1 X32.327 Y140.684 E43.51024
G1 X32.105 Y139.463 E43.57392
G1 X32.072 Y138.8 E43.60798
G1 X32.072 Y121.688 E44.486
G1 X32.924 Y100.943 E45.55133
G1 X33.094 Y99.344 E45.63384
G1 X33.514 Y97.614 E45.72519
G3 X40.126 Y90.048 I12.024 J3.836 E46.25526
; printing object vise_base_b.stl id:0 copy 0
EXCLUDE_OBJECT_START NAME=vise_base_b_stl_id_0_copy_0
G1 E44.25526 F3300
G92 E0
G1 X47.142 Y95.628 F9000
G1 E2 F3300
;TYPE:Support material
G1 F1200
G1 X48.198 Y96.023 E2.05785
G1 X49.162 Y96.608 E2.11571
G1 X50.001 Y97.363 E2.17362
G1 X50.685 Y98.26 E2.2315
G1 X50.97 Y98.83 E2.2642
G1 X45.973 Y107.485 E2.77699
G1 X44.881 Y107.463 E2.83303
G1 X43.78 Y107.234 E2.89073
G1 X42.74 Y106.803 E2.94849
G1 X41.798 Y106.187 E3.00624
G1 X40.986 Y105.406 E3.06405
G1 X40.333 Y104.487 E3.1219
G1 X39.882 Y103.505 E3.17735
G3 X47.051 Y95.612 I5.691 J-2.033 E3.84768
G1 X50.307 Y99.423 F9000
G1 F1200
G1 X50.307 Y98.746 E3.88242
G1 X50.211 Y98.555 E3.89339
G1 X49.621 Y97.781 E3.94333
G1 X49.621 Y100.055 E4.06001
G1 X48.936 Y101.243 E4.13037
G1 X48.936 Y97.151 E4.34033
G1 X48.83 Y97.056 E4.34763
G1 X48.25 Y96.704 E4.38244
G1 X48.25 Y102.431 E4.67629
G1 X47.564 Y103.618 E4.74664
G1 X47.564 Y96.379 E5.11808
G2 X46.879 Y96.146 I-0.950 J1.670 E5.15530
G1 X46.879 Y104.806 E5.59965
G1 X46.193 Y105.993 E5.67
G1 X46.193 Y96.027 E6.18136
G2 X45.507 Y95.999 I-0.416 J1.773 E6.21672
G1 X45.507 Y106.92 E6.77708
G3 X44.822 Y106.884 I-0.246 J-1.856 E6.81236
G1 X44.822 Y96.037 E7.36892
G1 X44.136 Y96.178 E7.40485
G1 X44.136 Y106.741 E7.94684
G3 X43.450 Y106.496 I0.301 J-1.926 E7.98434
G1 X43.45 Y96.424 E8.50114
G2 X42.765 Y96.765 I0.542 J1.948 E8.54058
G1 X42.765 Y106.156 E9.02244
G1 X42.146 Y105.751 E9.0604
G1 X42.079 Y105.687 E9.06515
G1 X42.079 Y97.234 E9.49888
G1 X41.394 Y97.9 E9.5479
G1 X41.394 Y105.021 E9.91328
G1 X40.816 Y104.208 E9.96446
G1 X40.708 Y103.973 E9.97773
G1 X40.708 Y98.386 E10.2644
G1 E8.2644 F3300
G92 E0
G1 X52.218 Y99.921 F9000
G1 X52.541 Y99.362
G1 X53.918 Y95.884
G1 X61.352 Y96.227
G1 X66.4 Y101.813
G1 X71.592 Y102.506
G1 E2 F3300
G1 F1200
G1 X72.203 Y102.632 E2.03201
G1 X73.219 Y103.052 E2.08842
G1 X74.15 Y103.699 E2.14659
G1 X74.921 Y104.528 E2.20468
G1 X75.498 Y105.502 E2.26277
G1 X75.854 Y106.576 E2.32083
G1 X75.974 Y107.701 E2.37888
G1 X75.852 Y108.825 E2.43689
G1 X75.493 Y109.899 E2.49499
G1 X74.914 Y110.871 E2.55304
G1 X74.157 Y111.682 E2.60996
G3 X73.182 Y112.354 I-9.167 J-12.257 E2.67073
G1 X72.16 Y112.774 E2.72742
G1 X71.044 Y112.972 E2.78558
G1 X69.911 Y112.926 E2.84376
G1 X68.815 Y112.641 E2.90187
G1 X68.026 Y112.241 E2.94726
G1 X68.026 Y103.148 E3.41383
G1 X68.821 Y102.746 E3.45954
G1 X69.92 Y102.462 E3.51778
G1 X71.015 Y102.42 E3.57401
G1 X71.5 Y102.492 E3.59917
G1 X74.99 Y110.201 F9000
G1 F1200
G1 X74.99 Y105.735 E3.82832
G1 X74.474 Y104.862 E3.88035
G1 X74.304 Y104.68 E3.89313
G1 X74.304 Y110.71 E4.20253
G1 X73.789 Y111.262 E4.24127
G1 X73.619 Y111.384 E4.25201
G1 X73.619 Y104.006 E4.63058
G1 X72.933 Y103.535 E4.67328
G1 X72.933 Y111.853 E5.10008
G1 X72.247 Y112.138 E5.1382
G1 X72.247 Y103.251 E5.5942
G2 X71.562 Y103.067 I-0.822 J1.694 E5.63074
G1 X71.562 Y112.316 E6.10531
G3 X70.876 Y112.409 I-0.558 J-1.540 E6.14096
G1 X70.876 Y102.981 E6.62471
G1 X70.191 Y103.007 E6.65988
G1 X70.191 Y112.382 E7.14091
G3 X69.505 Y112.247 I-0.033 J-1.644 E7.17695
G1 X69.505 Y103.142 E7.64413
G2 X68.819 Y103.369 I0.173 J1.673 E7.68139
G1 X68.819 Y112.332 E8.14128
G1 E6.14128 F3300
G92 E0
G1 X66.4 Y115.169 F9000
G1 X47.766 Y137.02
G1 E2 F3300
;TYPE:Perimeter
;WIDTH:0.659999
G1 F1200
G1 X47.77 Y135.384 E2.08394
G2 X45.608 Y133.219 I-2.159 J-0.006 E2.25804
G1 X40.96 Y133.224 E2.49653
G1 X40.966 Y131.276 E2.59648
G1 X45.608 Y131.281 E2.83466
G2 X47.770 Y129.121 I0.003 J-2.159 E3.00848
G2 X47.743 Y125.539 I-76.297 J-1.216 E3.19229
G2 X45.608 Y123.719 I-2.132 J0.339 E3.34862
G1 X40.966 Y123.724 E3.5868
G1 X40.969 Y122.167 E3.66669
G1 X52.9 Y101.501 E4.8911
G2 X53.956 Y101.781 I1.046 J-1.813 E4.94764
G1 X60.199 Y101.781 E5.26797
G2 X62.359 Y99.621 I0.000 J-2.160 E5.44172
G1 X62.354 Y97.981 E5.52587
G1 X65.012 Y97.981 E5.66225
G1 X65.013 Y115.781 E6.57557
G2 X67.495 Y123.981 I2.487 J3.723 E7.16101
G1 X79.105 Y123.981 E7.75672
G2 X81.805 Y122.464 I-0.039 J-3.231 E7.92235
G2 X84.495 Y123.981 I2.723 J-1.686 E8.08776
G1 X171.571 Y123.981 E12.55566
G2 X175.890 Y118.665 I-0.084 J-4.481 E12.95564
M73 P1 R180
G1 X175.621 Y117.743 E13.00492
G2 X174.056 Y115.829 I-4.113 J1.766 E13.13336
G1 X174.056 Y101.625 E13.86217
G1 X174.196 Y101.695 E13.8702
G1 X174.801 Y101.781 E13.90155
G1 X181.044 Y101.781 E14.22188
G2 X182.099 Y101.501 I0.011 J-2.087 E14.27837
G1 X194.031 Y122.179 E15.50334
G1 X194.034 Y123.724 E15.58261
G1 X189.392 Y123.719 E15.82079
G2 X187.230 Y125.879 I-0.004 J2.158 E15.99464
G1 X187.23 Y129.121 E16.16099
G2 X189.392 Y131.281 I2.159 J0.001 E16.33485
G1 X194.035 Y131.276 E16.57308
G1 X194.033 Y133.224 E16.67303
G1 X189.392 Y133.219 E16.91116
G2 X187.230 Y135.384 I-0.004 J2.158 E17.08526
G1 X187.234 Y137.023 E17.16936
G1 X68.777 Y137.024 E23.24743
G1 X68.781 Y135.384 E23.33158
G2 X66.622 Y133.219 I-2.157 J-0.008 E23.50552
G1 X60.407 Y133.219 E23.82441
G2 X58.219 Y135.384 I-0.029 J2.159 E23.99982
G1 X58.223 Y137.012 E24.08335
G1 X47.856 Y137.02 E24.61528
G1 X47.148 Y137.647 F9000
G1 F1200
G1 X47.153 Y135.382 E24.7315
G2 X45.609 Y133.836 I-1.543 J-0.003 E24.85567
G1 X40.335 Y133.847 E25.12628
G2 X40.324 Y130.652 I-55.057 J-1.408 E25.29026
G1 X45.609 Y130.664 E25.56144
G2 X47.153 Y129.121 I0.001 J-1.543 E25.68549
G1 X47.149 Y125.764 E25.85774
G2 X45.609 Y124.336 I-1.539 J0.116 E25.97582
G1 X40.334 Y124.347 E26.24648
G1 X40.352 Y122.001 E26.36686
G1 X52.739 Y100.546 E27.63803
G1 X53.183 Y100.957 E27.66907
G1 X53.624 Y101.128 E27.69334
M73 P1 R179
G1 X53.956 Y101.164 E27.71047
G1 X60.38 Y101.153 E28.04009
G2 X61.742 Y99.621 I-0.182 J-1.533 E28.15480
G1 X61.73 Y97.345 E28.27158
G2 X65.629 Y97.364 I2.253 J-62.169 E28.47165
G1 X65.63 Y116.127 E29.43439
G2 X67.495 Y123.364 I1.869 J3.377 E29.95567
G1 X79.105 Y123.364 E30.55138
G2 X81.556 Y121.505 I-0.025 J-2.579 E30.72044
;WIDTH:0.707418
G1 X81.597 Y121.413 E30.72601
;WIDTH:0.754836
G1 X81.637 Y121.321 E30.73195
;WIDTH:0.802254
G1 X81.678 Y121.229 E30.73831
;WIDTH:0.849672
G1 X81.719 Y121.136 E30.74513
;WIDTH:0.89709
G1 X81.759 Y121.044 E30.75226
;WIDTH:0.944508
G1 X81.8 Y120.952 E30.75981
G1 X81.832 Y121.034 E30.76641
;WIDTH:0.903272
G1 X81.864 Y121.115 E30.77264
;WIDTH:0.862036
G1 X81.92 Y121.254 E30.78285
;WIDTH:0.821629
G1 X81.976 Y121.392 E30.79249
;WIDTH:0.781222
G1 X82.032 Y121.53 E30.80163
;WIDTH:0.740814
G1 X82.088 Y121.668 E30.81027
;WIDTH:0.700407
G1 X82.144 Y121.806 E30.81841
;WIDTH:0.659999
G2 X84.495 Y123.364 I2.382 J-1.042 E30.97122
G1 X171.571 Y123.364 E35.43912
G2 X173.439 Y116.164 I-0.087 J-3.865 E35.95277
G1 X173.439 Y100.346 E36.7644
G1 X173.874 Y100.855 E36.79876
G2 X174.801 Y101.164 I0.929 J-1.243 E36.84954
G1 X181.044 Y101.164 E37.16987
G2 X181.817 Y100.957 I0.000 J-1.545 E37.21127
G1 X182.261 Y100.547 E37.24228
G1 X194.648 Y122.013 E38.51393
G1 X194.666 Y124.347 E38.63369
G1 X189.391 Y124.336 E38.90435
G2 X187.847 Y125.879 I-0.001 J1.543 E39.02839
G1 X187.847 Y128.869 E39.18181
G2 X189.391 Y130.664 I1.596 J0.188 E39.31873
G1 X194.673 Y130.652 E39.58975
G2 X194.675 Y133.848 I36.616 J1.575 E39.75379
G1 X189.391 Y133.836 E40.02491
G2 X187.847 Y135.382 I-0.001 J1.543 E40.14907
G1 X187.848 Y137.643 E40.26508
G1 X68.163 Y137.647 E46.40616
G1 X68.164 Y135.382 E46.52238
G2 X66.622 Y133.836 I-1.543 J-0.003 E46.64650
G2 X60.174 Y133.849 I-2.772 J223.951 E46.97736
G2 X58.836 Y135.382 I0.206 J1.530 E47.09096
G1 X58.83 Y137.658 E47.20774
G1 X58.143 Y137.636 E47.24301
G1 X47.238 Y137.646 E47.80255
G1 X46.462 Y138.314 F9000
G1 F1200
G1 X46.531 Y137.646 E47.83701
G1 X46.536 Y135.381 E47.95323
G2 X45.609 Y134.453 I-0.926 J-0.002 E48.02766
G1 X40.487 Y134.458 E48.29047
G1 X39.67 Y134.52 E48.33251
G1 X39.717 Y133.924 E48.36319
G1 X39.731 Y130.973 E48.51461
G1 X39.64 Y129.976 E48.56598
G2 X40.487 Y130.042 I0.918 J-6.313 E48.60959
G1 X45.609 Y130.047 E48.8724
G2 X46.536 Y129.121 I0.002 J-0.925 E48.94676
G1 X46.533 Y125.81 E49.11665
G2 X45.609 Y124.953 I-0.922 J0.068 E49.18738
G1 X40.553 Y124.958 E49.44681
G1 X39.649 Y125.023 E49.49331
G1 X39.731 Y124.135 E49.53907
G1 X39.736 Y121.835 E49.65708
G1 X53.034 Y98.789 E51.02232
G1 X53.03 Y99.617 E51.06481
G1 X53.194 Y100.147 E51.09328
G2 X53.956 Y100.547 I0.763 J-0.527 E51.13896
G1 X60.199 Y100.547 E51.45929
G2 X61.124 Y99.621 I0.001 J-0.924 E51.53342
G1 X61.118 Y97.448 E51.64492
G1 X61.057 Y96.684 E51.68425
G2 X62.336 Y96.747 I1.032 J-7.940 E51.74999
G1 X66.246 Y96.747 E51.95061
G1 X66.247 Y116.508 E52.96455
G2 X67.495 Y122.747 I1.251 J2.994 E53.42095
G1 X79.105 Y122.747 E54.01666
G2 X81.047 Y120.805 I-0.038 J-1.980 E54.17232
G1 X81.047 Y114.447 E54.49855
G1 X82.553 Y114.447 E54.57582
G1 X82.553 Y120.805 E54.90205
G2 X84.495 Y122.747 I1.980 J-0.038 E55.05771
G1 X171.571 Y122.747 E59.52561
G2 X173.256 Y122.223 I-0.068 J-3.188 E59.61719
G1 X173.909 Y121.666 E59.66123
G2 X172.822 Y116.543 I-2.396 J-2.169 E59.97413
G1 X172.822 Y101.072 E60.76795
;WIDTH:0.706934
G1 X172.846 Y100.345 E60.80811
;WIDTH:0.752497
G1 X172.868 Y100.227 E60.81519
;WIDTH:0.798059
G1 X172.891 Y100.11 E60.82268
;WIDTH:0.843622
G1 X172.914 Y99.992 E60.83068
;WIDTH:0.889184
G2 X172.931 Y99.621 I-0.836 J-0.224 E60.85695
;WIDTH:0.880909
G1 X172.933 Y97.496 E61.00502
;WIDTH:0.882027
G1 X172.933 Y97.419 E61.01039
;WIDTH:0.886341
G1 X172.935 Y96.847 E61.05051
G1 X173.812 Y96.805 E61.11209
G1 X173.771 Y97.497 E61.16071
;WIDTH:0.880909
G1 X173.766 Y99.619 E61.30857
;WIDTH:0.889184
G2 X173.823 Y99.868 I0.236 J0.077 E61.32712
;WIDTH:0.843622
G1 X173.87 Y99.934 E61.33251
;WIDTH:0.798059
G1 X173.916 Y100 E61.33756
;WIDTH:0.752497
G1 X173.963 Y100.067 E61.34239
;WIDTH:0.706934
G1 X174.245 Y100.361 E61.36488
;WIDTH:0.659999
G2 X174.801 Y100.547 I0.556 J-0.737 E61.39535
G1 X181.044 Y100.547 E61.71568
G2 X181.806 Y100.147 I0.002 J-0.921 E61.76136
G1 X181.97 Y99.617 E61.78983
G1 X181.966 Y98.789 E61.83232
G1 X195.264 Y121.848 E63.19813
G1 X195.269 Y124.135 E63.31548
G1 X195.351 Y125.023 E63.36124
G2 X194.513 Y124.958 I-0.904 J6.216 E63.40439
G1 X189.391 Y124.953 E63.6672
G2 X188.464 Y125.879 I-0.001 J0.926 E63.74152
G1 X188.467 Y129.196 E63.91172
G2 X189.391 Y130.047 I0.922 J-0.074 E63.98212
G2 X194.856 Y130.024 I2.095 J-151.450 E64.26254
G1 X195.357 Y129.976 E64.28836
G2 X195.338 Y134.521 I26.191 J2.382 E64.52188
G2 X194.513 Y134.458 I-0.893 J6.260 E64.56435
G1 X189.391 Y134.453 E64.82716
G2 X188.464 Y135.381 I-0.002 J0.925 E64.90162
G1 X188.475 Y137.746 E65.02297
G1 X188.538 Y138.314 E65.05229
G2 X186.833 Y138.253 I-1.354 J13.996 E65.13987
G1 X69.117 Y138.253 E71.17992
G2 X67.472 Y138.320 I-0.292 J13.066 E71.26443
G1 X67.542 Y137.646 E71.2992
G1 X67.547 Y135.381 E71.41542
G2 X66.622 Y134.453 I-0.925 J-0.003 E71.48978
G1 X60.338 Y134.454 E71.81221
G2 X59.453 Y135.381 I0.040 J0.924 E71.88441
G1 X59.464 Y137.746 E72.00576
G1 X59.529 Y138.33 E72.03591
G2 X58.143 Y138.253 I-1.580 J15.928 E72.10715
G1 X47.668 Y138.254 E72.64463
G1 X46.552 Y138.308 E72.70196
G1 E70.70196 F3300
G92 E0
G1 X46.753 Y138.775 F9000
G3 X47.625 Y138.400 I80.434 J185.834
G1 X58.106 Y138.4
G1 X58.605 Y138.496
G1 X60.602 Y139.125
G1 X68.088 Y138.636
G1 X68.587 Y138.407
G1 X194.002 Y119.354
G1 X182.452 Y99.35
G1 X181.082 Y95.884
G2 X174.835 Y95.881 I-3.220 J200.245
G1 X174.838 Y96.103
G1 E2 F3300
;TYPE:External perimeter
;WIDTH:0.805734
G1 F1200
G1 X174.904 Y96.1 E2.00419
;WIDTH:0.799998
G1 X180.944 Y96.1 E2.38442
;WIDTH:0.831116
G1 X181.146 Y96.14 E2.39792
G1 X181.299 Y96.349 E2.4149
G1 E.4149 F3300
G92 E0
G1 X181.481 Y96.251 F9000
G1 X187.375 Y138.4
G1 X69.086 Y138.4
G1 X68.587 Y138.407
G1 X66.092 Y139.125
G1 X59.104 Y138.72
G2 X58.106 Y138.400 I-1.177 J1.953
G1 X47.625 Y138.4
G1 X46.127 Y139.013
G1 X45.66 Y139.112
G1 X45.606 Y138.854
G1 E2 F3300
;WIDTH:0.805736
G1 F1200
G1 X45.652 Y138.791 E2.00495
