; generated by PrusaSlicer 2.6.0+win64 on 2023-07-08 at 11:40:15 UTC
; Postprocessed by [ArcWelder](https://github.com/FormerLurker/ArcWelderLib)
; Copyright(C) 2021 - Brad Hochgesang
; Version: 1.2.0, Branch: HEAD, BuildDate: 2021-11-21T20:25:43Z
; resolution=0.05mm
; path_tolerance=5.0%
; max_radius=9999.00mm
; default_xyz_precision=3
; default_e_precision=5
; extrusion_rate_variance_percent=5.0%








; 

; external perimeters extrusion width = 0.60mm
; perimeters extrusion width = 0.60mm
; infill extrusion width = 0.60mm
; solid infill extrusion width = 0.60mm
; top infill extrusion width = 0.40mm
; first layer extrusion width = 0.60mm

M73 P0 R23


; Pre-Processed for Cancel-Object support by preprocess_cancellation v0.2.0
; 1 known objects
EXCLUDE_OBJECT_DEFINE NAME=Whistle_stl_id_0_copy_0 CENTER=116.514,121.237 POLYGON=[[100.176,107.426],[100.176,127.574],[134.824,127.574],[134.824,107.426]]
;TYPE:Custom
G90 ; use absolute coordinates
M83 ; extruder relative mode
M104 S205 ; set temporary nozzle temp to prevent oozing during homing
M140 S65 ; set final bed temp
G4 S30 ; allow partial nozzle warmup
G28 ; home all axis
BED_MESH_CALIBRATE
G1 Z50 F240
G1 X2.0 Y10 F3000
M104 S210 ; set final nozzle temp
M190 S65 ; wait for bed temp to stabilize
M109 S210 ; wait for nozzle temp to stabilize
M73 P0 R22
G1 Z0.28 F240
G92 E0
G1 X2.0 Y140 E10 F1500 ; prime the nozzle
M73 P1 R22
G1 X2.3 Y140 F5000
G92 E0
M73 P2 R22
G1 X2.3 Y10 E10 F1200 ; prime the nozzle
G21 ; set units to millimeters
G90 ; use absolute coordinates
M82 ; use absolute distances for extrusion
G92 E0
; Filament gcode
M107
;LAYER_CHANGE
;Z:0.16
;HEIGHT:0.16
;BEFORE_LAYER_CHANGE
;0.16
M117 Layer 1/109 : PLA - KLIPPER

G1 Z.16 F7800
SET_PRINT_STATS_INFO CURRENT_LAYER=1
;AFTER_LAYER_CHANGE
;0.16
G1 E-.8 F2400
G92 E0
G1 X98.124 Y104.936 F7800
G1 E.8 F2400
;TYPE:Skirt/Brim
;WIDTH:0.6
G1 F1200
G1 X99.39 Y103.819 E.86353
G1 X101.561 Y102.329 E.96261
G1 X103.645 Y101.295 E1.05015
G1 X106.098 Y100.49 E1.14729
G1 X108.383 Y100.09 E1.23458
G1 X110.997 Y100.016 E1.33298
G1 X113.305 Y100.281 E1.4204
G1 X115.54 Y100.841 E1.5071
G3 X119.758 Y102.819 I-5.610 J17.450 E1.68281
G1 X139.319 Y117.013 E2.59221
G1 X140.983 Y118.715 E2.68178
G1 X141.995 Y120.87 E2.77136
G1 X142.255 Y122.78 E2.84389
G1 X142.255 Y127.874 E3.03557
G1 X141.858 Y130.221 E3.12514
G1 X140.711 Y132.306 E3.21468
G1 X138.941 Y133.898 E3.30426
M73 P3 R22
G1 X136.746 Y134.819 E3.39383
G1 X135.124 Y135.006 E3.45527
G1 X110.266 Y135.006 E4.39063
G1 X108.266 Y134.892 E4.46601
G3 X96.929 Y128.864 I1.872 J-17.195 E4.96101
G1 X95.393 Y126.728 E5.06001
G1 X94.213 Y124.449 E5.15658
G1 X93.451 Y122.322 E5.2416
G1 X92.903 Y119.751 E5.34052
G1 X92.747 Y117.438 E5.42775
G1 X92.941 Y114.845 E5.52559
G1 X93.45 Y112.578 E5.61302
G1 X94.374 Y110.152 E5.7107
G1 X95.498 Y108.129 E5.79778
G3 X98.062 Y105.000 I14.620 J9.365 E5.95030
G1 E5.1503 F2400
G92 E0
G1 X98.468 Y105.392 F7800
G1 E.8 F2400
G1 F1200
G1 X99.732 Y104.27 E.8636
G1 X101.859 Y102.809 E.9607
G1 X103.847 Y101.824 E1.04418
G1 X106.249 Y101.035 E1.13931
G1 X108.427 Y100.654 E1.22251
G1 X110.985 Y100.581 E1.3188
G1 X113.187 Y100.834 E1.4022
G1 X115.379 Y101.383 E1.48723
G3 X119.468 Y103.305 I-5.479 J16.967 E1.65765
G1 X138.987 Y117.471 E2.56516
G1 X140.571 Y119.114 E2.65104
G1 X141.497 Y121.201 E2.73695
G1 X141.69 Y122.78 E2.79681
G1 X141.69 Y127.874 E2.98849
G1 X141.293 Y130.123 E3.07442
G1 X140.15 Y132.099 E3.16032
G1 X138.399 Y133.565 E3.24625
G1 X135.124 Y134.44 E3.3738
G1 X108.957 Y134.388 E4.35842
G3 X97.783 Y128.983 I1.218 J-16.771 E4.83686
G1 X96.407 Y127.249 E4.92015
G3 X93.998 Y122.180 I14.456 J-9.977 E5.13219
G1 X93.462 Y119.659 E5.22917
G1 X93.313 Y117.453 E5.31237
G1 X93.503 Y114.915 E5.40814
G1 X93.987 Y112.754 E5.49147
G1 X94.893 Y110.379 E5.58712
G1 X95.965 Y108.448 E5.67023
G3 X98.406 Y105.457 I13.908 J8.859 E5.81578
; printing object Whistle.stl id:0 copy 0
EXCLUDE_OBJECT_START NAME=Whistle_stl_id_0_copy_0
G1 E5.01578 F2400
G92 E0
G1 X134.824 Y127.574 F7800
G1 E.8 F2400
;TYPE:External perimeter
G1 F1200
G1 X110.273 Y127.574 E1.72381
G3 X100.638 Y120.433 I-0.082 J-9.960 E2.20812
G3 X103.887 Y109.735 I9.480 J-2.963 E2.65490
G3 X108.069 Y107.655 I6.384 J7.591 E2.83222
M73 P4 R22
G3 X119.216 Y112.834 I2.104 J10.057 E3.32836
G3 X120.166 Y115.667 I-8.765 J4.515 E3.44118
G1 X120.737 Y118.864 E3.56338
G2 X122.093 Y121.835 I8.686 J-2.170 E3.68705
G2 X124.411 Y123.080 I2.394 J-1.677 E3.78950
G1 X134.824 Y123.08 E4.18132
G1 X134.824 Y127.484 E4.34703
G1 X134.23 Y127.493 F7800
G1 E3.54703 F2400
G92 E0
G1 X134.258 Y127.009 F7800
G1 E.8 F2400
;TYPE:Perimeter
G1 F1200
G1 X110.286 Y127.009 E1.70202
G3 X101.179 Y120.266 I-0.112 J-9.371 E2.15974
G3 X104.249 Y110.170 I8.938 J-2.797 E2.58147
G3 X114.798 Y109.173 I6.001 J7.188 E3.00521
G3 X119.612 Y115.779 I-4.231 J8.140 E3.32378
G1 X120.187 Y118.999 E3.44686
G2 X121.647 Y122.184 I9.264 J-2.320 E3.57954
G2 X124.386 Y123.646 I2.836 J-2.016 E3.70037
G1 X134.258 Y123.646 E4.07183
G1 X134.258 Y126.919 E4.19499
G1 E3.39499 F2400
G92 E0
G1 X133.693 Y126.443 F7800
G1 E.8 F2400
G1 F1200
G1 X110.298 Y126.443 E1.68031
G3 X101.719 Y120.098 I-0.124 J-8.805 E2.11147
G3 X104.611 Y110.606 I8.397 J-2.628 E2.50809
G3 X112.437 Y108.851 I5.583 J6.570 E2.82178
M73 P4 R21
G3 X118.851 Y114.982 I-2.155 J8.675 E3.17132
G1 X119.057 Y115.892 E3.20643
G1 X119.637 Y119.135 E3.33039
G2 X121.201 Y122.533 I9.776 J-2.441 E3.47204
G2 X124.361 Y124.211 I3.272 J-2.348 E3.61128
G1 X133.693 Y124.211 E3.96243
G1 X133.693 Y126.353 E4.04303
G1 E3.24303 F2400
G92 E0
G1 X133.127 Y125.877 F7800
G1 E.8 F2400
G1 F1200
G1 X110.311 Y125.877 E1.65852
G3 X102.260 Y119.930 I-0.134 J-8.242 E2.06310
G3 X104.973 Y111.041 I7.859 J-2.460 E2.43462
G3 X109.190 Y109.183 I5.260 J6.225 E2.61034
M73 P5 R21
G3 X118.041 Y114.355 I1.009 J8.433 E3.02444
G3 X118.502 Y116.004 I-7.590 J3.011 E3.08895
G1 X119.086 Y119.271 E3.21383
G2 X120.755 Y122.883 I10.417 J-2.622 E3.36451
G2 X124.336 Y124.777 I3.804 J-2.859 E3.52210
G1 X133.127 Y124.777 E3.85289
G1 X133.127 Y125.787 E3.89089
G1 E3.09089 F2400
G92 E0
G1 X122.67 Y125.312 F7800
G1 E.8 F2400
G1 F1200
G1 X110.323 Y125.312 E1.26459
G3 X102.801 Y119.762 I-0.144 J-7.678 E1.64259
G3 X105.336 Y111.476 I7.316 J-2.292 E1.98906
G3 X113.999 Y110.672 I4.915 J5.883 E2.33712
G3 X117.948 Y116.116 I-3.445 J6.653 E2.59936
G1 X118.536 Y119.406 E2.72512
G2 X120.309 Y123.232 I10.942 J-2.747 E2.88482
G2 X122.717 Y125.027 I4.176 J-3.089 E2.99937
G1 X122.685 Y125.223 E3.00684
G1 E2.20684 F2400
G92 E0
G1 X122.971 Y125.225 F7800
G1 E.8 F2400
;TYPE:Gap fill
;WIDTH:0.701839
G1 F1200
G1 X123.297 Y125.26 E.81456
;WIDTH:0.627491
G1 X123.979 Y125.312 E.84155
;WIDTH:0.569138
G1 X124.323 Y125.327 E.8538
G1 X132.844 Y125.327 E1.15694
G1 E.35694 F2400
G92 E0
G1 X121.854 Y125.029 F7800
G1 E.8 F2400
;WIDTH:0.16444
G1 F1200
G1 X121.482 Y124.75 E.80402
G1 E.00402 F2400
G92 E0
G1 X116.878 Y113.676 F7800
G1 E.8 F2400
;TYPE:Solid infill
;WIDTH:0.602778
G1 F1200
G2 X115.042 Y111.886 I-19.527 J18.192 E0.89698
G2 X113.151 Y110.752 I-4.872 J5.980 E0.98062
G1 X117.098 Y114.7 E1.19171
G3 X117.440 Y115.845 I-5.117 J2.152 E1.23695
G1 X111.942 Y110.348 E1.53093
G2 X110.967 Y110.177 I-1.349 J4.824 E1.56840
G1 X117.636 Y116.845 E1.925
G1 X117.81 Y117.824 E1.9626
G1 X110.116 Y110.129 E2.37407
G1 X109.357 Y110.174 E2.40282
G1 X117.985 Y118.803 E2.86423
G2 X118.215 Y119.836 I4.084 J-0.367 E2.90432
G1 X108.669 Y110.29 E3.4148
G1 X108.038 Y110.463 E3.43954
G1 X118.616 Y121.041 E4.0052
G2 X119.340 Y122.569 I7.963 J-2.838 E4.06921
G1 X107.455 Y110.684 E4.70477
G1 X106.913 Y110.945 E4.72752
G1 X120.83 Y124.863 E5.47177
G1 X120.819 Y124.876 E5.47241
G1 X120.04 Y124.876 E5.50187
G1 X106.406 Y111.243 E6.23093
G1 X106.187 Y111.379 E6.24068
M73 P6 R21
G1 X105.932 Y111.572 E6.25277
G1 X119.236 Y124.876 E6.96421
G1 X118.432 Y124.876 E6.99461
G1 X105.485 Y111.93 E7.68693
G1 X105.066 Y112.314 E7.70842
G1 X117.628 Y124.876 E8.38018
G1 X116.824 Y124.876 E8.41058
G1 X104.677 Y112.729 E9.06015
G1 X104.319 Y113.175 E9.08178
G1 X116.02 Y124.876 E9.7075
G1 X115.216 Y124.876 E9.7379
G1 X103.992 Y113.652 E10.33811
G1 X103.698 Y114.162 E10.36037
G1 X114.412 Y124.876 E10.93331
G1 X113.608 Y124.876 E10.96371
G1 X103.439 Y114.706 E11.50753
G2 X103.220 Y115.291 I2.920 J1.427 E11.53118
G1 X112.804 Y124.876 E12.04372
G1 X112.001 Y124.876 E12.07408
G1 X103.047 Y115.922 E12.5529
G2 X102.930 Y116.609 I3.412 J0.935 E12.57928
G1 X111.197 Y124.876 E13.02136
G1 X110.393 Y124.876 E13.05176
G1 X102.882 Y117.365 E13.45341
G2 X102.919 Y118.206 I4.656 J0.216 E13.48526
G1 X109.554 Y124.841 E13.84007
G3 X108.601 Y124.692 I0.292 J-4.988 E13.87658
G1 X103.103 Y119.194 E14.17059
G2 X103.495 Y120.390 I6.500 J-1.468 E14.21823
G1 X107.457 Y124.352 E14.4301
G3 X105.256 Y122.955 I2.505 J-6.379 E14.52924
G1 X103.727 Y121.426 E14.611
; stop printing object Whistle.stl id:0 copy 0
EXCLUDE_OBJECT_END NAME=Whistle_stl_id_0_copy_0
;LAYER_CHANGE
;Z:0.32
;HEIGHT:0.16
;BEFORE_LAYER_CHANGE
;0.32
M117 Layer 2/109 : PLA - KLIPPER

G1 Z.32 F7800
SET_PRINT_STATS_INFO CURRENT_LAYER=2
;AFTER_LAYER_CHANGE
;0.32
M104 S205 ; set temperature
; printing object Whistle.stl id:0 copy 0
EXCLUDE_OBJECT_START NAME=Whistle_stl_id_0_copy_0
G1 E13.811 F2400
G92 E0
G1 X122.67 Y125.312 F7800
G1 E.8 F2400
;TYPE:Perimeter
;WIDTH:0.6
G1 F2100
G1 X110.323 Y125.312 E1.26459
G3 X102.801 Y119.762 I-0.144 J-7.678 E1.64259
G3 X105.336 Y111.476 I7.316 J-2.292 E1.98905
G3 X113.999 Y110.672 I4.915 J5.885 E2.33710
G3 X117.948 Y116.116 I-3.445 J6.653 E2.59934
G1 X118.536 Y119.406 E2.7251
G2 X120.309 Y123.231 I10.931 J-2.743 E2.88477
G2 X122.717 Y125.027 I4.174 J-3.084 E2.99934
G1 X122.685 Y125.223 E3.00681
G1 E2.20681 F2400
G92 E0
G1 X133.127 Y125.877 F7800
G1 E.8 F2400
M73 P7 R21
G1 F2100
G1 X110.311 Y125.877 E1.65852
G3 X102.260 Y119.930 I-0.134 J-8.242 E2.06310
G3 X104.973 Y111.041 I7.859 J-2.460 E2.43462
G3 X114.266 Y110.172 I5.278 J6.323 E2.80795
G3 X118.502 Y116.004 I-3.708 J7.148 E3.08895
G1 X119.086 Y119.271 E3.21383
G2 X120.755 Y122.882 I10.405 J-2.618 E3.36448
G2 X124.335 Y124.777 I3.802 J-2.853 E3.52207
G1 X133.127 Y124.777 E3.8529
G1 X133.127 Y125.787 E3.8909
G1 E3.0909 F2400
G92 E0
G1 X133.693 Y126.443 F7800
G1 E.8 F2400
G1 F2100
G1 X110.298 Y126.443 E1.68031
G3 X101.719 Y120.098 I-0.124 J-8.805 E2.11147
G3 X104.611 Y110.606 I8.397 J-2.628 E2.50809
G3 X114.532 Y109.672 I5.641 J6.757 E2.90662
G3 X119.057 Y115.892 I-3.970 J7.644 E3.20643
G1 X119.637 Y119.135 E3.33039
G2 X121.201 Y122.533 I9.776 J-2.441 E3.47204
G2 X124.361 Y124.211 I3.272 J-2.348 E3.61128
G1 X133.693 Y124.211 E3.96243
G1 X133.693 Y126.353 E4.04303
G1 E3.24303 F2400
G92 E0
G1 X134.258 Y127.009 F7800
G1 E.8 F2400
G1 F2100
G1 X110.286 Y127.009 E1.70202
G3 X101.179 Y120.266 I-0.112 J-9.371 E2.15974
G3 X104.249 Y110.170 I8.938 J-2.797 E2.58146
G3 X114.798 Y109.173 I6.001 J7.191 E3.00519
G3 X119.611 Y115.779 I-4.227 J8.136 E3.32375
G1 X120.187 Y118.999 E3.44684
G2 X121.647 Y122.184 I9.264 J-2.320 E3.57952
G2 X124.386 Y123.646 I2.836 J-2.016 E3.70035
G1 X134.258 Y123.646 E4.07181
G1 X134.258 Y126.919 E4.19497
G1 E3.39497 F2400
G92 E0
G1 X134.824 Y127.574 F7800
G1 E.8 F2400
;TYPE:External perimeter
G1 F2100
G1 X110.273 Y127.574 E1.72381
G3 X100.638 Y120.433 I-0.082 J-9.960 E2.20812
G3 X103.887 Y109.735 I9.480 J-2.963 E2.65489
G3 X115.065 Y108.673 I6.364 J7.627 E3.10383
G3 X120.166 Y115.667 I-4.494 J8.635 E3.44116
G1 X120.737 Y118.864 E3.56336
G2 X122.093 Y121.835 I8.686 J-2.170 E3.68703
G2 X124.411 Y123.080 I2.394 J-1.677 E3.78948
G1 X134.824 Y123.08 E4.1813
G1 X134.824 Y127.484 E4.34701
G1 X134.23 Y127.493 F7800
G1 E3.54701 F2400
G92 E0
G1 X132.844 Y125.327 F7800
G1 E.8 F2400
;TYPE:Gap fill
;WIDTH:0.569138
G1 F2100
G1 X124.323 Y125.327 E1.10314
G1 X123.979 Y125.312 E1.11539
;WIDTH:0.627493
G1 X123.297 Y125.26 E1.14238
;WIDTH:0.701838
G1 X122.971 Y125.225 E1.15694
G1 E.35694 F2400
G92 E0
G1 X121.854 Y125.029 F7800
G1 E.8 F2400
;WIDTH:0.16443
G1 F2100
G1 X121.482 Y124.75 E.80402
G1 E.00402 F2400
G92 E0
G1 X106.043 Y111.228 F7800
G1 E.8 F2400
;TYPE:Solid infill
;WIDTH:0.544336
G1 F2100
G2 X104.204 Y113.026 I10.573 J12.653 E0.88733
G1 E.08733 F2400
G92 E0
G1 X103.548 Y114.423 F7800
G1 E.8 F2400
G1 F2100
G3 X103.565 Y114.361 I-0.045 J-0.046 E0.81080
;WIDTH:0.572168
G1 X103.683 Y114.169 E.81886
;WIDTH:0.599999
G1 X103.8 Y113.978 E.82729
G1 X106.744 Y111.034 E.98395
G1 E.18395 F2400
G92 E0
G1 X108.144 Y110.434 F7800
G1 E.8 F2400
G1 F2100
G1 X103.187 Y115.391 E1.06378
G1 X102.953 Y116.425 E1.10367
G1 X109.176 Y110.202 E1.43482
G1 X110.05 Y110.128 E1.46782
G1 X102.884 Y117.294 E1.84915
G1 X102.91 Y118.068 E1.87829
M73 P8 R21
G1 X110.818 Y110.16 E2.29911
G1 X111.52 Y110.258 E2.32578
G1 X103.008 Y118.77 E2.77874
G1 X103.161 Y119.417 E2.80376
G1 X112.171 Y110.407 E3.28322
G1 X112.775 Y110.603 E3.30711
G1 X103.357 Y120.02 E3.80825
G1 X103.587 Y120.591 E3.83141
G1 X113.337 Y110.841 E4.35025
G1 X113.874 Y111.104 E4.37275
G1 X103.854 Y121.124 E4.90596
G1 X104.156 Y121.622 E4.92788
G1 X114.375 Y111.403 E5.47167
G1 X114.84 Y111.737 E5.49321
G1 X104.486 Y122.092 E6.04422
G1 X104.847 Y122.531 E6.06561
G1 X115.277 Y112.1 E6.62066
G1 X115.684 Y112.493 E6.64195
G1 X105.239 Y122.939 E7.1978
G1 X105.668 Y123.309 E7.21912
G1 X116.061 Y112.916 E7.77217
G1 X116.398 Y113.379 E7.79372
G1 X106.131 Y123.647 E8.3401
G1 X106.626 Y123.951 E8.36196
G1 X116.701 Y113.877 E8.89807
G1 X116.967 Y114.41 E8.92048
G1 X107.159 Y124.219 E9.44243
G1 X107.73 Y124.447 E9.46557
G1 X117.196 Y114.981 E9.96929
G1 X117.383 Y115.595 E9.99344
G1 X108.345 Y124.632 E10.47436
G1 X109.009 Y124.768 E10.49986
G1 X117.529 Y116.248 E10.95324
G1 X117.65 Y116.927 E10.97919
G1 X109.728 Y124.849 E11.40075
G1 X110.501 Y124.876 E11.42985
G1 X117.772 Y117.606 E11.81674
G1 X117.893 Y118.284 E11.84265
G1 X111.301 Y124.876 E12.19344
G1 X112.101 Y124.876 E12.22354
G1 X118.014 Y118.963 E12.53819
G1 X118.149 Y119.628 E12.56372
G1 X112.901 Y124.876 E12.84299
G1 X113.701 Y124.876 E12.87309
G1 X118.341 Y120.236 E13.12
G1 X118.534 Y120.843 E13.14397
G1 X114.501 Y124.876 E13.35858
G1 X115.301 Y124.876 E13.38868
G1 X118.77 Y121.407 E13.57328
G1 X119.012 Y121.965 E13.59617
G1 X116.101 Y124.876 E13.75108
G1 X116.901 Y124.876 E13.78118
G1 X119.294 Y122.483 E13.90852
G1 X119.6 Y122.977 E13.93039
G1 X117.701 Y124.876 E14.03144
G1 X118.501 Y124.876 E14.06154
G1 X119.929 Y123.448 E14.13753
G1 X120.297 Y123.88 E14.15888
G1 X119.301 Y124.876 E14.21188
G1 X120.101 Y124.876 E14.24198
G1 X120.697 Y124.28 E14.2737
G1 X121.128 Y124.576 E14.29337
;WIDTH:0.580899
G1 X121.025 Y124.722 E14.29987
;WIDTH:0.617462
G1 X120.922 Y124.867 E14.30677
; stop printing object Whistle.stl id:0 copy 0
EXCLUDE_OBJECT_END NAME=Whistle_stl_id_0_copy_0
M106 S255
;LAYER_CHANGE
;Z:0.48
;HEIGHT:0.16
;BEFORE_LAYER_CHANGE
;0.48
M117 Layer 3/109 : PLA - KLIPPER

G1 Z.48 F7800
SET_PRINT_STATS_INFO CURRENT_LAYER=3
;AFTER_LAYER_CHANGE
;0.48
; printing object Whistle.stl id:0 copy 0
EXCLUDE_OBJECT_START NAME=Whistle_stl_id_0_copy_0
G1 E13.50677 F2400
G92 E0
G1 X122.67 Y125.312 F7800
G1 E.8 F2400
;TYPE:Perimeter
;WIDTH:0.6
G1 F2100
G1 X110.323 Y125.312 E1.26459
G3 X102.801 Y119.762 I-0.144 J-7.678 E1.64259
G3 X105.336 Y111.476 I7.316 J-2.292 E1.98905
G3 X113.999 Y110.672 I4.915 J5.888 E2.33710
G3 X117.948 Y116.116 I-3.445 J6.653 E2.59934
G1 X118.536 Y119.406 E2.7251
G2 X120.309 Y123.231 I10.931 J-2.743 E2.88477
G2 X122.717 Y125.027 I4.174 J-3.084 E2.99934
G1 X122.685 Y125.223 E3.00681
G1 E2.20681 F2400
G92 E0
G1 X133.127 Y125.877 F7800
G1 E.8 F2400
G1 F2100
G1 X110.311 Y125.877 E1.65852
G1 X109.432 Y125.838 E1.69163
M73 P9 R20
G3 X102.260 Y119.930 I0.732 J-8.195 E2.06310
G3 X104.973 Y111.041 I7.859 J-2.460 E2.43462
G3 X114.266 Y110.172 I5.279 J6.325 E2.80794
G3 X118.502 Y116.004 I-3.708 J7.148 E3.08894
G1 X119.086 Y119.271 E3.21382
G2 X120.755 Y122.882 I10.405 J-2.618 E3.36447
G2 X124.336 Y124.777 I3.802 J-2.853 E3.52209
G1 X133.127 Y124.777 E3.85288
G1 X133.127 Y125.787 E3.89088
G1 E3.09088 F2400
G92 E0
G1 X133.693 Y126.443 F7800
G1 E.8 F2400
G1 F2100
G1 X110.298 Y126.443 E1.68031
